static/luts/FujiVelvia100.cube
#Created by: Adobe Photoshop Export Color Lookup Plugin
#Copyright: (C) Copyright 2022 Tim Martin and Presetpro.com
TITLE "FUJ 07  - Velvia +.jpg"
#LUT size
LUT_3D_SIZE 32
#data domain
DOMAIN_MIN 0.0 0.0 0.0
DOMAIN_MAX 1.0 1.0 1.0
#LUT data points
0.000000 0.000000 0.000000
0.004303 0.000000 0.000000
0.020355 0.000000 0.000000
0.039978 0.000000 0.003540
0.059326 0.000000 0.000000
0.072479 0.000000 0.000000
0.097900 0.000763 0.000000
0.135101 0.000000 0.003052
0.167847 0.000000 0.002014
0.207336 0.003937 0.000000
0.242859 0.000000 0.000000
0.294617 0.001404 0.001404
0.332428 0.001526 0.004822
0.378479 0.000000 0.000000
0.416687 0.001770 0.001770
0.462463 0.003937 0.000000
0.500336 0.001892 0.001892
0.540192 0.000000 0.000000
0.577759 0.000000 0.000000
0.615967 0.000000 0.000000
0.645416 0.003937 0.000000
0.683868 0.002655 0.000000
0.723724 0.002777 0.003937
0.757751 0.000000 0.002899
0.796478 0.003937 0.000000
0.842499 0.003937 0.003174
0.875916 0.000641 0.003296
0.915131 0.000000 0.003937
0.940033 0.004303 0.001129
0.990631 0.000244 0.000000
0.999878 0.007599 0.000000
1.000000 0.094116 0.000000
0.000000 0.007843 0.003784
0.004181 0.004059 0.000000
0.028198 0.007843 0.000000
0.043640 0.003784 0.000000
0.052612 0.007599 0.000000
0.079834 0.000763 0.000000
0.101959 0.004547 0.003937
0.137756 0.000885 0.000000
0.170776 0.000000 0.002899
0.214539 0.000000 0.000000
0.249176 0.001129 0.000000
0.295990 0.000000 0.002655
0.338501 0.000000 0.000000
0.372284 0.001648 0.000000
0.427429 0.000122 0.000000
0.460571 0.003937 0.001892
0.502228 0.003784 0.003784
0.540314 0.000000 0.000000
0.577881 0.000000 0.000122
0.618347 0.000000 0.000244
0.649353 0.000000 0.000000
0.690338 0.000000 0.000000
0.723724 0.002777 0.002777
0.760803 0.000122 0.000000
0.796600 0.003784 0.000000
0.839355 0.000885 0.000122
0.879211 0.003784 0.003174
0.915253 0.003296 0.000000
0.947113 0.003540 0.000000
0.990631 0.000000 0.003662
0.992279 0.015808 0.000244
0.999756 0.118011 0.000122
0.007843 0.012024 0.000000
0.012146 0.015808 0.000000
0.031616 0.012024 0.000000
0.047699 0.008362 0.000519
0.071594 0.008606 0.006836
0.083496 0.011780 0.000000
0.112579 0.011261 0.000000
0.134583 0.006592 0.000000
0.178101 0.000000 0.003662
0.217957 0.002258 0.000000
0.259827 0.000000 0.001007
0.298523 0.000000 0.000244
0.337616 0.004822 0.002411
0.385559 0.001648 0.000244
0.428070 0.002167 0.000000
0.470062 0.001648 0.003540
0.504150 0.001770 0.001770
0.542206 0.001770 0.000000
0.579651 0.001892 0.000000
0.618347 0.003937 0.000000
0.645935 0.003937 0.001404
0.686554 0.000000 0.000000
0.724854 0.003937 0.005066
0.763580 0.002899 0.000000
0.800385 0.000000 0.003662
0.840363 0.000244 0.000244
0.878937 0.003662 0.003052
0.915894 0.000763 0.003662
0.943848 0.000244 0.000000
0.983551 0.000244 0.003418
1.000000 0.051239 0.003540
0.996338 0.138000 0.000000
0.003540 0.023895 0.007080
0.016205 0.024170 0.003937
0.035309 0.023773 0.003662
0.051727 0.024292 0.000000
0.064636 0.020752 0.000000
0.089569 0.027313 0.000366
0.117523 0.017212 0.000366
0.152557 0.015686 0.006958
0.179352 0.006592 0.009125
0.224152 0.003937 0.000000
0.261597 0.000366 0.001648
0.312714 0.001007 0.000763
0.339874 0.004822 0.001129
0.393158 0.001648 0.003540
0.433746 0.000763 0.000366
0.473114 0.003540 0.005829
0.513763 0.000000 0.003540
0.546265 0.000366 0.000000
0.583954 0.005432 0.000000
0.623413 0.001526 0.000000
0.653259 0.000366 0.000000
0.690338 0.000000 0.001251
0.725250 0.003540 0.005066
0.760651 0.002533 0.000000
0.799500 0.006195 0.000000
0.842499 0.003937 0.000366
0.876678 0.001007 0.000366
0.915497 0.003784 0.000000
0.954956 0.000366 0.000000
0.984558 0.010742 0.000000
1.000000 0.098938 0.007477
0.996063 0.162689 0.000000
0.014679 0.036804 0.007324
0.016327 0.037445 0.007965
0.034790 0.040466 0.007324
0.043640 0.044647 0.011780
0.071594 0.041229 0.000000
0.097137 0.048950 0.000122
0.132446 0.043884 0.000763
0.163574 0.034271 0.000519
0.200104 0.028473 0.003937
0.230347 0.015442 0.000000
0.274109 0.003662 0.000000
0.315857 0.002533 0.002533
0.357086 0.000000 0.000000
0.398468 0.000000 0.002289
0.434631 0.000000 0.000000
0.480072 0.000000 0.006836
0.516541 0.001892 0.002014
0.549042 0.001648 0.000000
0.585602 0.000000 0.003937
0.620392 0.001526 0.001526
0.659729 0.000519 0.003418
0.694641 0.000000 0.001251
0.730438 0.000519 0.001007
0.766602 0.002899 0.000000
0.808228 0.000000 0.000000
0.846436 0.000000 0.000000
0.883118 0.003296 0.003296
0.915619 0.003937 0.000000
0.952698 0.014160 0.000519
0.990143 0.084106 0.003174
1.000000 0.139526 0.010376
0.996063 0.201019 0.003418
0.003937 0.061981 0.000641
0.011261 0.061462 0.004059
0.020111 0.064880 0.001251
0.038696 0.065887 0.008850
0.064270 0.069183 0.003418
0.099945 0.073120 0.000000
0.140167 0.080963 0.003784
0.179108 0.074127 0.003052
0.205933 0.072357 0.000366
0.242249 0.051971 0.000000
0.281464 0.044525 0.000000
0.326996 0.019470 0.002014
0.362030 0.008606 0.000885
0.404907 0.001251 0.002014
0.442108 0.000000 0.002777
0.488525 0.002014 0.004059
0.521973 0.001404 0.001251
0.558258 0.000000 0.000000
0.595703 0.000000 0.004547
0.632141 0.001526 0.004791
0.661102 0.003937 0.000000
0.700836 0.001892 0.002014
0.733337 0.002167 0.004303
0.770142 0.000641 0.001007
0.804932 0.000885 0.006592
0.848450 0.000763 0.002136
0.881866 0.004547 0.000000
0.919678 0.016815 0.001892
0.955994 0.082092 0.000641
0.990509 0.140167 0.000000
1.000000 0.179626 0.000122
1.000000 0.229340 0.000000
0.000000 0.097900 0.007080
0.000000 0.097900 0.007080
0.007080 0.097900 0.003662
0.022003 0.098297 0.006714
0.039459 0.105743 0.000519
0.082611 0.108917 0.003296
0.130157 0.110413 0.004669
0.174835 0.119293 0.000885
0.224915 0.117523 0.005829
0.258545 0.109283 0.000000
0.295990 0.097656 0.002655
0.336853 0.082458 0.005829
0.380890 0.066528 0.000000
0.412872 0.058441 0.000763
0.454498 0.038330 0.000000
0.489929 0.020996 0.000000
0.523499 0.008850 0.000000
0.563721 0.004547 0.001404
0.598114 0.000763 0.005432
0.634033 0.001526 0.006958
0.670349 0.002533 0.000763
0.704742 0.000000 0.000000
0.740540 0.001892 0.001129
0.774200 0.005432 0.004181
0.808228 0.009094 0.001526
0.849609 0.027191 0.002411
0.890320 0.071350 0.000000
0.925629 0.114594 0.000000
0.961304 0.151672 0.000000
0.994324 0.190247 0.000000
0.999237 0.227448 0.006958
1.000000 0.262604 0.007080
0.000000 0.138641 0.000000
0.000000 0.139526 0.000885
0.000000 0.139526 0.000885
0.000000 0.142181 0.000000
0.016693 0.142548 0.000366
0.052124 0.150146 0.003296
0.106781 0.151917 0.000000
0.154694 0.163055 0.000885
0.215424 0.168365 0.000122
0.267395 0.166718 0.000244
0.303101 0.164062 0.002655
0.345093 0.146851 0.000000
0.383392 0.138885 0.003296
0.419586 0.126129 0.002655
0.462463 0.111572 0.003937
0.500427 0.098145 0.000000
0.535614 0.092194 0.000000
0.572540 0.085602 0.000000
0.603790 0.074860 0.003052
0.640991 0.066132 0.004547
0.669830 0.062469 0.002258
0.707397 0.068176 0.003937
0.741425 0.070312 0.000885
0.783173 0.086121 0.002014
0.819122 0.100311 0.003052
0.857330 0.126495 0.002289
0.890961 0.156616 0.002411
0.924347 0.176086 0.000000
0.958893 0.208984 0.004425
0.994690 0.231995 0.000519
1.000000 0.268677 0.000122
0.996948 0.296783 0.000885
0.000000 0.186462 0.000000
0.000000 0.185577 0.000122
0.000000 0.185699 0.000000
0.000763 0.187073 0.000000
0.002014 0.192261 0.006836
0.008362 0.193909 0.002899
0.064392 0.198975 0.000000
0.132324 0.206940 0.002899
0.185455 0.213898 0.002899
0.255280 0.219208 0.003174
0.318024 0.225525 0.002655
0.352570 0.213898 0.002533
0.393402 0.204559 0.000519
0.430481 0.190491 0.000641
0.470825 0.180878 0.001007
0.510559 0.164948 0.003662
0.537659 0.158997 0.001892
0.577240 0.153168 0.000000
0.613678 0.150909 0.002899
0.645294 0.148254 0.001526
0.681366 0.142944 0.002014
0.712585 0.145325 0.000000
0.745361 0.155823 0.001129
0.781281 0.165833 0.001892
0.818237 0.174927 0.001007
0.856812 0.190887 0.000763
0.892242 0.215302 0.002289
0.923096 0.230591 0.003937
0.963715 0.253357 0.002533
0.989624 0.283478 0.000000
0.998993 0.306641 0.000000
0.997101 0.335480 0.000000
0.000000 0.234283 0.001129
0.000000 0.237061 0.003937
0.000000 0.235413 0.000000
0.000763 0.235016 0.000000
0.000000 0.234894 0.002411
0.001526 0.244385 0.002777
0.006317 0.242859 0.000000
0.087799 0.249695 0.001770
0.164825 0.257935 0.001129
0.220245 0.265656 0.000000
0.299530 0.272461 0.001648
0.349487 0.288666 0.002533
0.400635 0.273499 0.001129
0.436798 0.263000 0.000000
0.480438 0.248322 0.004425
0.509277 0.240204 0.000000
0.549164 0.224030 0.000885
0.580414 0.216827 0.001007
0.615326 0.210236 0.000000
0.651245 0.209473 0.000000
0.683502 0.206299 0.003662
0.717651 0.209076 0.001251
0.752930 0.217438 0.000000
0.791412 0.225555 0.000000
0.825928 0.237305 0.001129
0.858826 0.249207 0.000000
0.891602 0.270447 0.000000
0.929657 0.285370 0.002289
0.963196 0.306519 0.006317
0.990509 0.324219 0.000244
0.996063 0.346466 0.001129
0.996063 0.374298 0.001129
0.001251 0.283356 0.002533
0.000000 0.282074 0.001251
0.000000 0.283356 0.000000
0.002655 0.286011 0.000000
0.001770 0.283997 0.002655
0.000641 0.286652 0.000000
0.000000 0.289917 0.000000
0.014557 0.301300 0.000000
0.118408 0.308533 0.001007
0.186462 0.309021 0.000122
0.267792 0.321289 0.001251
0.319031 0.331940 0.001404
0.399719 0.343323 0.002533
0.438934 0.332306 0.000000
0.481567 0.314209 0.000519
0.516602 0.304993 0.002533
0.554596 0.291199 0.001251
0.590271 0.283722 0.000000
0.623779 0.274475 0.000000
0.656433 0.270447 0.000000
0.687286 0.265015 0.002655
0.724213 0.265137 0.000000
0.757507 0.275635 0.002533
0.795959 0.283356 0.002899
0.825165 0.292969 0.000000
0.861725 0.303467 0.000000
0.895508 0.322052 0.002014
0.929169 0.331299 0.003937
0.963043 0.350281 0.003540
0.992920 0.371521 0.000000
0.998749 0.391510 0.002533
0.997345 0.410370 0.002533
0.002533 0.333832 0.000000
0.000000 0.329895 0.001404
0.003937 0.333832 0.002777
0.001007 0.336365 0.002411
0.002533 0.331299 0.002533
0.000641 0.334442 0.002533
0.000763 0.336975 0.002777
0.001404 0.341675 0.001404
0.037323 0.349121 0.000000
0.150421 0.349243 0.001129
0.227814 0.367615 0.006439
0.299438 0.370270 0.000000
0.365967 0.377716 0.000000
0.433868 0.394043 0.000000
0.482971 0.383667 0.000366
0.517761 0.373413 0.000000
0.558014 0.360870 0.007202
0.591156 0.350891 0.000000
0.628723 0.339142 0.000000
0.660492 0.334198 0.001404
0.691345 0.326233 0.000000
0.728271 0.325989 0.000000
0.762695 0.327362 0.000000
0.800262 0.338623 0.004303
0.833405 0.348633 0.000000
0.865784 0.355438 0.001404
0.900696 0.369232 0.003296
0.935242 0.379883 0.005310
0.961426 0.393646 0.004700
0.996704 0.414276 0.003296
0.996063 0.430206 0.000000
0.997223 0.448944 0.005066
0.002411 0.377716 0.002411
0.005188 0.376343 0.002411
0.002411 0.379242 0.002411
0.001129 0.377960 0.000000
0.007233 0.378235 0.000000
0.000000 0.379242 0.000000
0.000000 0.380890 0.000000
0.000885 0.383148 0.000641
0.000000 0.393280 0.002899
0.083344 0.399353 0.004303
0.189606 0.408600 0.002655
0.265137 0.416199 0.002777
0.337250 0.422363 0.003021
0.398834 0.426666 0.004547
0.480560 0.442230 0.005829
0.522675 0.436676 0.000000
0.560181 0.426788 0.000000
0.596863 0.413879 0.001526
0.628723 0.404266 0.000000
0.662109 0.397949 0.000000
0.700317 0.396423 0.001526
0.733612 0.392517 0.000000
0.768250 0.388214 0.003784
0.805328 0.390991 0.001526
0.838715 0.394928 0.005432
0.871338 0.404419 0.001526
0.906006 0.418091 0.000000
0.936249 0.428192 0.000000
0.964325 0.440094 0.000000
0.994690 0.454132 0.003937
0.995941 0.470062 0.001526
1.000000 0.483612 0.003021
0.003296 0.419342 0.003296
0.000000 0.423126 0.003143
0.000000 0.421875 0.000000
0.000000 0.425171 0.000000
0.000000 0.425018 0.004547
0.006836 0.423889 0.002289
0.000000 0.423248 0.003296
0.000000 0.423889 0.000000
0.004303 0.430084 0.000000
0.005676 0.440216 0.002289
0.137390 0.443512 0.000366
0.230225 0.452484 0.001404
0.296631 0.461334 0.000000
0.373566 0.461823 0.000000
0.438934 0.472717 0.001648
0.514465 0.490570 0.002289
0.561066 0.487885 0.001892
0.597992 0.478394 0.000000
0.632019 0.465759 0.002289
0.667572 0.459290 0.001526
0.702209 0.456024 0.000000
0.738159 0.451965 0.000000
0.773560 0.449554 0.001129
0.806091 0.450073 0.002899
0.842133 0.445648 0.001404
0.874634 0.452240 0.000000
0.905640 0.464142 0.000641
0.940308 0.472076 0.000000
0.967102 0.481964 0.001648
0.999481 0.494232 0.000244
0.997833 0.509796 0.000000
0.996063 0.515717 0.002289
0.002167 0.463745 0.000000
0.005951 0.465393 0.004303
0.003937 0.463348 0.002167
0.001770 0.464752 0.000000
0.002655 0.465515 0.000519
0.001129 0.464874 0.001129
0.006073 0.461975 0.004303
0.000000 0.461578 0.000000
0.000763 0.464508 0.006439
0.001251 0.474762 0.002777
0.063110 0.479187 0.002167
0.178345 0.488281 0.000000
0.270691 0.494598 0.002655
0.341156 0.500549 0.000000
0.408844 0.508636 0.000000
0.482208 0.513092 0.000000
0.551697 0.534454 0.003784
0.604309 0.537079 0.007080
0.636566 0.522064 0.001648
0.677826 0.519775 0.001526
0.709930 0.512177 0.000000
0.744476 0.509521 0.000000
0.776215 0.507629 0.000000
0.812256 0.504730 0.001129
0.842255 0.505615 0.001770
0.880707 0.505096 0.001404
0.913361 0.506500 0.002411
0.943085 0.513824 0.000000
0.969269 0.521820 0.004303
0.997345 0.532043 0.001892
0.999878 0.544067 0.002014
1.000000 0.553925 0.000000
0.000000 0.507629 0.003937
0.002014 0.505615 0.004059
0.003937 0.503448 0.002014
0.003540 0.503082 0.002014
0.001404 0.504211 0.001892
0.001251 0.502197 0.000000
0.003174 0.500427 0.001892
0.003052 0.500671 0.000000
0.003052 0.507507 0.006958
0.002014 0.507874 0.003021
0.006317 0.516602 0.000000
0.133301 0.519775 0.004791
0.244019 0.524323 0.005066
0.317627 0.534058 0.000000
0.381012 0.540771 0.001770
0.452606 0.546722 0.005829
0.522247 0.554565 0.000122
0.585999 0.568756 0.005951
0.645660 0.583130 0.008850
0.680206 0.577057 0.000000
0.715881 0.566345 0.000641
0.751190 0.564178 0.001892
0.787476 0.562286 0.001129
0.820221 0.559357 0.000000
0.851105 0.556458 0.001129
0.881744 0.554565 0.000000
0.910583 0.557861 0.003296
0.945465 0.559875 0.000000
0.971802 0.562408 0.001648
0.999481 0.570007 0.000244
1.000000 0.579865 0.001892
0.996216 0.591766 0.000000
0.000000 0.543457 0.002014
0.000000 0.541443 0.000000
0.000000 0.539795 0.000244
0.000000 0.543091 0.001648
0.000000 0.541443 0.000000
0.000000 0.542084 0.000641
0.000000 0.541443 0.000000
0.000885 0.540558 0.000000
0.003021 0.536530 0.000000
0.000000 0.546753 0.000000
0.000763 0.549927 0.002014
0.080078 0.549408 0.004181
0.205231 0.558655 0.000000
0.293457 0.564331 0.000000
0.364410 0.574982 0.001770
0.432739 0.578766 0.000122
0.496399 0.588501 0.000000
0.558136 0.598511 0.001770
0.627838 0.608765 0.000000
0.688812 0.625458 0.005066
0.721954 0.617981 0.002014
0.755737 0.614197 0.002655
0.790405 0.607361 0.003021
0.825439 0.607361 0.000885
0.859222 0.605347 0.000000
0.889069 0.603577 0.001129
0.917023 0.606995 0.005310
0.943085 0.602417 0.002014
0.977356 0.606232 0.009369
0.997986 0.608002 0.004181
0.999878 0.617859 0.000000
1.000000 0.619873 0.003937
0.001770 0.577637 0.002167
0.000000 0.577240 0.000000
0.000000 0.579407 0.000000
0.000000 0.579407 0.000000
0.003815 0.575592 0.000000
0.001770 0.577637 0.000000
0.001526 0.575104 0.003540
0.003052 0.575470 0.003540
0.000000 0.573334 0.002289
0.000000 0.571442 0.000000
0.002655 0.579254 0.000000
0.020599 0.583313 0.001404
0.168823 0.591797 0.000000
0.268890 0.601379 0.002289
0.341003 0.606476 0.000000
0.412994 0.612671 0.004059
0.478333 0.618500 0.001770
0.542725 0.630371 0.003540
0.606079 0.635071 0.000000
0.663757 0.646179 0.004303
0.728149 0.662140 0.000000
0.767487 0.661743 0.000000
0.799133 0.656189 0.002167
0.829498 0.652130 0.000000
0.860107 0.649994 0.000885
0.892242 0.643921 0.000000
0.922333 0.648224 0.003296
0.947998 0.649475 0.002167
0.975708 0.650360 0.000000
0.999237 0.649994 0.005432
0.995941 0.657715 0.005951
1.000000 0.656067 0.001770
0.001648 0.613678 0.000000
0.000000 0.615326 0.000000
0.000000 0.619232 0.001648
0.004181 0.616577 0.002014
0.004059 0.612915 0.003418
0.007202 0.613037 0.000000
0.003937 0.611389 0.000763
0.002289 0.612152 0.004059
0.004181 0.609131 0.000000
0.001648 0.613037 0.000000
0.003052 0.614166 0.002533
0.005066 0.618103 0.000000
0.135040 0.626312 0.000000
0.257629 0.629730 0.003296
0.327240 0.639984 0.004059
0.397308 0.644653 0.000397
0.466553 0.649963 0.007599
0.528564 0.659851 0.003296
0.590790 0.666290 0.000000
0.645935 0.674286 0.000000
0.705017 0.682739 0.000244
0.766602 0.699707 0.006592
0.806091 0.701080 0.002136
0.839111 0.693115 0.000000
0.871857 0.688934 0.000000
0.896393 0.688202 0.000000
0.924255 0.688812 0.004547
0.952057 0.690979 0.001129
0.978882 0.686279 0.000000
1.000000 0.688202 0.005951
0.997711 0.687561 0.001648
1.000000 0.693756 0.000000
0.000000 0.655182 0.000000
0.000122 0.655029 0.000000
0.002411 0.652771 0.000000
0.003174 0.650879 0.000000
0.001892 0.649231 0.000000
0.002136 0.653015 0.000000
0.001526 0.650482 0.000000
0.000000 0.655182 0.000000
0.005829 0.646423 0.000000
0.003662 0.650208 0.000000
0.004181 0.648468 0.000000
0.004059 0.654144 0.000000
0.095795 0.659729 0.001526
0.231323 0.662262 0.000000
0.315948 0.668457 0.001526
0.383301 0.676666 0.000000
0.454559 0.682251 0.002014
0.515900 0.687805 0.000000
0.580536 0.694244 0.000000
0.636444 0.701324 0.002411
0.687439 0.701477 0.002411
0.742584 0.716278 0.001526
0.802399 0.729553 0.002655
0.848328 0.734619 0.000000
0.870972 0.729675 0.000000
0.902863 0.726501 0.000000
0.929932 0.726654 0.000885
0.957245 0.722839 0.001007
0.982056 0.723358 0.000000
0.997986 0.725769 0.004822
0.998474 0.720947 0.002411
1.000000 0.727264 0.000000
0.000000 0.691101 0.001404
0.002533 0.688568 0.001404
0.000244 0.689453 0.000000
0.002533 0.687164 0.000000
0.002533 0.687164 0.000000
0.002533 0.687164 0.000641
0.002533 0.687164 0.002533
0.002533 0.687164 0.000000
0.002533 0.687164 0.001526
0.006714 0.682129 0.000000
0.002655 0.684631 0.007965
0.002533 0.682098 0.000000
0.059113 0.693634 0.001526
0.218567 0.693237 0.004669
0.301422 0.699188 0.005310
0.381897 0.706787 0.001404
0.447083 0.712097 0.002014
0.508423 0.717407 0.002167
0.572571 0.719940 0.000000
0.627228 0.732849 0.001404
0.678192 0.735626 0.000000
0.731201 0.744598 0.000000
0.787231 0.747894 0.000000
0.840851 0.760925 0.000000
0.879333 0.766113 0.000000
0.912598 0.763062 0.002533
0.934601 0.759155 0.000000
0.959656 0.760040 0.000000
0.983185 0.759155 0.000000
1.000000 0.756378 0.002533
0.997467 0.756622 0.000000
0.994690 0.764465 0.001404
0.000000 0.720428 0.002655
0.000000 0.720581 0.002533
0.002655 0.723114 0.005310
0.001648 0.721710 0.003937
0.000000 0.722595 0.002655
0.003937 0.721710 0.003937
0.000000 0.718414 0.003174
0.000885 0.718658 0.000885
0.001251 0.721466 0.000000
0.001526 0.719177 0.003937
0.003784 0.720428 0.003937
0.001404 0.719177 0.001404
0.041443 0.723114 0.003021
0.213745 0.724731 0.002045
0.303955 0.733459 0.000000
0.374054 0.739288 0.000000
0.438995 0.740692 0.002014
0.504761 0.749908 0.002533
0.562714 0.751801 0.000366
0.615692 0.759155 0.000000
0.671356 0.760925 0.001251
0.723114 0.768768 0.001251
0.776245 0.771545 0.002258
0.822144 0.776611 0.001251
0.874908 0.790894 0.000366
0.911194 0.798126 0.001007
0.938660 0.798248 0.002533
0.962677 0.791779 0.000763
0.982788 0.787994 0.002655
1.000000 0.790009 0.003937
1.000000 0.788239 0.000000
0.997467 0.792297 0.000000
0.002777 0.757385 0.000000
0.000122 0.754730 0.000000
0.002533 0.757629 0.000000
0.000366 0.757385 0.002777
0.003937 0.751678 0.006195
0.002167 0.757996 0.000000
0.002258 0.759033 0.000000
0.000885 0.757019 0.001129
0.001007 0.755615 0.001007
0.003418 0.753357 0.000000
0.004059 0.753845 0.007446
0.001404 0.749786 0.004181
0.046478 0.753845 0.001526
0.207306 0.755096 0.001129
0.302826 0.757385 0.001770
0.374939 0.767120 0.002014
0.436218 0.768372 0.000000
0.501343 0.774597 0.001129
0.561676 0.779266 0.001129
0.612793 0.784454 0.001129
0.663910 0.787354 0.000000
0.720703 0.792664 0.002777
0.766876 0.796600 0.005585
0.810120 0.800629 0.000000
0.850098 0.804932 0.002258
0.904358 0.820129 0.001129
0.947632 0.827972 0.000641
0.969269 0.824036 0.000641
0.987488 0.821259 0.000000
0.999481 0.817322 0.000885
0.995941 0.819122 0.000000
0.997223 0.818970 0.001129
0.001007 0.790009 0.001007
0.002014 0.788239 0.002014
0.000000 0.790009 0.001007
0.000000 0.790009 0.006836
0.000000 0.788635 0.002014
0.005585 0.789124 0.000000
0.004303 0.785950 0.005829
0.006958 0.789001 0.006958
0.001007 0.788116 0.004822
0.000000 0.788879 0.000000
0.004181 0.786224 0.004547
0.004425 0.784180 0.004059
0.049652 0.785706 0.004547
0.214111 0.785217 0.004547
0.304840 0.790009 0.000000
0.375946 0.792908 0.001892
0.443665 0.797974 0.002014
0.501343 0.803802 0.002014
0.561676 0.800903 0.000641
0.614441 0.805817 0.006836
0.661865 0.814178 0.000000
0.708160 0.821899 0.000000
0.765472 0.822144 0.000000
0.808746 0.824432 0.005829
0.844543 0.828461 0.000000
0.886902 0.832764 0.000244
0.928650 0.844788 0.004547
0.970520 0.851868 0.000000
0.990387 0.855408 0.000000
1.000000 0.847198 0.000000
0.999115 0.843903 0.003784
1.000000 0.845032 0.004944
0.000885 0.820007 0.000000
0.003937 0.823029 0.000000
0.003937 0.823029 0.000000
0.001648 0.820007 0.000000
0.000000 0.817841 0.003052
0.001526 0.820618 0.000000
0.003052 0.822266 0.001526
0.000000 0.818726 0.003937
0.000000 0.815948 0.002014
0.001129 0.822021 0.000000
0.000885 0.815704 0.000000
0.001648 0.820618 0.004425
0.095337 0.814545 0.001526
0.231964 0.815430 0.003052
0.312683 0.820007 0.002533
0.385193 0.822784 0.000000
0.445679 0.825684 0.000000
0.503510 0.827850 0.000000
0.564087 0.831757 0.002289
0.613556 0.835693 0.000885
0.669220 0.836060 0.000000
0.713989 0.841003 0.000000
0.757263 0.844147 0.002777
0.796844 0.851227 0.003052
0.835693 0.852264 0.000885
0.878571 0.855408 0.003052
0.915131 0.860352 0.000000
0.957001 0.869202 0.000000
0.990906 0.879333 0.003418
0.999115 0.873627 0.000000
0.996704 0.877289 0.003052
0.993927 0.874023 0.000000
0.000000 0.851868 0.040985
0.000000 0.851868 0.040985
0.000000 0.854523 0.043915
0.000366 0.849091 0.039856
0.001251 0.849976 0.036957
0.002533 0.851227 0.042023
0.000000 0.848694 0.037964
0.002289 0.850983 0.043518
0.004303 0.846558 0.047333
0.002014 0.849976 0.044556
0.000763 0.848450 0.053650
0.017822 0.846558 0.050629
0.153290 0.843262 0.047943
0.245392 0.843262 0.056702
0.324554 0.845795 0.051514
0.400360 0.846069 0.044434
0.456451 0.846802 0.026459
0.514771 0.851868 0.015686
0.569031 0.855804 0.004944
0.617615 0.860474 0.000000
0.661865 0.866791 0.000641
0.713501 0.864380 0.002655
0.753967 0.869080 0.000366
0.798859 0.871979 0.000000
0.832520 0.875397 0.000122
0.872223 0.872223 0.003174
0.908173 0.876282 0.003174
0.941925 0.886902 0.000000
0.976105 0.892212 0.003540
0.996582 0.900208 0.000000
0.996826 0.898285 0.000000
0.996826 0.898163 0.007843
0.000000 0.883759 0.105377
0.000000 0.880585 0.102234
0.000641 0.882477 0.104767
0.001251 0.883118 0.105377
0.000000 0.883881 0.102081
0.005188 0.876526 0.108673
0.001251 0.879822 0.108673
0.001770 0.882874 0.110199
0.000000 0.882111 0.112854
0.007202 0.879211 0.115875
0.007355 0.876526 0.112732
0.059021 0.875793 0.107025
0.197205 0.874390 0.109680
0.279541 0.874878 0.111572
0.344055 0.874390 0.117035
0.409454 0.877930 0.112091
0.467834 0.879211 0.105377
0.521973 0.879333 0.094757
0.577759 0.885010 0.092987
0.627594 0.883484 0.087189
0.668945 0.888306 0.080078
0.711334 0.887665 0.064911
0.754608 0.895020 0.051758
0.794952 0.895752 0.042389
0.829620 0.893494 0.017090
0.868073 0.896027 0.006592
0.903992 0.899445 0.000641
0.936005 0.903992 0.003296
0.963440 0.907532 0.003296
0.995941 0.908905 0.000000
1.000000 0.920166 0.000000
0.998749 0.920319 0.000000
0.007324 0.908783 0.164093
0.003937 0.912201 0.164093
0.003174 0.911438 0.163330
0.003937 0.907776 0.153320
0.001007 0.908295 0.160675
0.004425 0.904877 0.161682
0.001251 0.907013 0.161163
0.003937 0.904877 0.162689
0.001526 0.908661 0.162170
0.004547 0.907288 0.166351
0.021088 0.904358 0.163177
0.160248 0.906403 0.160797
0.243103 0.909698 0.167725
0.316620 0.902100 0.173431
0.370636 0.902710 0.169525
