static/luts/FujiAstia.cube
#Created by: Adobe Photoshop Export Color Lookup Plugin
#Copyright: (C) Copyright 2022 Tim Martin and Presetpro.com
TITLE "Presetpro - Fuji Astia.jpg"
#LUT size
LUT_3D_SIZE 8
#data domain
#LUT data points
DOMAIN_MIN 0.000000 0.000000 0.000000
DOMAIN_MAX 0.903226 0.903226 0.903226
0.000000 0.000000 0.000000
0.075012 0.001007 0.007843
0.176575 0.011780 0.000000
0.330658 0.002411 0.000000
0.484650 0.002014 0.000000
0.632507 0.002533 0.000000
0.754211 0.006073 0.000000
0.880829 0.147125 0.000000
0.012268 0.067169 0.007324
0.083862 0.073120 0.001526
0.209473 0.084381 0.003418
0.364441 0.079437 0.005829
0.517914 0.069183 0.008728
0.647308 0.077026 0.003418
0.769531 0.127136 0.007324
0.896912 0.211761 0.006958
0.000000 0.186462 0.008850
0.034668 0.200104 0.000000
0.223663 0.227570 0.001007
0.403656 0.244781 0.000000
0.558136 0.241364 0.001892
0.677673 0.246277 0.001526
0.793549 0.280701 0.000000
0.907654 0.333313 0.000000
0.003937 0.347229 0.001526
0.005951 0.345215 0.000519
0.153046 0.372772 0.002533
0.382538 0.409973 0.001526
0.570923 0.425293 0.000519
0.705750 0.425781 0.001526
0.829346 0.446533 0.002411
0.939667 0.477417 0.000000
0.000000 0.490479 0.041382
0.000000 0.486664 0.043274
0.096130 0.502228 0.004944
0.322693 0.526764 0.003418
0.529694 0.557129 0.004059
0.704620 0.593079 0.000000
0.830627 0.603302 0.000000
0.952332 0.627350 0.000366
0.001404 0.617981 0.129425
0.003937 0.615448 0.130676
0.110168 0.620361 0.125000
0.314972 0.641510 0.087189
0.493622 0.670990 0.000000
0.666412 0.700317 0.001404
0.838715 0.740051 0.000000
0.960022 0.750153 0.001404
0.000000 0.753326 0.223022
0.020233 0.754211 0.222534
0.184570 0.754486 0.224670
0.343079 0.769012 0.199127
0.494385 0.787598 0.168884
0.648468 0.811279 0.099060
0.797363 0.839600 0.000000
0.961029 0.863647 0.000000
0.212646 0.896912 0.350281
0.237823 0.896149 0.347137
0.300568 0.895508 0.340668
0.404938 0.902466 0.345245
0.524872 0.912201 0.329407
0.655670 0.921814 0.298553
0.782043 0.932709 0.253632
0.917267 0.951050 0.158142
0.027954 0.000000 0.079956
0.087799 0.000000 0.068695
0.172150 0.006836 0.064270
0.333557 0.000000 0.068573
0.488556 0.001526 0.053009
0.627716 0.001404 0.036682
0.757751 0.015198 0.007599
0.884125 0.148376 0.004303
0.011780 0.076538 0.077026
0.085388 0.084381 0.084869
0.216827 0.081451 0.074127
0.366455 0.079437 0.072113
0.514008 0.073608 0.054901
0.643402 0.085876 0.016693
0.763062 0.131561 0.001007
0.896027 0.213013 0.003540
0.000519 0.210999 0.091339
0.071106 0.212402 0.085388
0.230103 0.233002 0.066284
0.406189 0.244263 0.047058
0.557617 0.240845 0.035797
0.676666 0.248322 0.003021
0.791534 0.279175 0.003937
0.906372 0.337494 0.000519
0.000519 0.360504 0.110809
0.000519 0.361908 0.112335
0.176575 0.375702 0.093719
0.387970 0.408600 0.013397
0.570923 0.425293 0.000519
0.699951 0.430725 0.000000
0.824280 0.450836 0.001526
0.935730 0.480957 0.002777
0.000000 0.500702 0.146606
0.001892 0.497803 0.147125
0.146729 0.498322 0.135712
0.336334 0.528168 0.090454
0.539429 0.560028 0.003540
0.711090 0.594971 0.002899
0.830231 0.607239 0.001007
0.950928 0.627838 0.001526
0.004791 0.623779 0.195831
0.006836 0.623932 0.199127
0.148773 0.621521 0.196838
0.321930 0.643402 0.175079
0.497284 0.670593 0.130402
0.671356 0.708160 0.014557
0.836578 0.742950 0.000000
0.954071 0.751801 0.000519
0.000000 0.761169 0.263763
0.087036 0.760284 0.267181
0.207703 0.756226 0.266541
0.349762 0.767365 0.258575
0.499451 0.791016 0.232910
0.647949 0.810760 0.193665
0.799500 0.841644 0.102081
0.965607 0.863129 0.000519
0.221375 0.899933 0.378113
0.247192 0.897034 0.372040
0.310944 0.899445 0.377625
0.400238 0.899445 0.367981
0.524231 0.910706 0.358002
0.651123 0.921051 0.338379
0.785583 0.936615 0.299164
0.917145 0.947388 0.227692
0.015686 0.000000 0.221741
0.108398 0.000000 0.221252
0.237427 0.000000 0.217834
0.328644 0.002899 0.185944
0.482635 0.001007 0.181519
0.613037 0.000000 0.172028
0.739807 0.081604 0.176575
0.868683 0.160278 0.161163
0.005829 0.068176 0.233521
0.106903 0.076538 0.233521
0.252625 0.069702 0.222748
0.351654 0.089294 0.206940
0.503754 0.065399 0.190887
0.627350 0.122192 0.196198
0.752686 0.161530 0.187469
0.879822 0.220367 0.165466
0.000000 0.225677 0.245270
0.096130 0.232513 0.240845
0.249207 0.241364 0.245270
0.398712 0.248199 0.236938
0.537537 0.252228 0.221741
0.654266 0.264893 0.209351
0.779633 0.292328 0.193298
0.894989 0.331177 0.173798
0.082977 0.386078 0.266907
0.168732 0.389862 0.274628
0.239838 0.388458 0.252228
0.407074 0.412506 0.238953
0.573334 0.431610 0.239838
0.702240 0.439453 0.233002
0.813049 0.453766 0.217804
0.919403 0.484100 0.180115
0.038574 0.522827 0.277649
0.122833 0.519440 0.282104
0.227692 0.516907 0.285492
0.363922 0.530701 0.270844
0.542328 0.567017 0.244385
0.707031 0.597351 0.228943
0.826813 0.611267 0.222748
0.948761 0.630127 0.220337
0.061462 0.641998 0.313202
0.130554 0.640991 0.316376
0.234039 0.636200 0.316376
0.349243 0.641510 0.304108
0.509552 0.673889 0.289795
0.672882 0.709839 0.263123
0.834808 0.745483 0.218597
0.959137 0.751953 0.212006
0.119781 0.769012 0.357117
0.172791 0.769531 0.352692
0.257172 0.765228 0.355225
0.357239 0.766998 0.348633
0.497284 0.787598 0.331818
0.641998 0.817963 0.320679
0.804443 0.838715 0.285767
0.957245 0.864014 0.224030
0.239716 0.902466 0.438568
0.264771 0.899933 0.436798
0.325989 0.899445 0.432892
0.403778 0.896027 0.435791
0.519806 0.908661 0.429840
0.650360 0.924866 0.414276
0.784576 0.936005 0.394684
0.920044 0.941437 0.341156
0.002411 0.003937 0.395813
0.103485 0.000000 0.396820
0.265381 0.000000 0.392914
0.420227 0.001526 0.393402
0.487915 0.000000 0.338867
0.597351 0.004547 0.321442
0.723480 0.018463 0.306244
0.852997 0.077332 0.300446
0.001007 0.064758 0.411987
0.103973 0.063751 0.410614
0.267303 0.045166 0.407562
0.431091 0.017700 0.398834
0.494873 0.101959 0.346710
0.611023 0.121307 0.338898
0.733978 0.134827 0.325989
0.856049 0.200012 0.318665
0.000000 0.218201 0.422760
0.008453 0.212402 0.414520
0.267792 0.234009 0.415527
0.428192 0.241364 0.409088
0.509949 0.259583 0.381012
0.631134 0.261963 0.359100
0.743073 0.288940 0.347748
0.869080 0.326111 0.337494
0.005432 0.398834 0.431091
0.110046 0.412384 0.431091
0.271332 0.417816 0.431610
0.424774 0.426300 0.434143
0.546875 0.427185 0.422363
0.662994 0.433624 0.403534
0.780151 0.447418 0.387085
0.900818 0.471985 0.368347
0.197723 0.548767 0.435181
0.249207 0.551300 0.443237
0.339294 0.551300 0.452759
0.407440 0.546356 0.439941
0.551178 0.574463 0.427307
0.701721 0.597870 0.430725
0.821014 0.613037 0.426178
0.933990 0.623413 0.409485
0.269806 0.668823 0.482056
0.278534 0.667938 0.471954
0.314850 0.666931 0.454132
0.395325 0.660095 0.448181
0.514862 0.678711 0.445129
0.673248 0.716003 0.437439
0.831757 0.740570 0.424255
0.945251 0.753204 0.416809
0.211517 0.789520 0.477295
0.244263 0.785706 0.481598
0.307770 0.783173 0.476013
0.385803 0.777740 0.469696
0.500824 0.785583 0.465881
0.645416 0.815063 0.461090
0.795837 0.843536 0.445007
0.955719 0.865540 0.428314
0.271729 0.903595 0.537262
0.295624 0.908295 0.532440
0.350037 0.904236 0.530426
0.416443 0.902710 0.521423
0.513092 0.908295 0.517639
0.642273 0.923584 0.516113
0.780396 0.933319 0.504364
0.914612 0.947510 0.477020
0.005951 0.000000 0.555359
0.106140 0.001892 0.562561
0.269836 0.001007 0.553223
0.429596 0.002014 0.547913
0.570923 0.000000 0.537659
0.614441 0.002533 0.478699
0.706268 0.112976 0.468079
0.835663 0.133453 0.468079
0.000000 0.040222 0.572327
0.125092 0.031860 0.567017
0.286743 0.009857 0.561188
0.445770 0.003418 0.558136
0.579132 0.004028 0.553711
0.623779 0.132446 0.492493
0.712219 0.180145 0.479218
0.840485 0.191406 0.476929
0.000000 0.205200 0.576721
0.127655 0.223633 0.578613
0.289429 0.223633 0.572815
0.446777 0.226685 0.569397
0.575867 0.243378 0.554352
0.625305 0.280701 0.511230
0.723969 0.294373 0.498566
0.849457 0.295258 0.483154
0.000000 0.389984 0.578888
0.013397 0.388855 0.589508
0.250061 0.396820 0.587128
0.435913 0.410980 0.576752
0.572815 0.426147 0.573944
0.636444 0.431610 0.540436
0.750275 0.422882 0.519562
0.869080 0.413391 0.493103
0.104248 0.563080 0.594574
0.186829 0.563080 0.591400
0.307892 0.570923 0.588623
0.432007 0.574860 0.595093
0.560913 0.586609 0.598236
0.672363 0.588501 0.584076
0.788635 0.586609 0.562958
0.904755 0.592438 0.541199
0.285248 0.697296 0.616455
0.314484 0.700836 0.613678
0.382660 0.699707 0.613037
0.477173 0.694885 0.618134
0.535126 0.693512 0.597870
0.676147 0.720581 0.599518
0.817963 0.741058 0.604309
0.937866 0.750793 0.596466
0.365082 0.805328 0.648468
0.377869 0.811646 0.646942
0.423676 0.806335 0.646454
0.446289 0.802429 0.613678
0.513855 0.795441 0.598633
0.638458 0.814697 0.596344
0.799377 0.846436 0.597504
0.945221 0.861115 0.594330
0.353607 0.917023 0.660889
0.355743 0.916138 0.649475
0.389252 0.917145 0.645050
0.451477 0.918030 0.640625
0.526123 0.911072 0.630371
0.630615 0.919037 0.628845
0.770660 0.935730 0.630005
0.911438 0.947876 0.621155
0.087189 0.000000 0.714630
0.181641 0.002014 0.707794
0.317383 0.002533 0.711578
0.469574 0.001007 0.701477
0.611145 0.003418 0.704895
0.721313 0.002533 0.696411
0.746124 0.094238 0.632538
0.835938 0.178619 0.621887
0.112732 0.000000 0.714630
0.205322 0.000519 0.720581
0.333069 0.001007 0.717010
0.469177 0.002533 0.710968
0.610016 0.000519 0.702850
0.720581 0.017090 0.687683
0.753326 0.181030 0.646698
0.837311 0.226044 0.631744
0.130676 0.206055 0.723846
0.206085 0.208588 0.723480
0.339020 0.205048 0.720947
0.479187 0.208588 0.715790
0.610504 0.224640 0.707275
0.716003 0.252625 0.702728
0.748901 0.305115 0.649994
0.835175 0.324585 0.637207
0.003021 0.358490 0.739532
0.009521 0.359131 0.738007
0.303986 0.390503 0.729797
0.461975 0.399078 0.727905
0.597870 0.404541 0.721588
0.709198 0.416931 0.714142
0.746857 0.438324 0.667053
0.841980 0.432007 0.646942
0.000000 0.554718 0.742584
0.065796 0.558655 0.735748
0.250580 0.558289 0.741058
0.390869 0.557129 0.740051
0.563965 0.571808 0.735626
0.689575 0.576233 0.731323
0.757629 0.570038 0.686676
0.870605 0.550812 0.661987
0.200897 0.710693 0.744354
0.242767 0.713623 0.750305
0.335999 0.710693 0.745605
0.449829 0.714996 0.750275
0.566376 0.721954 0.758636
0.683502 0.739532 0.760529
0.790894 0.728668 0.738159
0.911591 0.719543 0.711090
0.375854 0.835175 0.768494
0.403809 0.832001 0.774200
0.449707 0.832764 0.772308
0.512451 0.836426 0.772949
0.600647 0.829224 0.768890
0.661377 0.816956 0.744598
0.799896 0.847443 0.751312
0.934479 0.861115 0.760284
0.475891 0.927643 0.796478
0.494751 0.931183 0.801392
0.523071 0.926758 0.797852
0.576324 0.925751 0.790009
0.579773 0.925873 0.760162
0.644287 0.922577 0.747375
0.764587 0.933838 0.753448
0.911072 0.944977 0.755859
0.269196 0.003937 0.853149
0.317291 0.002533 0.851379
0.412018 0.000000 0.854279
0.531555 0.001526 0.850739
0.655304 0.002777 0.846558
0.767883 0.003052 0.841888
0.855286 0.003052 0.826965
0.889313 0.157501 0.797607
0.282104 0.000519 0.867310
0.328033 0.000000 0.858185
0.420502 0.000519 0.853760
0.539520 0.000000 0.857178
0.656189 0.000885 0.853394
0.771667 0.000885 0.847198
0.859711 0.091095 0.840759
0.885406 0.220856 0.794708
0.278839 0.185455 0.861237
0.325378 0.182892 0.863525
0.418976 0.185303 0.859222
0.532562 0.191376 0.860718
0.649597 0.205048 0.851624
0.761047 0.228577 0.847809
0.857178 0.266144 0.840363
0.881989 0.326233 0.795715
0.204346 0.370789 0.867065
0.279083 0.378479 0.865906
0.385193 0.374817 0.858185
0.501709 0.382538 0.862488
0.633667 0.391235 0.855804
0.747009 0.402283 0.852264
0.843506 0.420868 0.841125
0.877441 0.445282 0.795197
0.002899 0.532593 0.873749
0.001007 0.528809 0.874512
0.229584 0.524872 0.868073
0.430969 0.536133 0.870087
0.584595 0.549286 0.863129
0.722321 0.555603 0.856934
0.832642 0.561188 0.849457
0.873749 0.573456 0.807739
0.045837 0.698059 0.871613
0.153717 0.699432 0.866425
0.268311 0.700958 0.871490
0.396332 0.699829 0.870850
0.528290 0.705261 0.873505
0.691223 0.712463 0.870972
0.818115 0.715118 0.860718
0.873260 0.699829 0.820892
0.308411 0.834808 0.871857
0.344208 0.840118 0.874390
0.399506 0.839600 0.871979
0.488434 0.844177 0.878815
0.587616 0.848328 0.874634
0.701324 0.853027 0.876282
0.818237 0.864014 0.884888
0.909546 0.851379 0.861755
0.526520 0.943451 0.890961
0.541443 0.943329 0.892731
0.573700 0.942566 0.887177
0.620605 0.942047 0.885376
0.685791 0.939545 0.892242
0.752563 0.936890 0.885132
0.791290 0.928284 0.859589
0.916504 0.950531 0.875397
0.433411 0.003937 0.971039
0.465271 0.003052 0.970917
0.521301 0.002533 0.968506
0.617065 0.000000 0.968994
0.713623 0.000000 0.965454
0.817963 0.003937 0.961426
0.918152 0.006958 0.962677
0.999237 0.130676 0.958893
0.437714 0.000000 0.972809
0.465668 0.003052 0.972809
0.529907 0.000000 0.968506
0.616943 0.000519 0.973816
0.715118 0.000000 0.970795
0.817230 0.001526 0.966370
0.918030 0.111206 0.956604
0.998474 0.207855 0.952423
0.425934 0.168243 0.972412
0.451233 0.172791 0.971802
0.517151 0.176086 0.966858
0.602661 0.188232 0.965454
0.704254 0.208221 0.965088
0.801666 0.238190 0.965485
0.911713 0.273102 0.962952
0.992035 0.314484 0.954346
0.376740 0.367462 0.972534
0.411133 0.366211 0.971802
0.477814 0.373291 0.971771
0.576477 0.377716 0.971405
0.679840 0.384796 0.971283
0.783691 0.399994 0.964691
0.890076 0.418579 0.960144
0.985199 0.440582 0.953461
0.109497 0.494995 0.979767
0.222717 0.498322 0.973297
0.371613 0.517517 0.970764
0.508636 0.532715 0.970642
0.630615 0.535248 0.967102
0.751190 0.548401 0.963928
0.867432 0.553833 0.957733
0.972168 0.568512 0.951050
0.022675 0.680847 0.973175
0.131836 0.679199 0.971802
0.260956 0.675781 0.973419
0.402771 0.670868 0.968750
0.565979 0.675781 0.964447
0.716125 0.693634 0.967499
0.841492 0.699432 0.962189
0.952423 0.707794 0.950287
0.297302 0.823792 0.957367
0.322968 0.824432 0.962677
0.385834 0.826324 0.964447
0.471100 0.825806 0.965973
0.570038 0.829346 0.960022
0.678955 0.833405 0.965332
0.819611 0.839233 0.958649
0.932587 0.842651 0.945740
0.491852 0.936493 0.960419
0.510681 0.939667 0.966492
0.544220 0.936493 0.958649
0.595581 0.934479 0.954468
0.673492 0.942810 0.958008
0.756226 0.945496 0.963196
0.851379 0.945221 0.962311
0.936493 0.952179 0.963959
