static/luts/FujiVelvia100.cube
#Created by: Adobe Photoshop Export Color Lookup Plugin
#Copyright: (C) Copyright 2022 Tim Martin and Presetpro.com
TITLE "FUJ 07  - Velvia +.jpg"
#LUT size
LUT_3D_SIZE 5
#data domain
#LUT data points
DOMAIN_MIN 0.000000 0.000000 0.000000
DOMAIN_MAX 0.903226 0.903226 0.903226
0.000000 0.000000 0.000000
0.135101 0.000000 0.003052
0.416687 0.001770 0.001770
0.683868 0.002655 0.000000
0.940033 0.004303 0.001129
0.000000 0.138641 0.000000
0.154694 0.163055 0.000885
0.462463 0.111572 0.003937
0.707397 0.068176 0.003937
0.958893 0.208984 0.004425
0.002167 0.463745 0.000000
0.000000 0.461578 0.000000
0.408844 0.508636 0.000000
0.744476 0.509521 0.000000
0.969269 0.521820 0.004303
0.000000 0.720428 0.002655
0.000885 0.718658 0.000885
0.303955 0.733459 0.000000
0.723114 0.768768 0.001251
0.982788 0.787994 0.002655
0.000000 0.939667 0.213043
0.003052 0.933075 0.209503
0.405548 0.927887 0.220886
0.724884 0.932587 0.212646
0.952576 0.947510 0.152710
0.014801 0.000885 0.142548
0.161285 0.000000 0.137756
0.449310 0.000000 0.120300
0.696014 0.000885 0.123322
0.948761 0.002655 0.055634
0.000885 0.145599 0.184814
0.197449 0.173920 0.189606
0.464630 0.163940 0.160400
0.714752 0.170013 0.135101
0.959656 0.252502 0.032227
0.000885 0.486389 0.219208
0.000000 0.485504 0.193054
0.445404 0.513458 0.163940
0.745728 0.512177 0.119904
0.968872 0.535217 0.015015
0.001251 0.730438 0.209229
0.003052 0.728668 0.214539
0.330017 0.732208 0.208862
0.731812 0.767487 0.179626
0.983185 0.787109 0.099915
0.000885 0.938782 0.327118
0.000885 0.937012 0.325378
0.401123 0.930054 0.333221
0.720947 0.934845 0.328766
0.955353 0.943970 0.310425
0.006073 0.000000 0.445892
0.149902 0.001770 0.447571
0.468048 0.000000 0.455902
0.720428 0.000885 0.422363
0.966370 0.001770 0.390228
0.003937 0.109039 0.473358
0.216187 0.139008 0.471191
0.495117 0.172668 0.476379
0.730957 0.208313 0.448792
0.971039 0.200500 0.386688
0.000000 0.471588 0.505096
0.076782 0.485107 0.509155
0.485504 0.532562 0.528259
0.736633 0.521301 0.481201
0.961060 0.534332 0.434143
0.000000 0.748779 0.546967
0.004822 0.751801 0.547363
0.386932 0.752197 0.506866
0.739166 0.775330 0.515991
0.970520 0.774475 0.491699
0.003540 0.938629 0.594543
0.003540 0.938263 0.552277
0.382660 0.935730 0.540649
0.702606 0.931824 0.549377
0.942200 0.940430 0.567474
0.000000 0.000000 0.716522
0.209503 0.000000 0.721832
0.510925 0.000000 0.736115
0.763702 0.003937 0.740173
0.967499 0.009735 0.733612
0.090088 0.066650 0.727539
0.276398 0.067535 0.736633
0.533447 0.097260 0.743958
0.771057 0.188354 0.750916
0.973938 0.279053 0.754089
0.003937 0.364807 0.754486
0.013214 0.380524 0.751404
0.505493 0.466766 0.768402
0.764099 0.516357 0.776245
0.962677 0.536987 0.766724
0.001251 0.729553 0.787109
0.001251 0.733978 0.786224
0.431610 0.747009 0.794586
0.775330 0.791016 0.826324
0.944336 0.764832 0.773560
0.002655 0.945221 0.827209
0.001770 0.943451 0.825439
0.456909 0.940033 0.816345
0.704254 0.932190 0.793182
0.925995 0.943970 0.818726
0.436188 0.000000 0.971405
0.514984 0.000000 0.974579
0.685760 0.001770 0.971405
0.880096 0.003540 0.965851
1.000000 0.068085 0.967102
0.450104 0.000000 0.971924
0.526764 0.003540 0.968903
0.685272 0.000366 0.971039
0.874756 0.125854 0.970001
0.999634 0.284363 0.970520
0.331085 0.368256 0.965729
0.436066 0.383514 0.967499
0.627716 0.406677 0.963928
0.841248 0.458191 0.963196
0.995300 0.531799 0.959015
0.000366 0.646301 0.968750
0.000000 0.642517 0.970642
0.328735 0.630768 0.963562
0.774078 0.711212 0.959656
0.963562 0.768768 0.959656
0.000763 0.912964 0.967499
0.007965 0.914734 0.955597
0.469055 0.920441 0.962555
0.743591 0.921692 0.955597
0.952179 0.948273 0.967865
