static/luts/FujiAstia.cube
#Created by: Adobe Photoshop Export Color Lookup Plugin
#Copyright: (C) Copyright 2022 Tim Martin and Presetpro.com
TITLE "Presetpro - Fuji Astia.jpg"
#LUT size
LUT_3D_SIZE 5
#data domain
#LUT data points
DOMAIN_MIN 0.000000 0.000000 0.000000
DOMAIN_MAX 0.903226 0.903226 0.903226
0.000000 0.000000 0.000000
0.143829 0.018738 0.006073
0.414917 0.000000 0.000000
0.661621 0.001251 0.002655
0.880829 0.147125 0.000000
0.000000 0.155579 0.019623
0.178741 0.184814 0.000885
0.473724 0.196564 0.000885
0.702972 0.210114 0.000000
0.906525 0.300446 0.004425
0.000000 0.424896 0.011780
0.040100 0.436279 0.000885
0.454529 0.483337 0.000000
0.743591 0.519135 0.000000
0.947876 0.553558 0.000000
0.002655 0.652374 0.150421
0.033752 0.650360 0.150421
0.403137 0.684265 0.083008
0.700836 0.743958 0.002655
0.956604 0.783173 0.004303
0.212646 0.896912 0.350281
0.285126 0.892609 0.350555
0.463379 0.907898 0.337128
0.684265 0.923096 0.290436
0.917267 0.951050 0.158142
0.024414 0.000000 0.176086
0.193542 0.000000 0.170898
0.413147 0.000000 0.148621
0.652008 0.009247 0.144714
0.873383 0.155334 0.111694
0.001770 0.181763 0.196198
0.204407 0.196564 0.202271
0.461975 0.205292 0.179993
0.687286 0.227570 0.160889
0.896912 0.301697 0.110291
0.000000 0.451965 0.231476
0.177856 0.444122 0.224518
0.475494 0.492065 0.190491
0.737915 0.520416 0.163055
0.943970 0.555725 0.137238
0.007080 0.668579 0.293365
0.183044 0.666412 0.286774
0.420593 0.687805 0.274139
0.700836 0.740936 0.217590
0.953949 0.783569 0.141296
0.233398 0.901337 0.416809
0.305389 0.898682 0.415924
0.459442 0.904480 0.415924
0.684265 0.927765 0.386719
0.921326 0.944855 0.313843
0.002167 0.000000 0.485504
0.229218 0.000000 0.481567
0.499023 0.000000 0.469818
0.630615 0.047180 0.396576
0.849487 0.089417 0.385315
0.002167 0.165192 0.503845
0.240204 0.179108 0.489929
0.509918 0.192657 0.487671
0.641998 0.245789 0.427948
0.863770 0.247192 0.392273
0.012360 0.489410 0.508636
0.251099 0.492950 0.516113
0.497253 0.512939 0.521179
0.697296 0.513824 0.489899
0.900452 0.532562 0.453735
0.298553 0.715637 0.554840
0.370880 0.712097 0.551788
0.456268 0.697296 0.522064
0.706512 0.750549 0.515228
0.944336 0.782806 0.509552
0.297913 0.916138 0.590240
0.347870 0.912201 0.582794
0.470856 0.910065 0.576324
0.672638 0.925751 0.572052
0.918274 0.947876 0.551025
0.135010 0.000000 0.750549
0.310455 0.000885 0.752686
0.554443 0.000000 0.742706
0.755737 0.001251 0.728271
0.841248 0.176605 0.662506
0.166229 0.151672 0.758759
0.322571 0.148621 0.757874
0.553925 0.156464 0.750916
0.751801 0.209229 0.737518
0.847809 0.300323 0.671753
0.004303 0.458038 0.773560
0.189636 0.455902 0.768890
0.520782 0.480682 0.768890
0.737885 0.492828 0.751801
0.850739 0.490692 0.696014
0.221008 0.743958 0.780518
0.323700 0.744843 0.779266
0.512054 0.750916 0.785706
0.717773 0.768768 0.792297
0.909546 0.754486 0.755341
0.490082 0.935364 0.822906
0.524872 0.931824 0.824158
0.611877 0.927399 0.818970
0.680328 0.919159 0.777100
0.910309 0.950531 0.783569
0.433411 0.003937 0.971039
0.510803 0.000000 0.977600
0.665131 0.002167 0.966095
0.845673 0.000000 0.962799
0.999237 0.130676 0.958893
0.428986 0.101562 0.973694
0.507019 0.105988 0.976746
0.653259 0.135712 0.967499
0.835052 0.202026 0.963196
0.997986 0.284241 0.956116
0.319702 0.445892 0.974579
0.422028 0.453735 0.971039
0.602386 0.461578 0.968872
0.799896 0.474609 0.960541
0.975342 0.502960 0.952179
0.123505 0.716003 0.970917
0.261353 0.719177 0.966614
0.469452 0.711334 0.964447
0.736115 0.731323 0.960541
0.952301 0.740051 0.955353
0.491852 0.936493 0.960419
0.534088 0.936615 0.956116
0.634155 0.942200 0.960022
0.784698 0.943573 0.956482
0.936493 0.952179 0.963959
