static/luts/FujiVelvia100.cube
#Created by: Adobe Photoshop Export Color Lookup Plugin
#Copyright: (C) Copyright 2022 Tim Martin and Presetpro.com
TITLE "FUJ 07  - Velvia +.jpg"
#LUT size
LUT_3D_SIZE 8
#data domain
#LUT data points
DOMAIN_MIN 0.000000 0.000000 0.000000
DOMAIN_MAX 0.903226 0.903226 0.903226
0.000000 0.000000 0.000000
0.059326 0.000000 0.000000
0.167847 0.000000 0.002014
0.332428 0.001526 0.004822
0.500336 0.001892 0.001892
0.645416 0.003937 0.000000
0.796478 0.003937 0.000000
0.940033 0.004303 0.001129
0.014679 0.036804 0.007324
0.071594 0.041229 0.000000
0.200104 0.028473 0.003937
0.357086 0.000000 0.000000
0.516541 0.001892 0.002014
0.659729 0.000519 0.003418
0.808228 0.000000 0.000000
0.952698 0.014160 0.000519
0.000000 0.186462 0.000000
0.002014 0.192261 0.006836
0.185455 0.213898 0.002899
0.393402 0.204559 0.000519
0.537659 0.158997 0.001892
0.681366 0.142944 0.002014
0.818237 0.174927 0.001007
0.963715 0.253357 0.002533
0.002411 0.377716 0.002411
0.007233 0.378235 0.000000
0.000000 0.393280 0.002899
0.337250 0.422363 0.003021
0.560181 0.426788 0.000000
0.700317 0.396423 0.001526
0.838715 0.394928 0.005432
0.964325 0.440094 0.000000
0.000000 0.543457 0.002014
0.000000 0.541443 0.000000
0.003021 0.536530 0.000000
0.205231 0.558655 0.000000
0.496399 0.588501 0.000000
0.721954 0.617981 0.002014
0.859222 0.605347 0.000000
0.977356 0.606232 0.009369
0.000000 0.691101 0.001404
0.002533 0.687164 0.000000
0.002533 0.687164 0.001526
0.059113 0.693634 0.001526
0.447083 0.712097 0.002014
0.678192 0.735626 0.000000
0.879333 0.766113 0.000000
0.983185 0.759155 0.000000
0.000885 0.820007 0.000000
0.000000 0.817841 0.003052
0.000000 0.815948 0.002014
0.095337 0.814545 0.001526
0.445679 0.825684 0.000000
0.669220 0.836060 0.000000
0.835693 0.852264 0.000885
0.990906 0.879333 0.003418
0.000000 0.939667 0.213043
0.000000 0.939667 0.213043
0.002014 0.934357 0.212158
0.295746 0.932587 0.219238
0.505157 0.928284 0.221252
0.686157 0.933960 0.214417
0.832642 0.938782 0.193939
0.952576 0.947510 0.152710
0.016205 0.000519 0.055908
0.067688 0.000519 0.045166
0.178619 0.002899 0.043640
0.346344 0.002411 0.036316
0.508179 0.000519 0.031006
0.657318 0.000000 0.013794
0.800385 0.001007 0.002533
0.947388 0.003052 0.000000
0.008362 0.037811 0.061340
0.083862 0.048584 0.068176
0.206055 0.032898 0.067169
0.366455 0.000000 0.055786
0.520966 0.001892 0.031860
0.661224 0.001404 0.003540
0.808594 0.000000 0.001892
0.948517 0.053497 0.000000
0.001007 0.202148 0.076019
0.003937 0.196808 0.056915
0.206573 0.218323 0.037811
0.398346 0.202148 0.025940
0.547394 0.178589 0.005951
0.678436 0.172272 0.002899
0.818604 0.201385 0.000000
0.966095 0.271332 0.005829
0.003418 0.387085 0.017212
0.003418 0.391876 0.015289
0.034912 0.393402 0.005554
0.352661 0.425659 0.000000
0.561188 0.423889 0.001892
0.702850 0.393890 0.000000
0.835419 0.411255 0.000000
0.962799 0.450348 0.003540
0.000000 0.555237 0.006073
0.000519 0.547760 0.006439
0.000519 0.541443 0.008850
0.237396 0.564453 0.004303
0.508545 0.587494 0.000000
0.720581 0.617981 0.002014
0.857178 0.604309 0.000000
0.975861 0.604309 0.000366
0.002533 0.693878 0.036316
0.001892 0.690460 0.030243
0.002533 0.691986 0.037567
0.126678 0.691467 0.023651
0.453918 0.712585 0.002411
0.680328 0.739532 0.002014
0.879700 0.765594 0.000519
0.974945 0.758148 0.000000
0.004303 0.823029 0.129913
0.007324 0.820007 0.130920
0.002411 0.820007 0.131165
0.135834 0.820007 0.130432
0.456451 0.824432 0.124603
0.666290 0.838593 0.091980
0.839600 0.850861 0.022766
0.991913 0.876282 0.000000
0.003052 0.936493 0.253906
0.004303 0.933197 0.259216
0.000366 0.935242 0.263885
0.299164 0.928162 0.265900
0.499573 0.930176 0.270844
0.687286 0.937256 0.266541
0.831757 0.938660 0.254150
0.951538 0.943451 0.232910
0.000000 0.000000 0.188477
0.071106 0.003418 0.184937
0.204041 0.001007 0.184540
0.366974 0.000000 0.174683
0.524872 0.000000 0.149261
0.659088 0.002533 0.155334
0.802277 0.000000 0.154083
0.945740 0.008606 0.119019
0.000519 0.030853 0.205048
0.091705 0.032898 0.207581
0.228577 0.023010 0.206573
0.384033 0.001007 0.187469
0.532715 0.001892 0.167847
0.665558 0.013000 0.174683
0.806213 0.050964 0.154572
0.950409 0.144958 0.120026
0.001007 0.190369 0.230591
0.036682 0.202637 0.229095
0.240356 0.223755 0.238434
0.400757 0.225159 0.221252
0.543488 0.221741 0.202026
0.677795 0.226685 0.185455
0.815186 0.250458 0.160034
0.958252 0.300934 0.113342
0.000000 0.401245 0.244781
0.003937 0.404663 0.250702
0.153046 0.414398 0.233002
0.382019 0.426300 0.217834
0.561584 0.422882 0.213898
0.696899 0.411133 0.197205
0.833282 0.425781 0.160004
0.959778 0.462219 0.116241
0.002045 0.564972 0.273743
0.003937 0.563599 0.249176
0.002899 0.561066 0.243378
0.282196 0.569916 0.237579
0.523712 0.592438 0.217957
0.720947 0.616089 0.199738
0.851501 0.605347 0.171783
0.969513 0.608765 0.138763
0.004791 0.703857 0.251587
0.003052 0.703369 0.246552
0.004944 0.700714 0.248444
0.199829 0.692474 0.248169
0.471130 0.712585 0.241882
0.693481 0.735626 0.234131
0.874512 0.763062 0.202271
0.981537 0.754852 0.171906
0.002014 0.825806 0.274017
0.006592 0.828094 0.286011
0.002014 0.827698 0.274750
0.179108 0.820007 0.278290
0.454285 0.822906 0.273621
0.667572 0.840240 0.272980
0.837463 0.850220 0.268951
0.988983 0.875793 0.245667
0.000000 0.938263 0.350922
0.000885 0.938782 0.350647
0.002899 0.936127 0.351288
0.285736 0.932190 0.351044
0.492737 0.929657 0.357239
0.676788 0.933197 0.358612
0.823914 0.936493 0.359894
0.948883 0.943970 0.347107
0.000000 0.000000 0.362030
0.002014 0.000000 0.361542
0.206940 0.000519 0.361145
0.389496 0.002411 0.372284
0.538025 0.000519 0.342926
0.684998 0.002533 0.324219
0.818207 0.005432 0.303192
0.955963 0.000000 0.287292
0.001007 0.016693 0.381134
0.056305 0.010376 0.376709
0.228088 0.001526 0.386963
0.403656 0.000000 0.385559
0.542450 0.001526 0.362030
0.684998 0.000000 0.337982
0.826324 0.001526 0.315216
0.956879 0.152222 0.312836
0.001007 0.144714 0.393921
0.003021 0.151672 0.400757
0.259460 0.207062 0.407562
0.414917 0.228088 0.403137
0.551819 0.244751 0.383667
0.689056 0.241852 0.353180
0.820618 0.280334 0.346375
0.948761 0.321045 0.326233
0.000000 0.385559 0.413025
0.002411 0.391876 0.419342
0.197327 0.406189 0.425293
0.402771 0.440460 0.436554
0.553223 0.438934 0.417938
0.694611 0.436554 0.388458
0.831757 0.447693 0.367462
0.961151 0.463226 0.340393
0.005310 0.575226 0.437958
0.004822 0.579285 0.434540
0.135468 0.583069 0.442383
0.342255 0.585968 0.427155
0.545868 0.601929 0.424255
0.719421 0.608124 0.415802
0.848724 0.595459 0.388977
0.965210 0.608124 0.356598
0.004059 0.713470 0.466400
0.000000 0.720062 0.467407
0.002411 0.716644 0.451202
0.263855 0.713104 0.424408
0.488068 0.717010 0.423767
0.702332 0.741943 0.430084
0.873230 0.761688 0.419830
0.971649 0.746368 0.387451
0.004547 0.834167 0.475739
0.001526 0.836060 0.465881
0.002258 0.834656 0.429077
0.194031 0.830872 0.418457
0.455292 0.823273 0.423248
0.665161 0.840607 0.438934
0.843536 0.850739 0.448334
0.975098 0.871857 0.437927
0.001892 0.940552 0.477417
0.001404 0.938629 0.472992
0.002411 0.938660 0.472992
0.261963 0.936127 0.476654
0.482880 0.933563 0.471710
0.673248 0.932190 0.482971
0.822021 0.936249 0.488678
0.946869 0.940430 0.492859
0.000000 0.000000 0.521973
0.001892 0.000000 0.519073
0.194183 0.000000 0.518921
0.374298 0.002014 0.528778
0.547394 0.000000 0.537659
0.681854 0.002014 0.513245
0.836700 0.002014 0.517151
0.967499 0.000000 0.504761
0.001526 0.000000 0.527283
0.012024 0.000000 0.528809
0.227692 0.000000 0.533234
0.399597 0.002411 0.542938
0.563599 0.000000 0.543091
0.687683 0.004547 0.521454
0.839233 0.053009 0.529449
0.970032 0.066803 0.502502
0.004791 0.146362 0.552307
0.111298 0.173157 0.543457
0.266907 0.180511 0.553345
0.420380 0.207062 0.548920
0.565247 0.232635 0.553467
0.695892 0.263000 0.544983
0.835815 0.271851 0.532715
0.972534 0.266022 0.507416
0.000000 0.322296 0.552338
0.002899 0.331024 0.565094
0.201355 0.353058 0.569275
0.411621 0.412872 0.575226
0.571930 0.436035 0.584717
0.706116 0.448181 0.575226
0.844025 0.430603 0.538818
0.964722 0.430573 0.501343
0.000000 0.551300 0.582703
0.005676 0.553467 0.586731
0.120789 0.567017 0.587738
0.370758 0.587463 0.606232
0.574860 0.617859 0.621918
0.711578 0.606354 0.591156
0.841492 0.596466 0.559143
0.963196 0.599518 0.529297
0.003937 0.723358 0.624817
0.003052 0.728790 0.628357
0.000519 0.730164 0.628723
0.333038 0.732330 0.619110
0.516541 0.733093 0.601929
0.712982 0.748016 0.613190
0.861603 0.744476 0.601532
0.968750 0.733734 0.565338
0.002014 0.836578 0.637848
0.000519 0.843384 0.639496
0.003815 0.838593 0.637482
0.331207 0.842499 0.627716
0.473022 0.835541 0.589508
0.661743 0.836060 0.592926
0.838593 0.856293 0.617096
0.972809 0.867950 0.617859
0.000000 0.940033 0.670105
0.004059 0.935089 0.675415
0.176910 0.939026 0.667206
0.247955 0.940552 0.618866
0.481995 0.934601 0.613312
0.650482 0.932709 0.613678
0.814545 0.934082 0.633667
0.934967 0.943970 0.643402
0.000000 0.002533 0.676788
0.002014 0.002014 0.676788
0.225555 0.001526 0.679077
0.408600 0.000000 0.688690
0.576996 0.002014 0.697052
0.727783 0.003937 0.705383
0.837067 0.001007 0.683746
0.967865 0.004547 0.691864
0.001007 0.000000 0.686035
0.089325 0.003296 0.690582
0.269806 0.000000 0.694885
0.431091 0.001007 0.694519
0.586975 0.000519 0.706635
0.725006 0.001404 0.710693
0.836700 0.064636 0.692749
0.977356 0.163177 0.707153
0.076294 0.141937 0.695160
0.165100 0.142792 0.695526
0.295013 0.155090 0.697540
0.449829 0.166718 0.708801
0.590668 0.204529 0.705383
0.732849 0.242889 0.715637
0.839111 0.285126 0.704010
0.971405 0.316376 0.709076
0.001526 0.278687 0.712341
0.000519 0.299805 0.716125
0.277405 0.354706 0.716248
0.433502 0.380615 0.718536
0.592926 0.403534 0.729675
0.732605 0.429718 0.734100
0.845917 0.449829 0.718536
0.971802 0.455658 0.716888
0.000000 0.501862 0.724487
0.002777 0.508698 0.725250
0.007568 0.515015 0.726532
0.325104 0.520203 0.737152
0.562439 0.574982 0.746002
0.729797 0.601776 0.756744
0.850861 0.609619 0.750061
0.963196 0.589661 0.713623
0.003937 0.692474 0.749908
0.004547 0.699677 0.750061
0.001526 0.703735 0.759003
0.319641 0.714874 0.761688
0.544098 0.735107 0.773438
0.731689 0.761932 0.791901
0.846954 0.740051 0.759644
0.943207 0.734619 0.728302
0.001007 0.845306 0.784058
0.000885 0.844910 0.788116
0.000000 0.844025 0.785217
0.310791 0.846436 0.783691
0.538544 0.847443 0.776611
0.688812 0.846954 0.768524
0.841370 0.856689 0.785706
0.955994 0.856537 0.766876
0.002533 0.942810 0.802277
0.001404 0.943970 0.796478
0.016174 0.941559 0.792053
0.357849 0.937500 0.784698
0.561676 0.934601 0.789124
0.665161 0.932831 0.765747
0.804321 0.931702 0.766113
0.927124 0.941040 0.789124
0.152832 0.000000 0.834808
0.232269 0.000000 0.836823
0.348663 0.000000 0.840759
0.491211 0.002411 0.843781
0.638611 0.000000 0.850342
0.778381 0.002533 0.858704
0.896667 0.003052 0.858337
0.964447 0.017212 0.838715
0.200012 0.000000 0.847443
0.257202 0.001404 0.844299
0.368622 0.000519 0.850342
0.502960 0.000000 0.851379
0.644806 0.000000 0.854401
0.778381 0.002014 0.858185
0.890198 0.005432 0.862518
0.971802 0.159149 0.836945
0.229980 0.088287 0.845673
0.284241 0.086761 0.851379
0.387726 0.090302 0.849213
0.514587 0.105469 0.854034
0.645813 0.142426 0.853394
0.774445 0.209991 0.856445
0.885651 0.257935 0.862244
0.965607 0.315094 0.841644
0.165131 0.304108 0.854645
0.251892 0.316864 0.853516
0.360138 0.324707 0.858704
0.489044 0.339386 0.859192
0.632660 0.362549 0.863129
0.770020 0.399231 0.869446
0.882111 0.429352 0.870331
0.966614 0.463989 0.854767
0.000885 0.434692 0.853394
0.000000 0.431152 0.857178
0.003021 0.440521 0.857330
0.396667 0.496765 0.860596
0.587738 0.525757 0.864136
0.743317 0.561554 0.873260
0.868958 0.590668 0.875916
0.957123 0.613037 0.859863
0.000519 0.653656 0.868835
0.001404 0.652771 0.866180
0.005951 0.651367 0.866913
0.221100 0.651367 0.865173
0.482635 0.664551 0.873505
0.726135 0.713623 0.875397
0.859222 0.739044 0.889069
0.947876 0.750427 0.871735
0.004791 0.813049 0.868835
0.000885 0.816956 0.874908
0.001892 0.820007 0.870972
0.302307 0.823914 0.877930
0.531433 0.829865 0.882599
0.712585 0.840851 0.887054
0.864014 0.864014 0.901459
0.935608 0.858337 0.884003
0.001404 0.943970 0.900208
0.002899 0.946991 0.901459
0.024261 0.947388 0.901703
0.357727 0.945862 0.899170
0.551941 0.940033 0.898438
0.708557 0.939545 0.891479
0.814667 0.932587 0.884003
0.938538 0.946625 0.895020
0.436188 0.000000 0.971405
0.464508 0.003937 0.960785
0.537781 0.000000 0.963196
0.637177 0.002014 0.966736
0.736389 0.000000 0.960541
0.851379 0.003937 0.967865
0.947876 0.003052 0.972809
1.000000 0.068085 0.967102
0.441864 0.006592 0.963684
0.474640 0.000366 0.971405
0.538391 0.005432 0.965332
0.627563 0.003052 0.971283
0.744720 0.000000 0.974823
0.848724 0.003052 0.971924
0.954590 0.047333 0.965210
0.999115 0.184052 0.967377
0.446686 0.002014 0.970032
0.468811 0.002014 0.966736
0.534454 0.006073 0.970032
0.630615 0.014130 0.963684
0.734344 0.074249 0.964600
0.844299 0.170013 0.965088
0.945862 0.268555 0.972565
0.997467 0.323456 0.963196
0.397095 0.285492 0.967102
0.429993 0.287018 0.967865
0.495117 0.292450 0.967865
0.603912 0.309021 0.964447
0.712738 0.330658 0.966980
0.825439 0.368500 0.965973
0.926880 0.421509 0.964691
1.000000 0.461731 0.961914
0.052551 0.405182 0.969910
0.187805 0.414429 0.966980
0.361115 0.449860 0.968262
0.517120 0.477295 0.965454
0.658203 0.492859 0.966980
0.790649 0.526398 0.962921
0.902740 0.573090 0.965332
0.988220 0.604187 0.961914
0.006073 0.593933 0.968018
0.001007 0.591034 0.965485
0.002014 0.585083 0.965576
0.203125 0.577240 0.967621
0.551941 0.631256 0.961304
0.747253 0.673004 0.962555
0.883118 0.705627 0.964844
0.972046 0.735626 0.961029
0.003052 0.784576 0.957489
0.003052 0.783813 0.960144
0.005066 0.783325 0.966248
0.184692 0.779266 0.959656
0.458588 0.778748 0.960022
0.653656 0.782806 0.963562
0.849854 0.827698 0.958130
0.951935 0.854919 0.959137
0.000763 0.912964 0.967499
0.000000 0.919434 0.963440
0.114868 0.912842 0.957886
0.369873 0.916901 0.958008
0.556366 0.914856 0.961914
0.708160 0.922974 0.956848
0.837830 0.927399 0.960144
0.952179 0.948273 0.967865
