static/luts/FujiAstia.cube
#Created by: Adobe Photoshop Export Color Lookup Plugin
#Copyright: (C) Copyright 2022 Tim Martin and Presetpro.com
TITLE "Presetpro - Fuji Astia.jpg"
#LUT size
LUT_3D_SIZE 32
#data domain
DOMAIN_MIN 0.0 0.0 0.0
DOMAIN_MAX 1.0 1.0 1.0
#LUT data points
0.000000 0.000000 0.000000
0.008209 0.000122 0.003784
0.028473 0.003937 0.003662
0.048187 0.003937 0.000000
0.075012 0.001007 0.007843
0.092102 0.008484 0.000000
0.112823 0.012512 0.000000
0.143829 0.018738 0.006073
0.176575 0.011780 0.000000
0.212402 0.013428 0.000000
0.249451 0.006592 0.001251
0.290680 0.002533 0.005310
0.330658 0.002411 0.000000
0.375183 0.000000 0.000000
0.414917 0.000000 0.000000
0.452484 0.003937 0.001892
0.484650 0.002014 0.000000
0.524506 0.002167 0.000000
0.562073 0.000000 0.000000
0.600281 0.002411 0.003937
0.632507 0.002533 0.000000
0.661621 0.001251 0.002655
0.690704 0.000000 0.001129
0.725372 0.003937 0.000000
0.754211 0.006073 0.000000
0.793060 0.039337 0.000000
0.824921 0.075897 0.003296
0.853394 0.112213 0.000000
0.880829 0.147125 0.000000
0.916901 0.179626 0.003662
0.956116 0.207336 0.003937
0.988220 0.239227 0.003937
0.004059 0.011902 0.000000
0.015930 0.015808 0.007599
0.028473 0.015808 0.000122
0.055267 0.019470 0.000000
0.071838 0.019867 0.000000
0.092346 0.023773 0.000122
0.124725 0.024933 0.003937
0.146851 0.026947 0.003174
0.180878 0.023773 0.000000
0.217316 0.020996 0.000000
0.253510 0.022400 0.002655
0.293335 0.009369 0.000000
0.337128 0.001648 0.000000
0.378479 0.000000 0.003021
0.418823 0.003784 0.005951
0.454895 0.000000 0.000122
0.496399 0.001892 0.000122
0.530426 0.000000 0.000000
0.564453 0.002167 0.000000
0.598114 0.000000 0.001892
0.636200 0.000000 0.002411
0.665527 0.005066 0.002533
0.695770 0.002777 0.005066
0.725616 0.004181 0.002899
0.757385 0.028351 0.002899
0.789368 0.067047 0.000763
0.824799 0.098938 0.000122
0.856812 0.127655 0.000122
0.891724 0.159515 0.006958
0.928009 0.194946 0.003540
0.952423 0.215302 0.000122
0.984192 0.243256 0.000244
0.003937 0.024048 0.000244
0.008484 0.027832 0.004059
0.032379 0.031616 0.000000
0.059570 0.032135 0.000122
0.079437 0.029205 0.000000
0.096771 0.039337 0.003296
0.129272 0.038971 0.000519
0.158630 0.039093 0.000000
0.192780 0.033142 0.000000
0.223785 0.036316 0.000000
0.266663 0.028198 0.003937
0.304993 0.026581 0.000244
0.337494 0.018860 0.000000
0.379242 0.011139 0.000000
0.421356 0.005310 0.000244
0.462585 0.000763 0.000000
0.498566 0.000000 0.003784
0.538422 0.000000 0.000000
0.568268 0.001648 0.000000
0.602020 0.000244 0.001526
0.638733 0.000519 0.002777
0.668182 0.003174 0.002411
0.697662 0.007965 0.000000
0.733215 0.029602 0.002655
0.766998 0.059967 0.003052
0.800629 0.088928 0.003937
0.821899 0.115875 0.000000
0.853882 0.144073 0.000000
0.888184 0.175201 0.000244
0.927887 0.200012 0.007080
0.952423 0.223663 0.000000
0.984314 0.255157 0.000244
0.004303 0.044281 0.007843
0.015686 0.044006 0.011261
0.035675 0.048065 0.003540
0.059570 0.051727 0.000000
0.080078 0.056030 0.000000
0.101562 0.053131 0.000000
0.139160 0.053253 0.000000
0.157227 0.062500 0.000366
0.200256 0.056793 0.000366
0.229980 0.061615 0.000000
0.280457 0.055145 0.004425
0.312195 0.049957 0.000366
0.356232 0.048584 0.005951
0.396820 0.042633 0.002289
0.435913 0.034424 0.002533
0.470581 0.027832 0.000366
0.511353 0.023529 0.000763
0.538422 0.019714 0.000000
0.576233 0.016052 0.003662
0.606598 0.020233 0.000366
0.639343 0.022644 0.000000
0.676544 0.037323 0.002289
0.705261 0.054535 0.001129
0.736115 0.069458 0.003662
0.765472 0.096527 0.000366
0.797363 0.114868 0.000000
0.825684 0.137878 0.002899
0.858459 0.163818 0.000366
0.892975 0.191406 0.003540
0.923859 0.215698 0.000244
0.959259 0.239838 0.003418
0.991028 0.263885 0.007477
0.012268 0.067169 0.007324
0.019745 0.067688 0.011261
0.035553 0.067932 0.007599
0.055145 0.072723 0.011261
0.083862 0.073120 0.001526
0.113342 0.083374 0.003937
0.143463 0.083862 0.007080
0.173920 0.084381 0.000519
0.209473 0.084381 0.003418
0.249207 0.084381 0.002777
0.283600 0.087036 0.000000
0.324707 0.080444 0.000000
0.364441 0.079437 0.005829
0.401886 0.078186 0.000000
0.443359 0.072601 0.003418
0.477661 0.071716 0.000000
0.517914 0.069183 0.008728
0.555878 0.067413 0.005066
0.586731 0.067413 0.005188
0.617462 0.071594 0.000519
0.647308 0.077026 0.003418
0.679077 0.086517 0.000000
0.706909 0.098297 0.000519
0.739166 0.109802 0.001007
0.769531 0.127136 0.007324
0.804321 0.141693 0.002655
0.833282 0.168243 0.001129
0.864655 0.188751 0.001007
0.896912 0.211761 0.006958
0.925232 0.239227 0.001007
0.956726 0.256531 0.000519
0.989258 0.284363 0.004425
0.010498 0.088806 0.013031
0.015167 0.092590 0.012787
0.024414 0.092102 0.015167
0.054382 0.093353 0.014801
0.078796 0.101074 0.004059
0.111694 0.105743 0.003937
0.153442 0.113098 0.000244
0.186584 0.116241 0.003296
0.221619 0.119537 0.001892
0.257294 0.116364 0.000000
0.297150 0.116241 0.001251
0.340393 0.112213 0.002533
0.377228 0.116241 0.000000
0.417297 0.114624 0.000641
0.452606 0.111816 0.000000
0.495880 0.111053 0.002014
0.524994 0.109161 0.006592
0.560028 0.109039 0.003021
0.593445 0.112946 0.001648
0.627472 0.116882 0.000000
0.656433 0.118774 0.001892
0.679840 0.127380 0.000000
0.713745 0.137512 0.003418
0.746887 0.147247 0.003296
0.777740 0.163940 0.002411
0.805450 0.180634 0.001404
0.841248 0.194061 0.000641
0.869843 0.214050 0.000000
0.900818 0.237305 0.000641
0.928650 0.262878 0.000641
0.957489 0.283234 0.000000
0.985565 0.301208 0.003296
0.003937 0.117523 0.021271
0.009735 0.116760 0.014160
0.018585 0.120667 0.005188
0.038849 0.121826 0.005432
0.064758 0.132202 0.003937
0.099670 0.140045 0.000122
0.139526 0.147369 0.000000
0.190369 0.152924 0.000000
0.232239 0.153564 0.003662
0.264496 0.153931 0.000000
0.308289 0.155975 0.000000
0.344818 0.154205 0.000000
0.397461 0.149658 0.006317
0.434662 0.153564 0.005432
0.465637 0.150665 0.001007
0.500427 0.150787 0.001129
0.531952 0.152802 0.000000
0.565582 0.152161 0.003937
0.598999 0.154449 0.005554
0.637695 0.158386 0.001526
0.662231 0.159271 0.000000
0.695648 0.167236 0.000763
0.718903 0.174072 0.001892
0.752075 0.185333 0.000000
0.776093 0.200500 0.001770
0.811005 0.217194 0.001526
0.837311 0.230621 0.000000
0.874908 0.248566 0.003418
0.901581 0.265411 0.000000
0.932312 0.288544 0.002899
0.965729 0.304626 0.006958
0.996826 0.323853 0.000763
0.000000 0.155579 0.019623
0.003174 0.152679 0.018860
0.006958 0.150391 0.013031
0.018219 0.157745 0.015320
0.050079 0.161285 0.007843
0.096527 0.165588 0.006073
0.125092 0.177612 0.000000
0.178741 0.184814 0.000885
0.235657 0.195557 0.000244
0.276886 0.196564 0.000244
0.320038 0.193909 0.003052
0.359894 0.194031 0.000000
0.397339 0.198334 0.000000
0.438934 0.199738 0.001648
0.473724 0.196564 0.000885
0.510162 0.196564 0.000000
0.544220 0.197449 0.000885
0.577240 0.194794 0.000000
0.613281 0.198334 0.004425
0.642517 0.198975 0.003052
0.674377 0.201385 0.001648
0.702972 0.210114 0.000000
0.725739 0.218964 0.000000
0.756470 0.226807 0.000000
0.788239 0.235779 0.003052
0.822144 0.249969 0.003784
0.849091 0.265015 0.000885
0.882599 0.275391 0.001770
0.906525 0.300446 0.004425
0.937378 0.319794 0.000000
0.966095 0.336609 0.000000
1.000000 0.355591 0.000000
0.000000 0.186462 0.008850
0.000000 0.188477 0.010895
0.000000 0.190369 0.011261
0.003296 0.193909 0.007843
0.034668 0.200104 0.000000
0.075531 0.205048 0.002899
0.120178 0.212646 0.002899
0.165070 0.217834 0.000000
0.223663 0.227570 0.001007
0.274506 0.236542 0.000122
0.323700 0.245270 0.003937
0.363434 0.245270 0.001007
0.403656 0.244781 0.000000
0.444519 0.241364 0.001648
0.483337 0.240356 0.000000
0.524200 0.241364 0.000000
0.558136 0.241364 0.001892
0.595093 0.238586 0.000000
0.621887 0.241364 0.000000
0.656677 0.244263 0.000000
0.677673 0.246277 0.001526
0.708679 0.250214 0.002899
0.736633 0.258057 0.001129
0.767487 0.266907 0.000000
0.793549 0.280701 0.000000
0.822266 0.288422 0.000000
0.854645 0.303467 0.000000
0.883240 0.314850 0.002411
0.907654 0.333313 0.000000
0.941437 0.345734 0.000000
0.973053 0.363434 0.000000
1.000000 0.383423 0.000000
0.001129 0.226440 0.005066
0.003937 0.226440 0.005066
0.006439 0.228973 0.007599
0.000763 0.228455 0.007080
0.002136 0.235931 0.002777
0.044769 0.237671 0.002777
0.106262 0.246399 0.000763
0.154083 0.256409 0.000885
0.203674 0.264374 0.000000
0.253876 0.275146 0.000000
0.313599 0.284363 0.001251
0.364929 0.292206 0.003662
0.412018 0.287903 0.000366
0.451996 0.288666 0.000000
0.486633 0.289185 0.004425
0.521179 0.283966 0.001129
0.562195 0.285248 0.001892
0.595093 0.286255 0.000000
0.632629 0.290802 0.002289
0.663025 0.291962 0.000000
0.691345 0.291962 0.001404
0.720062 0.298401 0.000000
0.748383 0.302582 0.000000
0.779266 0.306641 0.000000
0.799896 0.320435 0.003937
0.832642 0.329529 0.000000
0.861359 0.342682 0.004944
0.887024 0.352570 0.003937
0.919922 0.366089 0.002258
0.946106 0.376831 0.002258
0.977112 0.395172 0.000000
1.000000 0.409607 0.000000
0.002655 0.266388 0.000000
0.002655 0.267914 0.003937
0.000000 0.267395 0.002258
0.002655 0.269043 0.007965
0.000000 0.273499 0.004181
0.013031 0.275513 0.000000
0.078949 0.284241 0.006592
0.141815 0.293091 0.001770
0.188873 0.301453 0.001007
0.243256 0.308289 0.000000
0.300446 0.320038 0.001251
0.354950 0.328125 0.004059
0.415680 0.336975 0.000000
0.452332 0.340515 0.000000
0.496368 0.335205 0.001251
0.531525 0.333832 0.002533
0.569031 0.328003 0.000763
0.599884 0.330933 0.000000
0.633667 0.333069 0.000000
0.667175 0.335480 0.000000
0.697662 0.338135 0.000000
0.728271 0.342163 0.000000
0.759888 0.348755 0.001526
0.780884 0.352936 0.000000
0.814301 0.363556 0.001770
0.842133 0.370270 0.000000
0.871216 0.382141 0.002014
0.899048 0.388367 0.000000
0.924347 0.401642 0.004791
0.954712 0.416321 0.000244
0.979889 0.429596 0.001251
0.998749 0.441620 0.000000
0.000000 0.308899 0.000000
0.000000 0.308777 0.000000
0.000000 0.307526 0.000000
0.002777 0.307526 0.000000
0.001770 0.310181 0.002258
0.002533 0.314209 0.000000
0.052002 0.321442 0.002533
0.117523 0.328003 0.001770
0.169006 0.336975 0.001007
0.230103 0.342804 0.002533
0.284363 0.353302 0.000122
0.338898 0.363800 0.003937
0.403656 0.371765 0.004944
0.455505 0.381134 0.000000
0.497650 0.381897 0.000000
0.536987 0.378998 0.000519
0.568390 0.375061 0.002777
0.601776 0.376343 0.000000
0.641876 0.380890 0.001404
0.672241 0.379486 0.001404
0.700317 0.382019 0.000000
0.734741 0.388733 0.002777
0.765472 0.395447 0.004181
0.796967 0.399475 0.002533
0.818359 0.406067 0.004547
0.845551 0.410858 0.000000
0.872620 0.415558 0.000000
0.905518 0.429962 0.000000
0.929291 0.441467 0.002533
0.959778 0.450714 0.000000
0.985443 0.460205 0.003784
1.000000 0.473602 0.002533
0.003937 0.347229 0.001526
0.003937 0.347229 0.001526
0.002411 0.348755 0.001526
0.002411 0.348358 0.001129
0.005951 0.345215 0.000519
0.000000 0.352417 0.004547
0.022766 0.357361 0.000763
0.092957 0.363800 0.000000
0.153046 0.372772 0.002533
0.214783 0.378998 0.000000
0.272583 0.388977 0.001251
0.326508 0.397980 0.005188
0.382538 0.409973 0.001526
0.434509 0.415680 0.004547
0.493591 0.427429 0.004547
0.533447 0.426819 0.004425
0.570923 0.425293 0.000519
0.608612 0.423248 0.000641
0.638092 0.422485 0.003784
0.672363 0.423248 0.002411
0.705750 0.425781 0.001526
0.738800 0.431366 0.003021
0.769287 0.436310 0.002533
0.802399 0.444763 0.003937
0.829346 0.446533 0.002411
0.857300 0.454620 0.000000
0.885254 0.463623 0.003937
0.915253 0.471832 0.001892
0.939667 0.477417 0.000000
0.966980 0.485748 0.000000
0.991913 0.499939 0.002411
1.000000 0.505615 0.000000
0.000000 0.385315 0.000000
0.002289 0.383026 0.000000
0.000000 0.384674 0.000000
0.000000 0.386963 0.000000
0.000000 0.380127 0.002258
0.001648 0.389252 0.001648
0.003052 0.392395 0.000000
0.061981 0.399597 0.000885
0.143707 0.409210 0.001007
0.198975 0.414398 0.000000
0.254242 0.418945 0.001251
0.307404 0.428955 0.000000
0.366455 0.439331 0.000000
0.418335 0.445770 0.000000
0.475769 0.453247 0.000000
0.531921 0.468658 0.008484
0.572815 0.468933 0.001648
0.609009 0.467041 0.003296
0.641144 0.468658 0.000000
0.673126 0.466156 0.000000
0.704987 0.472595 0.003937
0.736511 0.472961 0.001648
0.767487 0.478790 0.002289
0.799896 0.481445 0.001282
0.827850 0.489441 0.000000
0.858948 0.497650 0.000000
0.892212 0.503967 0.000000
0.923462 0.511444 0.003296
0.943695 0.519287 0.002655
0.973175 0.527252 0.002289
0.990143 0.534332 0.002167
0.998352 0.537628 0.004547
0.000000 0.424896 0.011780
0.001648 0.424774 0.011627
0.000244 0.421234 0.008087
0.002136 0.420227 0.009613
0.001770 0.420593 0.006073
0.001129 0.421234 0.006073
0.002167 0.425293 0.003174
0.040100 0.436279 0.000885
0.124603 0.438446 0.000000
0.187592 0.443512 0.000000
0.237183 0.452728 0.002167
0.288544 0.461212 0.000000
0.346344 0.465881 0.001770
0.400116 0.479034 0.000000
0.454529 0.483337 0.000000
0.509918 0.493469 0.003662
0.567139 0.509033 0.001892
0.608612 0.510040 0.001770
0.643890 0.509888 0.001648
0.676025 0.511444 0.001770
0.706787 0.513336 0.004303
0.743591 0.519135 0.000000
0.769135 0.518646 0.000000
0.796967 0.523712 0.001770
0.828735 0.532562 0.000000
0.861115 0.535736 0.000000
0.893127 0.543701 0.003052
0.919159 0.551270 0.001770
0.947876 0.553558 0.000000
0.981018 0.561768 0.001770
0.995941 0.568115 0.001770
0.998230 0.575317 0.002167
0.001892 0.458557 0.021362
0.002014 0.454620 0.023529
0.002014 0.455139 0.023773
0.000000 0.455627 0.023010
0.001007 0.454620 0.025787
0.003296 0.455902 0.024170
0.002258 0.460205 0.014648
0.018707 0.460571 0.002899
0.106110 0.469574 0.000000
0.177460 0.474243 0.000000
0.229218 0.483215 0.004547
0.280823 0.488037 0.003937
0.334198 0.499298 0.000000
0.386200 0.505493 0.001648
0.440613 0.513336 0.002014
0.490051 0.523193 0.001892
0.545776 0.534973 0.002014
0.597107 0.543335 0.001770
0.642761 0.549377 0.003540
0.678192 0.554565 0.000000
0.706146 0.553802 0.001892
0.740814 0.559753 0.000000
0.768005 0.558502 0.000000
0.800018 0.562408 0.000000
0.833649 0.564575 0.000000
0.868195 0.574677 0.000000
0.892853 0.581390 0.007355
0.920410 0.585815 0.000519
0.947510 0.589478 0.001892
0.983063 0.597443 0.001892
0.999878 0.603394 0.000000
0.998108 0.609467 0.001892
0.000000 0.490479 0.041382
0.000000 0.488556 0.041382
0.000000 0.486542 0.045441
0.000366 0.486176 0.045044
0.000000 0.486664 0.043274
0.000000 0.486542 0.045441
0.000000 0.491211 0.036072
0.009216 0.491486 0.017975
0.096130 0.502228 0.004944
0.157867 0.506165 0.003662
0.225922 0.512085 0.000763
0.276764 0.518036 0.000000
0.322693 0.526764 0.003418
0.372131 0.533356 0.001648
0.426147 0.537537 0.000275
0.479919 0.549286 0.004059
0.529694 0.557129 0.004059
0.577484 0.568909 0.000000
0.627350 0.581299 0.000000
0.674652 0.592926 0.000000
0.704620 0.593079 0.000000
0.740051 0.595856 0.002014
0.771179 0.598389 0.001129
0.802917 0.602295 0.000000
0.830627 0.603302 0.000000
0.862488 0.608490 0.000000
0.890320 0.611389 0.000000
0.920044 0.619873 0.001892
0.952332 0.627350 0.000366
0.977753 0.631012 0.000000
0.999878 0.635315 0.001770
1.000000 0.637451 0.003937
0.000000 0.524109 0.063141
0.000000 0.520569 0.061371
0.000000 0.522339 0.061371
0.002136 0.521973 0.063141
0.000000 0.518311 0.062622
0.001770 0.516663 0.069214
0.001770 0.517395 0.067688
0.010498 0.523224 0.055664
0.091187 0.527405 0.038208
0.152679 0.535889 0.027588
0.215424 0.539276 0.007874
0.270325 0.548248 0.000000
0.315369 0.552826 0.003662
0.368469 0.561035 0.001648
0.414154 0.567261 0.000000
0.460571 0.575226 0.000000
0.517395 0.587128 0.000000
0.571167 0.596863 0.003540
0.609497 0.606964 0.000000
0.658966 0.623047 0.002167
0.713226 0.628235 0.003937
0.743958 0.632141 0.000000
0.771912 0.631653 0.002167
0.805969 0.638977 0.002167
0.833923 0.639984 0.000885
0.864655 0.644928 0.003174
0.895020 0.649994 0.004303
0.923462 0.655548 0.000000
0.951813 0.661743 0.002167
0.988739 0.659332 0.000000
1.000000 0.667175 0.000000
1.000000 0.671356 0.000000
0.000000 0.551941 0.086273
0.000000 0.552582 0.086914
0.001648 0.552582 0.092621
0.000000 0.551941 0.082977
0.005188 0.550293 0.089325
0.000000 0.550293 0.085907
0.002289 0.549652 0.090820
0.004059 0.555359 0.079712
0.085876 0.560791 0.073883
0.155334 0.563690 0.061737
0.215424 0.568878 0.042908
0.266022 0.572449 0.023163
0.310913 0.579254 0.002289
0.362793 0.588226 0.003296
0.407196 0.596832 0.000000
0.454498 0.605591 0.000000
0.505127 0.611145 0.000000
0.555481 0.625183 0.000000
0.601288 0.631012 0.000000
0.645691 0.642914 0.001648
0.692108 0.653412 0.000000
0.736877 0.663147 0.000763
0.775848 0.670227 0.002136
0.807739 0.673523 0.000641
0.837952 0.677185 0.000763
0.867554 0.678070 0.003174
0.895508 0.681976 0.006195
0.925629 0.685913 0.000519
0.958893 0.689819 0.003540
0.987976 0.693512 0.001892
1.000000 0.695404 0.002289
0.998352 0.700958 0.004913
0.000000 0.586090 0.110077
0.001526 0.584595 0.109833
0.001526 0.587616 0.111572
0.002014 0.583313 0.109680
0.001526 0.582184 0.102844
0.001770 0.585480 0.108917
0.007965 0.581421 0.112335
0.005951 0.586090 0.104370
0.092346 0.587219 0.104858
0.160645 0.590027 0.095154
0.214539 0.603058 0.076416
0.263123 0.605713 0.057709
0.313446 0.608124 0.042786
0.361267 0.619110 0.017242
0.406189 0.623169 0.000641
0.451599 0.634155 0.000000
0.496399 0.644531 0.000000
0.541687 0.652252 0.000000
0.586853 0.661133 0.001526
0.637085 0.674774 0.000000
0.676392 0.680328 0.001526
0.723480 0.690704 0.000000
0.773193 0.700195 0.004822
0.810638 0.708160 0.002411
0.834167 0.711578 0.002411
0.864380 0.709167 0.002411
0.895508 0.713104 0.000000
0.924988 0.719421 0.000000
0.959656 0.717926 0.000366
0.987732 0.725494 0.002411
0.999878 0.727142 0.000000
0.998474 0.732697 0.000000
0.001404 0.617981 0.129425
0.001404 0.617981 0.129425
0.001404 0.618225 0.130157
0.000000 0.620514 0.131958
0.003937 0.615448 0.130676
0.004547 0.616058 0.127258
0.000763 0.615814 0.133087
0.017456 0.611023 0.127899
0.110168 0.620361 0.125000
0.164307 0.624146 0.116028
0.220490 0.629852 0.106903
0.267151 0.629730 0.095032
0.314972 0.641510 0.087189
0.357239 0.649353 0.067200
0.403534 0.653259 0.029114
0.449829 0.662994 0.011658
0.493622 0.670990 0.000000
0.538422 0.676788 0.000000
0.581421 0.686676 0.000000
0.626709 0.693756 0.000000
0.666412 0.700317 0.001404
0.711578 0.717285 0.000122
0.757629 0.724121 0.001129
0.799896 0.738922 0.003937
0.838715 0.740051 0.000000
0.871857 0.742706 0.000000
0.900055 0.747772 0.003174
0.929779 0.750793 0.000000
0.960022 0.750153 0.001404
0.988617 0.752686 0.004181
1.000000 0.755219 0.002777
0.997467 0.757996 0.000000
0.002655 0.652374 0.150421
0.003937 0.649841 0.151672
0.001251 0.652496 0.152191
0.003937 0.649841 0.153717
0.003937 0.649841 0.155975
0.007843 0.651123 0.150421
0.003937 0.650604 0.147644
0.033752 0.650360 0.150421
0.120941 0.650116 0.141296
0.175323 0.657318 0.138519
0.228699 0.660217 0.133606
0.271088 0.665527 0.128021
0.317505 0.673645 0.113861
0.361542 0.678558 0.101715
0.403137 0.684265 0.083008
0.449188 0.688293 0.065186
0.488556 0.699707 0.025055
0.533600 0.709930 0.002777
0.573456 0.714874 0.001251
0.616058 0.725494 0.002655
0.658325 0.731964 0.002533
0.700836 0.743958 0.002655
0.741943 0.749420 0.001251
0.785461 0.758911 0.001007
0.833893 0.766998 0.000366
0.870331 0.774597 0.000763
0.904755 0.779266 0.003296
0.933228 0.780792 0.001251
0.956604 0.783173 0.004303
0.992401 0.781799 0.000000
1.000000 0.780518 0.002655
0.997345 0.785706 0.002655
0.000000 0.685638 0.178619
0.000000 0.682861 0.175598
0.000000 0.682861 0.170288
0.001526 0.683258 0.170654
0.000000 0.685638 0.180908
0.000000 0.687164 0.172424
0.012909 0.684509 0.167877
0.075653 0.684509 0.175079
0.139893 0.684509 0.173065
0.190002 0.688446 0.165222
0.238068 0.693481 0.157501
0.277527 0.698547 0.146759
0.327881 0.702484 0.144470
0.370117 0.708038 0.137268
0.410980 0.713104 0.118561
0.449432 0.720703 0.107300
0.490845 0.725769 0.096130
0.536774 0.734863 0.063110
0.570557 0.738281 0.017578
0.611511 0.750275 0.000763
0.652771 0.762451 0.000000
0.694244 0.767883 0.002655
0.732697 0.774719 0.002777
0.773834 0.781158 0.002777
0.814941 0.791779 0.000000
0.861237 0.801270 0.000000
0.902222 0.807220 0.000641
0.934723 0.807861 0.000000
0.954956 0.812286 0.000000
0.988617 0.809479 0.000000
0.997223 0.811127 0.002777
0.998871 0.810638 0.000000
0.002014 0.717529 0.201904
0.002014 0.723236 0.198853
0.001007 0.723358 0.195953
0.002014 0.724365 0.191895
0.003418 0.718048 0.198364
0.005035 0.721436 0.192139
0.056793 0.716522 0.198730
0.110809 0.717407 0.196838
0.154083 0.717529 0.191132
0.206573 0.720306 0.190887
0.249695 0.724365 0.185211
0.287903 0.727783 0.178375
0.333466 0.738647 0.173431
0.374176 0.739777 0.166595
0.413910 0.743835 0.155243
0.457550 0.752686 0.148895
0.492493 0.755981 0.133972
0.535492 0.763824 0.119293
0.572174 0.770172 0.089050
0.606720 0.779755 0.066925
0.652893 0.784058 0.024048
0.690216 0.791779 0.000519
0.728668 0.799744 0.001007
0.767487 0.804810 0.003937
0.801514 0.813660 0.002777
0.847687 0.825562 0.000000
0.895905 0.834534 0.002899
0.936249 0.835175 0.002014
0.960907 0.836823 0.000000
0.990387 0.836426 0.000000
1.000000 0.837067 0.000885
1.000000 0.836182 0.005829
0.000000 0.753326 0.223022
0.000000 0.756378 0.216949
0.000000 0.756622 0.217224
0.001251 0.757629 0.218231
0.020233 0.754211 0.222534
0.065521 0.753967 0.217590
0.114502 0.755615 0.216949
0.152954 0.755096 0.214813
0.184570 0.754486 0.224670
0.226044 0.758270 0.220520
0.262115 0.757263 0.213531
0.301697 0.761688 0.205200
0.343079 0.769012 0.199127
0.380768 0.770660 0.195587
0.420593 0.775085 0.188629
0.456787 0.780792 0.178009
0.494385 0.787598 0.168884
0.535370 0.793823 0.155090
0.571289 0.799622 0.140045
0.608124 0.806702 0.126526
0.648468 0.811279 0.099060
0.685272 0.819611 0.062378
0.722595 0.824799 0.013916
0.760529 0.834656 0.000122
0.797363 0.839600 0.000000
0.838837 0.843658 0.000763
0.877045 0.851624 0.000000
0.924347 0.860840 0.000000
0.961029 0.863647 0.000000
0.992279 0.864014 0.000000
1.000000 0.863129 0.000000
0.995209 0.864899 0.006073
0.000000 0.792297 0.240875
0.009857 0.793671 0.244904
0.032654 0.789124 0.244019
0.064667 0.791534 0.249969
0.098175 0.789642 0.246796
0.126007 0.791656 0.245422
0.158508 0.790771 0.250366
0.183167 0.786835 0.244781
0.208862 0.789520 0.246674
0.243378 0.789520 0.242767
0.278564 0.790375 0.246429
0.319153 0.796204 0.239349
0.351166 0.803284 0.230743
0.392517 0.805695 0.227448
0.426666 0.808746 0.219482
0.464874 0.809479 0.217834
0.500336 0.818237 0.207458
0.543335 0.822662 0.197723
0.570801 0.828339 0.187866
0.607971 0.833771 0.169525
0.646576 0.842651 0.153442
0.684631 0.847443 0.135223
0.720947 0.848694 0.106384
0.761566 0.857300 0.081604
0.788635 0.863647 0.023163
0.829102 0.871490 0.000000
0.868835 0.876160 0.000000
0.911957 0.879578 0.006317
0.956116 0.886414 0.000763
0.987488 0.891846 0.000000
0.999878 0.884888 0.001404
0.998474 0.884766 0.000000
0.091095 0.827576 0.275909
0.100464 0.825043 0.277039
0.120056 0.827972 0.277161
0.130035 0.822021 0.276917
0.154083 0.819489 0.278687
0.171295 0.823669 0.275909
0.199005 0.824921 0.276672
0.217316 0.827576 0.274384
0.239716 0.824921 0.278809
0.269836 0.822144 0.273132
0.303864 0.824280 0.278564
0.336365 0.828857 0.273254
0.363800 0.836060 0.265289
0.400360 0.836060 0.259583
0.438934 0.838470 0.256042
0.474365 0.844543 0.251740
0.504242 0.850494 0.239990
0.543854 0.855682 0.238953
0.577759 0.859589 0.226562
0.613556 0.864136 0.213409
0.649475 0.869843 0.208862
0.681854 0.873260 0.190277
0.717010 0.879822 0.173706
0.749268 0.884003 0.155365
0.784943 0.887909 0.122711
0.830109 0.892212 0.077667
0.864136 0.895508 0.019745
0.904480 0.900208 0.000000
0.936615 0.903992 0.000000
0.979767 0.908295 0.000366
0.999878 0.911316 0.001251
1.000000 0.911194 0.000000
0.152832 0.860718 0.307281
0.164581 0.861725 0.304871
0.176361 0.860718 0.308289
0.186340 0.861115 0.311584
0.195068 0.860718 0.308807
0.213287 0.857941 0.304504
0.239594 0.860229 0.312103
0.258453 0.860352 0.303864
0.272980 0.860718 0.313110
0.292603 0.862366 0.307281
0.325104 0.860718 0.311951
0.353180 0.864655 0.310333
0.385315 0.867157 0.304749
0.417816 0.872498 0.294525
0.451965 0.870850 0.292847
