static/luts/KodakGold200.cube
#Created by: Adobe Photoshop Export Color Lookup Plugin
#Copyright: (C) Copyright 2022 Tim Martin and Presetpro.com
TITLE "Presetpro - Gold 200.jpg"
#LUT size
LUT_3D_SIZE 8
#data domain
#LUT data points
DOMAIN_MIN 0.000000 0.000000 0.000000
DOMAIN_MAX 0.903226 0.903226 0.903226
0.000000 0.000000 0.000000
0.036316 0.000519 0.001007
0.094238 0.003937 0.010742
0.320404 0.001526 0.023529
0.580933 0.000000 0.013672
0.796967 0.002533 0.011780
0.944611 0.003052 0.037445
0.996460 0.000366 0.113739
0.010742 0.028961 0.024048
0.026947 0.040741 0.012787
0.140411 0.039734 0.000000
0.366058 0.000000 0.002014
0.605835 0.003784 0.002533
0.803284 0.001892 0.005432
0.960297 0.000519 0.000519
0.996582 0.041992 0.078949
0.001007 0.169769 0.061859
0.003418 0.167847 0.052368
0.109039 0.194305 0.000000
0.416046 0.168243 0.000000
0.656311 0.057007 0.000000
0.828857 0.002899 0.004181
0.969910 0.019196 0.002014
0.996460 0.213409 0.000000
0.000000 0.373810 0.158997
0.001007 0.372284 0.132446
0.006073 0.376587 0.104980
0.383789 0.399719 0.006317
0.675293 0.381104 0.004303
0.854645 0.342041 0.002899
0.976868 0.332184 0.002411
0.997589 0.376587 0.000763
0.000000 0.563080 0.280579
0.006836 0.565491 0.261108
0.091095 0.558289 0.230774
0.357880 0.569031 0.163727
0.616089 0.592560 0.000000
0.830994 0.599884 0.000000
0.970154 0.572937 0.002014
0.997589 0.550934 0.000000
0.201813 0.735626 0.425812
0.190918 0.734222 0.395203
0.300201 0.731689 0.380280
0.429474 0.721313 0.346161
0.599762 0.736755 0.276917
0.776215 0.761688 0.121094
0.928009 0.769012 0.003937
0.998993 0.751678 0.001007
0.468323 0.860107 0.595581
0.461243 0.861481 0.575958
0.490845 0.858063 0.564453
0.547638 0.857056 0.534363
0.628876 0.858185 0.490570
0.756622 0.868439 0.431366
0.883636 0.880585 0.312347
0.998749 0.880463 0.039490
0.663635 0.943970 0.769897
0.656555 0.943970 0.758881
0.668701 0.941803 0.752197
0.692230 0.941315 0.736115
0.728027 0.942810 0.715759
0.782532 0.944336 0.678925
0.864532 0.951691 0.629089
0.956482 0.955353 0.514984
0.011261 0.003937 0.048584
0.031372 0.011261 0.040222
0.101196 0.011261 0.040222
0.335205 0.000000 0.037811
0.594208 0.001892 0.015167
0.800903 0.000519 0.005432
0.956757 0.003052 0.007599
0.989380 0.007080 0.092865
0.003418 0.041229 0.068695
0.011261 0.049072 0.067688
0.134064 0.052490 0.061340
0.368591 0.002899 0.036438
0.614685 0.003784 0.006683
0.815582 0.000519 0.003418
0.962952 0.003052 0.000519
0.998871 0.088165 0.057953
0.000000 0.178619 0.132935
0.005829 0.186951 0.119293
0.140900 0.206055 0.078033
0.429321 0.170258 0.015167
0.658356 0.092316 0.000519
0.835175 0.019562 0.000000
0.970154 0.076385 0.000000
0.998749 0.234406 0.008850
0.006836 0.377716 0.225555
0.000519 0.386566 0.213409
0.076874 0.380249 0.182526
0.399963 0.406677 0.084503
0.675934 0.387054 0.002899
0.854675 0.344055 0.000519
0.985443 0.341156 0.005676
0.999481 0.384308 0.001404
0.004944 0.565979 0.337524
0.021515 0.565979 0.325745
0.185333 0.569031 0.291840
0.386688 0.568512 0.240356
0.633667 0.593933 0.115143
0.827850 0.602814 0.002777
0.964966 0.577881 0.000000
1.000000 0.555481 0.003937
0.302734 0.732849 0.467194
0.293762 0.739532 0.451233
0.341309 0.734619 0.421783
0.452881 0.726379 0.387634
0.602936 0.741943 0.330170
0.780396 0.763580 0.218597
0.925232 0.773956 0.000519
0.997986 0.754730 0.000000
0.506653 0.860107 0.629120
0.500702 0.864014 0.613800
0.508423 0.864014 0.590149
0.565704 0.860596 0.559265
0.634308 0.856689 0.523468
0.755615 0.869843 0.464264
0.881989 0.880219 0.360046
1.000000 0.883118 0.178619
0.670959 0.946869 0.778107
0.674255 0.940918 0.773315
0.680328 0.944214 0.761536
0.693115 0.946228 0.750549
0.734741 0.940277 0.724487
0.789642 0.942810 0.701447
0.865143 0.948761 0.647186
0.960419 0.953308 0.547394
0.000000 0.016693 0.164825
0.001007 0.015686 0.164825
0.107117 0.014679 0.158997
0.352905 0.000000 0.151154
0.584839 0.001892 0.174561
0.793060 0.002899 0.163177
0.949280 0.005829 0.114594
0.999237 0.074249 0.063385
0.002899 0.072601 0.186462
0.000519 0.074127 0.193787
0.141907 0.074615 0.186462
0.376312 0.076019 0.184418
0.607361 0.069275 0.196686
0.807739 0.014160 0.162170
0.958252 0.025757 0.118774
0.998993 0.153076 0.020996
0.000000 0.199097 0.219727
0.001007 0.202637 0.230591
0.174805 0.225677 0.236420
0.419952 0.219849 0.215912
0.645569 0.205170 0.198212
0.826813 0.201874 0.169769
0.961304 0.229828 0.099396
0.997467 0.273224 0.002899
0.005310 0.387573 0.313965
0.040924 0.391998 0.307129
0.233734 0.407074 0.308136
0.436035 0.416931 0.257538
0.677948 0.399841 0.199860
0.847321 0.386078 0.140778
0.969513 0.399841 0.044220
0.999115 0.422119 0.003296
0.182922 0.575867 0.416962
0.241241 0.578247 0.419861
0.325867 0.582703 0.399506
0.434265 0.577240 0.356232
0.642395 0.601288 0.288422
0.832153 0.605835 0.208099
0.959900 0.590668 0.043610
0.995209 0.580170 0.000000
0.361816 0.740540 0.530670
0.394562 0.740692 0.533203
0.436188 0.744843 0.509674
0.494263 0.738007 0.474640
0.616455 0.741058 0.430359
0.782684 0.766998 0.354462
0.922455 0.776855 0.253754
0.998993 0.758911 0.025787
0.536011 0.864014 0.672241
0.551056 0.865021 0.671600
0.563324 0.864014 0.650604
0.589996 0.865540 0.622528
0.655548 0.860992 0.585815
0.759033 0.871368 0.545349
0.881470 0.880859 0.465271
0.991913 0.881592 0.349274
0.691223 0.944733 0.809479
0.703979 0.938141 0.810883
0.704987 0.941040 0.798737
0.715881 0.946228 0.776337
0.735382 0.945343 0.758240
0.793549 0.945221 0.734711
0.864380 0.948273 0.688812
0.963715 0.952179 0.613159
0.000000 0.044647 0.325226
0.002411 0.048187 0.329132
0.109650 0.046173 0.347351
0.388580 0.002411 0.339386
0.621399 0.001526 0.306641
0.803314 0.041870 0.321960
0.928284 0.260101 0.364441
0.999634 0.318512 0.334076
0.003937 0.121674 0.347748
0.001526 0.121185 0.345337
0.156586 0.133972 0.358124
0.411621 0.098267 0.354187
0.626953 0.110046 0.332672
0.796967 0.184174 0.343567
0.929810 0.305359 0.374664
1.000000 0.346619 0.341797
0.000000 0.230591 0.348236
0.005310 0.235535 0.355072
0.192902 0.257050 0.377716
0.440979 0.263489 0.378723
0.637085 0.291962 0.383026
0.793427 0.354706 0.398712
0.929657 0.379364 0.378601
0.996460 0.412628 0.341278
0.001526 0.393402 0.406677
0.026764 0.402771 0.406555
0.273865 0.414032 0.415039
0.467926 0.431732 0.426300
0.662506 0.441986 0.412506
0.819611 0.454773 0.399719
0.946381 0.481201 0.374420
1.000000 0.505249 0.334442
0.298920 0.586975 0.511597
0.334869 0.589508 0.522980
0.423401 0.592041 0.512085
0.515106 0.600403 0.500305
0.654663 0.613678 0.456787
0.822906 0.617615 0.412628
0.948761 0.610260 0.361664
0.998108 0.623047 0.310547
0.426819 0.747498 0.615051
0.456421 0.747009 0.613525
0.506134 0.749908 0.616577
0.569000 0.751434 0.598480
0.632660 0.750793 0.553436
0.781036 0.775330 0.507782
0.915741 0.777374 0.449829
0.999634 0.764465 0.356842
0.561798 0.863373 0.725861
0.571045 0.864014 0.717529
0.608612 0.868958 0.727539
0.642242 0.868561 0.709930
0.680206 0.866425 0.678436
0.764587 0.871857 0.643524
0.875793 0.885773 0.588989
0.984436 0.889069 0.514221
0.692474 0.944336 0.828217
0.704498 0.946747 0.838226
0.726013 0.946747 0.833405
0.738159 0.942688 0.822266
0.757233 0.943207 0.799347
0.795319 0.945740 0.780762
0.869202 0.949768 0.749664
0.952576 0.956116 0.690186
0.002014 0.108032 0.484650
0.001526 0.109039 0.487701
0.113220 0.119812 0.506287
0.435913 0.120331 0.533722
0.645569 0.018127 0.508179
0.815430 0.133850 0.486664
0.939545 0.265167 0.494659
0.998474 0.402405 0.513489
0.000519 0.172302 0.494385
0.000000 0.179657 0.500854
0.174438 0.191772 0.513092
0.458679 0.204193 0.541962
0.652405 0.165466 0.527405
0.816223 0.230255 0.501984
0.936646 0.327026 0.508301
0.998108 0.444672 0.536377
0.000000 0.282593 0.490601
0.004791 0.293365 0.506653
0.223907 0.299164 0.521973
0.474365 0.324860 0.551453
0.664032 0.322968 0.546387
0.814423 0.370026 0.531830
0.925751 0.439728 0.539520
0.996338 0.546356 0.579254
0.005432 0.407562 0.519928
0.019196 0.416412 0.516022
0.254242 0.424774 0.522827
0.476257 0.453247 0.557251
0.662140 0.484619 0.576874
0.797729 0.520935 0.570801
0.903229 0.575958 0.597992
0.994690 0.610748 0.589539
0.229889 0.578766 0.580780
0.291229 0.579132 0.579407
0.399384 0.588623 0.589661
0.527771 0.600403 0.599365
0.659088 0.623932 0.614075
0.795837 0.643524 0.606720
0.912964 0.661255 0.599518
0.997986 0.672882 0.569550
0.467560 0.753204 0.695404
0.494629 0.754211 0.700958
0.556244 0.759155 0.705902
0.616455 0.762573 0.695892
0.675781 0.768372 0.686157
0.778259 0.781281 0.652527
0.901703 0.779907 0.613556
1.000000 0.770782 0.558014
0.590515 0.872864 0.786591
0.602661 0.869446 0.786469
0.626831 0.874756 0.786713
0.676422 0.874268 0.788116
0.719818 0.870850 0.769897
0.764954 0.872864 0.739685
0.865662 0.885651 0.700592
0.972290 0.889069 0.661896
0.689056 0.943970 0.854645
0.697540 0.949402 0.855804
0.722076 0.947266 0.855804
0.753052 0.946747 0.862000
0.779266 0.946228 0.846436
0.809753 0.944336 0.835815
0.865662 0.951691 0.812531
0.946381 0.955963 0.772064
0.000000 0.189392 0.641510
0.001892 0.197357 0.646423
0.193146 0.205078 0.664276
0.469055 0.225159 0.689178
0.698456 0.255310 0.724640
0.833649 0.228119 0.697540
0.939911 0.327515 0.662384
0.996063 0.448456 0.660736
0.002014 0.247314 0.652008
0.002014 0.248322 0.656677
0.233246 0.261475 0.669952
0.479187 0.278168 0.689697
0.695404 0.316895 0.723480
0.829865 0.295135 0.701477
0.935120 0.381927 0.672119
0.997986 0.487305 0.675262
0.000000 0.355591 0.647705
0.076385 0.352173 0.650848
0.274872 0.353180 0.667053
0.494598 0.376831 0.696167
0.696777 0.425446 0.732330
0.821899 0.418091 0.713226
0.921967 0.480957 0.687439
0.996460 0.565216 0.697052
0.003021 0.434296 0.630371
0.083771 0.448334 0.636597
0.322327 0.469330 0.665527
0.488525 0.488525 0.694489
0.678711 0.542053 0.731842
0.809509 0.555847 0.730316
0.904114 0.600494 0.712219
0.976746 0.663635 0.726746
0.195984 0.588623 0.683777
0.254425 0.586609 0.682892
0.357483 0.590027 0.681854
0.479553 0.592438 0.681244
0.653137 0.640869 0.725250
0.790527 0.680847 0.750427
0.879700 0.711090 0.751801
0.955353 0.752319 0.770905
0.403442 0.734222 0.743469
0.430756 0.735107 0.750305
0.488037 0.742065 0.744476
0.577209 0.747253 0.751678
0.676666 0.759155 0.762573
0.780151 0.785217 0.774841
0.877167 0.799744 0.774323
0.964966 0.811523 0.766602
0.591034 0.869965 0.826202
0.606201 0.868439 0.831757
0.644897 0.871979 0.835693
0.698303 0.880219 0.841003
0.749146 0.881592 0.840240
0.792023 0.886169 0.828491
0.862366 0.891083 0.800751
0.959778 0.888550 0.775848
0.725250 0.950653 0.897278
0.732330 0.945740 0.894501
0.744720 0.948639 0.899567
0.761932 0.947113 0.893738
0.796844 0.948517 0.894623
0.840759 0.952179 0.891968
0.863647 0.949799 0.868835
0.941437 0.956482 0.849457
0.000000 0.305389 0.806458
0.133209 0.308929 0.801910
0.342194 0.318024 0.815063
0.533447 0.339783 0.829987
0.704254 0.379028 0.846436
0.853760 0.437836 0.869598
0.944214 0.419098 0.839600
0.999634 0.510834 0.808228
0.029877 0.342072 0.803436
0.185852 0.343964 0.804047
0.358368 0.358246 0.818970
0.536743 0.376862 0.826324
0.707672 0.421509 0.847687
0.847321 0.479462 0.864532
0.943329 0.465424 0.846069
0.995697 0.544220 0.811890
0.181885 0.424927 0.794434
0.229980 0.418457 0.805695
0.372925 0.430878 0.808228
0.542572 0.458191 0.828217
0.701355 0.495514 0.848450
0.836945 0.566864 0.868073
0.925751 0.551544 0.849213
0.984833 0.613922 0.822144
0.211914 0.514343 0.789886
0.282867 0.523834 0.795441
0.408356 0.537506 0.807220
0.528259 0.543060 0.824554
0.690735 0.589630 0.843384
0.824799 0.658691 0.869446
0.910431 0.654388 0.856171
0.971527 0.695007 0.833008
0.165985 0.608368 0.779633
0.217987 0.603943 0.780396
0.321075 0.600403 0.787628
0.496368 0.624054 0.801910
0.655304 0.665039 0.832642
0.796326 0.734222 0.862488
0.888306 0.748535 0.860992
0.955109 0.775848 0.854797
0.365601 0.742065 0.829346
0.395081 0.743958 0.825684
0.442505 0.744965 0.824432
0.519928 0.744965 0.822021
0.613037 0.742950 0.819489
0.761414 0.787994 0.851746
0.872375 0.829346 0.869324
0.939026 0.850739 0.872375
0.541565 0.854401 0.860992
0.553314 0.859222 0.867065
0.587616 0.857178 0.866913
0.635040 0.865540 0.872742
0.702362 0.870850 0.866913
0.786346 0.877808 0.879700
0.868835 0.890594 0.883636
0.944458 0.899811 0.890717
0.694489 0.947388 0.917267
0.708282 0.947266 0.919922
0.729797 0.948761 0.923737
0.770386 0.947632 0.926636
0.814941 0.950684 0.928406
0.854797 0.957123 0.931702
0.880707 0.959137 0.922089
0.938263 0.960022 0.904633
0.416199 0.464783 0.928650
0.448700 0.468811 0.928406
0.525879 0.484253 0.930817
0.634399 0.508667 0.928528
0.748535 0.536621 0.936249
0.854279 0.596344 0.946869
0.939270 0.637329 0.943848
0.996460 0.625183 0.940033
0.422638 0.496277 0.926880
0.457306 0.500061 0.923981
0.533966 0.508667 0.929535
0.637939 0.528290 0.937378
0.745117 0.563812 0.937775
0.851379 0.617859 0.950409
0.935364 0.660858 0.946869
0.999634 0.648712 0.932587
0.426056 0.545227 0.920807
0.460205 0.551300 0.927521
0.534088 0.559753 0.925751
0.632874 0.581665 0.925354
0.743713 0.619354 0.931183
0.842896 0.667694 0.939423
0.926636 0.708923 0.946747
0.994171 0.695618 0.936890
0.464661 0.638458 0.918152
0.493744 0.639221 0.913849
0.535095 0.634033 0.920563
0.624298 0.645264 0.927399
0.731323 0.676544 0.929932
0.831757 0.725128 0.936127
0.913971 0.772156 0.943817
0.980011 0.757233 0.934845
0.368622 0.688812 0.904755
0.400360 0.693359 0.910187
0.482330 0.698059 0.912079
0.602020 0.716125 0.918793
0.700958 0.730804 0.923462
0.812012 0.774963 0.937653
0.903229 0.825958 0.945984
0.963806 0.818970 0.938538
0.415070 0.789764 0.918427
0.430237 0.789642 0.909058
0.459473 0.783936 0.909180
0.511322 0.775970 0.911713
0.634521 0.781799 0.909546
0.771790 0.812164 0.927399
0.884125 0.869598 0.953583
0.951050 0.873749 0.946228
0.557007 0.880585 0.929047
0.562805 0.883636 0.931824
0.590912 0.883636 0.929047
0.626068 0.879822 0.928162
0.665802 0.874268 0.929291
0.725250 0.867950 0.918274
0.856689 0.895905 0.932709
0.943848 0.924225 0.951691
0.684387 0.941162 0.948273
0.692596 0.943970 0.951294
0.708679 0.946869 0.954712
0.732208 0.944336 0.949158
0.773438 0.949768 0.943970
0.825684 0.947266 0.955109
0.872742 0.952179 0.948517
0.940796 0.956482 0.953308
