static/luts/KodakPortra400.cube
#Created by: Adobe Photoshop Export Color Lookup Plugin
#Copyright: (C) Copyright 2022 Tim Martin and Presetpro.com
TITLE "Presetpro - Portra 400.jpg"
#LUT size
LUT_3D_SIZE 5
#data domain
#LUT data points
DOMAIN_MIN 0.000000 0.000000 0.000000
DOMAIN_MAX 0.903226 0.903226 0.903226
0.000000 0.000000 0.000000
0.115479 0.023529 0.003937
0.414520 0.006073 0.000000
0.733612 0.000000 0.000000
0.985962 0.056183 0.003540
0.000885 0.129913 0.023132
0.089813 0.149506 0.016571
0.447662 0.176971 0.000885
0.748383 0.169495 0.000000
0.979645 0.231110 0.003052
0.000000 0.399231 0.154327
0.000000 0.400604 0.168243
0.389221 0.442352 0.132568
0.758392 0.480316 0.000000
0.982788 0.469055 0.000000
0.002655 0.664276 0.313995
0.136627 0.667816 0.319427
0.392273 0.684753 0.329559
0.673370 0.724365 0.303345
0.933838 0.772675 0.254272
0.470734 0.881226 0.585571
0.506256 0.880829 0.596466
0.592407 0.879456 0.630859
0.711700 0.896027 0.627838
0.861603 0.915741 0.621246
0.003052 0.004791 0.142548
0.130798 0.008728 0.155212
0.430206 0.003052 0.162537
0.744873 0.042419 0.202667
0.971405 0.179626 0.222382
0.000000 0.172150 0.170898
0.160004 0.188721 0.197449
0.475494 0.201782 0.198730
0.757141 0.217072 0.201385
0.979645 0.287262 0.217438
0.090790 0.431488 0.280701
0.183167 0.432739 0.275879
0.438934 0.459808 0.272461
0.772308 0.478149 0.206543
0.979248 0.488159 0.190002
0.156738 0.686554 0.385834
0.265533 0.682983 0.390137
0.445892 0.690460 0.411530
0.689453 0.730438 0.393158
0.933472 0.770020 0.351807
0.499298 0.883881 0.629608
0.534973 0.879456 0.636200
0.619110 0.877289 0.662598
0.727905 0.893372 0.660339
0.868195 0.914368 0.671478
0.001770 0.042755 0.389221
0.112946 0.054504 0.403137
0.475128 0.054504 0.434143
0.710815 0.036682 0.408722
0.967499 0.111816 0.416687
0.000885 0.215302 0.405304
0.145599 0.213135 0.420593
0.503845 0.248444 0.455017
0.733093 0.244507 0.431488
0.977875 0.276031 0.440216
0.002167 0.450195 0.444122
0.253754 0.463745 0.455902
0.550018 0.502960 0.507263
0.780518 0.516113 0.492950
0.960022 0.550018 0.490417
0.381409 0.706512 0.553192
0.468079 0.710815 0.573944
0.559631 0.718292 0.579742
0.727386 0.745239 0.592773
0.939514 0.761810 0.536621
0.592407 0.889069 0.713959
0.605438 0.886414 0.708160
0.659454 0.886902 0.725739
0.750549 0.893494 0.743591
0.872375 0.916504 0.744324
0.000000 0.126892 0.635559
0.066895 0.142181 0.647308
0.499542 0.172150 0.689575
0.787109 0.230255 0.729675
0.936127 0.270844 0.687439
0.000000 0.244537 0.640747
0.146973 0.254150 0.657318
0.515228 0.293365 0.694763
0.791534 0.352692 0.732208
0.938263 0.375336 0.696167
0.003052 0.444519 0.628082
0.181396 0.454132 0.649841
0.519135 0.487274 0.705261
0.789246 0.573181 0.754852
0.924225 0.565857 0.720062
0.235443 0.706024 0.702087
0.349152 0.709930 0.709564
0.561401 0.732208 0.731689
0.780518 0.772675 0.784454
0.929047 0.774963 0.776215
0.584198 0.897797 0.796204
0.613281 0.894623 0.798370
0.708282 0.896912 0.815430
0.789764 0.903473 0.831116
0.893860 0.922577 0.839355
0.193573 0.292603 0.889069
0.345215 0.303101 0.895630
0.586334 0.337128 0.904358
0.816833 0.434784 0.912079
0.964325 0.531067 0.920807
0.213806 0.360535 0.890839
0.354218 0.369751 0.890686
0.589874 0.408966 0.904358
0.809753 0.503601 0.909027
0.959656 0.588867 0.918152
0.245819 0.525757 0.884369
0.338531 0.524475 0.886902
0.564941 0.543579 0.897278
0.796722 0.632507 0.906891
0.937256 0.702606 0.914734
0.000885 0.717163 0.875641
0.162201 0.710449 0.867676
0.427185 0.700958 0.874634
0.751556 0.751434 0.904358
0.926880 0.820251 0.927399
0.460846 0.897278 0.900818
0.502716 0.901703 0.891571
0.610992 0.904755 0.899048
0.764465 0.907013 0.908661
0.932953 0.936493 0.944336
