static/luts/KodakEktar100.cube
#Copyright Tim Martin Presetpro.com StockPresets.com
TITLE "26 - KDK - E64"
#LUT size
LUT_3D_SIZE 4
#LUT data points
0.000000 0.000000 0.000000
0.235294 0.007843 0.003922
0.592157 0.000000 0.000000
0.980392 0.003922 0.003922
0.003922 0.309804 0.113725
0.235294 0.309804 0.058824
0.682353 0.321569 0.003922
0.996078 0.360784 0.003922
0.000000 0.733333 0.290196
0.000000 0.721569 0.266667
0.615686 0.705882 0.117647
1.000000 0.709804 0.000000
0.486275 0.988235 0.678431
0.560784 0.984314 0.678431
0.737255 0.988235 0.690196
0.941176 1.000000 0.588235
0.050980 0.000000 0.290196
0.286275 0.015686 0.270588
0.627451 0.003922 0.192157
0.992157 0.050980 0.015686
0.000000 0.317647 0.360784
0.321569 0.337255 0.349020
0.694118 0.329412 0.262745
1.000000 0.349020 0.027451
0.003922 0.733333 0.486275
0.192157 0.733333 0.470588
0.654902 0.713725 0.388235
1.000000 0.701961 0.235294
0.533333 0.988235 0.741176
0.576471 0.988235 0.725490
0.752941 0.984314 0.725490
0.952941 1.000000 0.658824
0.152941 0.000000 0.670588
0.400000 0.000000 0.670588
0.745098 0.000000 0.643137
1.000000 0.125490 0.576471
0.003922 0.290196 0.698039
0.388235 0.301961 0.694118
0.752941 0.376471 0.674510
1.000000 0.396078 0.592157
0.000000 0.717647 0.741176
0.349020 0.721569 0.737255
0.764706 0.749020 0.745098
1.000000 0.698039 0.650980
0.329412 1.000000 0.827451
0.454902 1.000000 0.823529
0.772549 0.992157 0.839216
0.964706 1.000000 0.800000
0.474510 0.000000 0.992157
0.592157 0.000000 0.992157
0.862745 0.074510 0.980392
1.000000 0.325490 0.960784
0.454902 0.301961 0.996078
0.580392 0.313725 1.000000
0.839216 0.411765 0.988235
0.996078 0.509804 0.964706
0.376471 0.698039 0.996078
0.513725 0.698039 1.000000
0.792157 0.705882 0.996078
1.000000 0.749020 0.984314
0.600000 0.968627 1.000000
0.647059 0.972549 0.996078
0.796078 0.984314 1.000000
0.996078 1.000000 1.000000
