static/luts/KodakGold200.cube
#Created by: Adobe Photoshop Export Color Lookup Plugin
#Copyright: (C) Copyright 2022 Tim Martin and Presetpro.com
TITLE "Presetpro - Gold 200.jpg"
#LUT size
LUT_3D_SIZE 5
#data domain
#LUT data points
DOMAIN_MIN 0.000000 0.000000 0.000000
DOMAIN_MAX 0.903226 0.903226 0.903226
0.000000 0.000000 0.000000
0.067566 0.010895 0.011780
0.453369 0.000000 0.019989
0.839478 0.000000 0.017090
0.996460 0.000366 0.113739
0.003052 0.122070 0.047943
0.059326 0.142548 0.007843
0.538757 0.030090 0.003937
0.869598 0.000000 0.000885
0.999115 0.171143 0.000000
0.001770 0.473724 0.220978
0.001770 0.469421 0.175690
0.516479 0.494720 0.000000
0.881226 0.471191 0.002533
0.999634 0.460205 0.003540
0.273651 0.768768 0.452515
0.328033 0.766235 0.424164
0.519531 0.761414 0.361053
0.810638 0.800262 0.171539
0.996460 0.790131 0.000000
0.663635 0.943970 0.769897
0.666656 0.942047 0.745361
0.708282 0.943970 0.721436
0.804932 0.946991 0.671844
0.956482 0.955353 0.514984
0.000000 0.012634 0.129028
0.070190 0.012634 0.116882
0.466003 0.000000 0.132050
0.839844 0.002655 0.092834
0.999634 0.053009 0.078064
0.003052 0.144318 0.178741
0.097260 0.170898 0.184814
0.529633 0.148254 0.160400
0.864288 0.100403 0.081451
1.000000 0.219086 0.003052
0.001770 0.478149 0.343048
0.216309 0.491180 0.323822
0.540894 0.509521 0.224518
0.881226 0.488647 0.014404
0.998230 0.486877 0.006836
0.388489 0.774963 0.549805
0.429474 0.775330 0.526123
0.553955 0.769653 0.460876
0.808868 0.797089 0.340027
0.999634 0.794434 0.022491
0.690460 0.944733 0.805054
0.692230 0.943085 0.789764
0.720947 0.942047 0.759796
0.807098 0.944733 0.713959
0.965729 0.953064 0.593811
0.000000 0.073730 0.406677
0.003937 0.085876 0.427551
0.530029 0.001770 0.426300
0.843781 0.130554 0.403137
1.000000 0.414551 0.463745
0.002167 0.229706 0.420593
0.115204 0.237549 0.443756
0.548370 0.250214 0.458923
0.840759 0.328278 0.446777
0.997864 0.471191 0.473846
0.061035 0.487274 0.493744
0.303833 0.499023 0.503845
0.575317 0.532166 0.524323
0.845917 0.557861 0.501160
0.997864 0.598450 0.449829
0.495636 0.781555 0.685638
0.536499 0.785828 0.683380
0.635406 0.791412 0.665161
0.807983 0.807983 0.599762
0.998230 0.799622 0.483002
0.692963 0.948273 0.843781
0.715607 0.947388 0.844543
0.761414 0.948273 0.836304
0.811523 0.943451 0.795441
0.948639 0.956116 0.733185
0.000000 0.219879 0.689209
0.136871 0.230255 0.701324
0.592773 0.263397 0.744476
0.866791 0.272125 0.737518
0.999634 0.465271 0.697052
0.000885 0.340912 0.687805
0.229858 0.340027 0.702606
0.602386 0.385834 0.741821
0.856812 0.415436 0.749298
0.998230 0.557129 0.724365
0.012756 0.514343 0.679443
0.247681 0.513092 0.674286
0.575317 0.570526 0.739685
0.826324 0.642883 0.773560
0.970520 0.716125 0.776337
0.442017 0.770172 0.780518
0.498169 0.771423 0.775208
0.633148 0.779266 0.786224
0.796204 0.813171 0.805450
0.958130 0.835419 0.801025
0.741943 0.950928 0.911316
0.751434 0.947388 0.903870
0.786224 0.951691 0.904236
0.845428 0.949524 0.896027
0.939545 0.957733 0.861115
0.416199 0.464783 0.928650
0.508148 0.479706 0.929169
0.690430 0.517151 0.933960
0.876801 0.610901 0.947388
0.996460 0.625183 0.940033
0.429749 0.531952 0.925751
0.511963 0.544098 0.928406
0.688171 0.583282 0.933472
0.869843 0.666168 0.940918
0.996063 0.681335 0.937378
0.418732 0.660461 0.909058
0.511475 0.674011 0.918793
0.659454 0.686523 0.922607
0.849854 0.764069 0.940033
0.968262 0.783539 0.936890
0.448730 0.817719 0.919556
0.483490 0.813293 0.912445
0.569763 0.798492 0.912598
0.793182 0.832397 0.932190
0.951294 0.884644 0.947388
0.684387 0.941162 0.948273
0.698669 0.946991 0.951813
0.750031 0.948273 0.952179
0.832886 0.950531 0.950531
0.940796 0.956482 0.953308
