static/luts/KodakPortra400.cube
#Created by: Adobe Photoshop Export Color Lookup Plugin
#Copyright: (C) Copyright 2022 Tim Martin and Presetpro.com
TITLE "Presetpro - Portra 400.jpg"
#LUT size
LUT_3D_SIZE 8
#data domain
#LUT data points
DOMAIN_MIN 0.000000 0.000000 0.000000
DOMAIN_MAX 0.903226 0.903226 0.903226
0.000000 0.000000 0.000000
0.036316 0.003937 0.000000
0.142303 0.024536 0.000000
0.322815 0.024414 0.003937
0.508179 0.003937 0.005829
0.688568 0.000000 0.000000
0.843536 0.003937 0.000000
0.985962 0.056183 0.003540
0.000519 0.040741 0.004944
0.021118 0.052490 0.007324
0.163422 0.088287 0.007843
0.339020 0.095642 0.000000
0.524872 0.072601 0.000519
0.701324 0.032867 0.000519
0.854279 0.056671 0.003052
0.975464 0.149017 0.000519
0.000000 0.165833 0.036316
0.004944 0.168243 0.039734
0.114868 0.201141 0.017700
0.351776 0.230988 0.002014
0.551453 0.206055 0.000000
0.709167 0.204041 0.000000
0.859222 0.220734 0.000885
0.983185 0.268555 0.005066
0.000000 0.327637 0.114349
0.002411 0.326233 0.122192
0.033112 0.338898 0.115875
0.297760 0.364441 0.086884
0.547913 0.397339 0.002533
0.729279 0.375183 0.000000
0.865540 0.366852 0.001526
0.983185 0.397461 0.003937
0.000000 0.476685 0.196198
0.000000 0.472870 0.202911
0.051483 0.471863 0.213928
0.271332 0.495514 0.201141
0.472870 0.523865 0.174713
0.705261 0.576233 0.109558
0.854401 0.570160 0.000000
0.978485 0.550323 0.000000
0.001404 0.624420 0.284882
0.007324 0.625305 0.295898
0.151062 0.627350 0.311096
0.304871 0.636688 0.305389
0.463013 0.661743 0.291107
0.637573 0.688568 0.272888
0.825684 0.738647 0.246063
0.944977 0.735626 0.193939
0.175873 0.775085 0.402527
0.218353 0.773834 0.406586
0.294739 0.774841 0.414307
0.399261 0.772949 0.436066
0.503357 0.785583 0.429749
0.636200 0.799011 0.429108
0.759003 0.815186 0.418213
0.901825 0.849335 0.427856
0.470734 0.881226 0.585571
0.480713 0.881592 0.590393
0.524109 0.874512 0.604187
0.562805 0.878174 0.615814
0.626434 0.881592 0.630737
0.696655 0.894379 0.626953
0.774445 0.897278 0.629211
0.861603 0.915741 0.621246
0.003418 0.003937 0.052490
0.044159 0.003937 0.048584
0.149139 0.000000 0.067169
0.333557 0.002411 0.063751
0.522339 0.002014 0.080444
0.701721 0.000519 0.084381
0.852753 0.003052 0.096130
0.975830 0.118530 0.103363
0.000000 0.063751 0.063751
0.036804 0.072601 0.070190
0.180511 0.084381 0.076019
0.351288 0.090210 0.083374
0.539551 0.077545 0.080444
0.700836 0.066772 0.078918
0.853394 0.104614 0.078552
0.982788 0.178741 0.097137
0.000000 0.192780 0.117249
0.000519 0.192261 0.116241
0.147247 0.208984 0.100677
0.377716 0.225677 0.070190
0.555725 0.215820 0.059326
0.717407 0.213898 0.059967
0.858704 0.237183 0.070221
0.980652 0.282990 0.085510
0.000000 0.340393 0.173187
0.000000 0.339020 0.174194
0.123199 0.353577 0.182526
0.317383 0.372772 0.162933
0.558136 0.402252 0.121674
0.733215 0.371887 0.034515
0.868958 0.377716 0.022278
0.978241 0.407562 0.049957
0.000000 0.484650 0.238342
0.003418 0.480713 0.246185
0.151306 0.481750 0.260345
0.306488 0.501862 0.249573
0.491608 0.530182 0.225830
0.713989 0.580780 0.186615
0.855530 0.572052 0.110199
0.976105 0.545990 0.004028
0.000519 0.632782 0.314484
0.035187 0.634155 0.313477
0.206696 0.633789 0.330536
0.333832 0.644928 0.342957
0.484650 0.665161 0.326263
0.646942 0.691589 0.318420
0.829224 0.739532 0.297546
0.939423 0.733734 0.244415
0.227844 0.777374 0.421387
0.263641 0.775970 0.430511
0.331055 0.774323 0.440857
0.418732 0.776855 0.459717
0.517151 0.786713 0.462250
0.642761 0.803284 0.457428
0.771027 0.815186 0.450867
0.907257 0.849731 0.455688
0.480591 0.881104 0.594574
0.499939 0.881226 0.608612
0.528137 0.883759 0.613403
0.577240 0.881226 0.635162
0.634186 0.882477 0.643280
0.695129 0.892212 0.640869
0.773956 0.900818 0.637054
0.865540 0.914734 0.644287
0.001007 0.004944 0.170776
0.036316 0.002533 0.174683
0.176575 0.006836 0.193298
0.317383 0.002899 0.197601
0.516174 0.001892 0.191254
0.701721 0.001526 0.199249
0.846405 0.126373 0.250092
0.973938 0.204803 0.256653
0.005829 0.089294 0.188873
0.008850 0.087799 0.197723
0.187469 0.102966 0.219727
0.344818 0.091705 0.207977
0.541962 0.045654 0.204559
0.708679 0.136017 0.234039
0.857574 0.183044 0.245270
0.975830 0.243378 0.259460
0.002899 0.209991 0.210876
0.002014 0.217834 0.224152
0.217834 0.233521 0.237427
0.399719 0.247192 0.238953
0.568024 0.246307 0.239349
0.723480 0.260101 0.238953
0.855408 0.282593 0.237427
0.975586 0.329407 0.251343
0.004028 0.363434 0.270721
0.145325 0.370758 0.281952
0.232117 0.368866 0.282074
0.376709 0.387451 0.282593
0.580780 0.407074 0.249695
0.740173 0.386078 0.233002
0.869568 0.400360 0.235657
0.976349 0.437042 0.241486
0.182648 0.503235 0.338379
0.194946 0.504242 0.327789
0.259949 0.505280 0.332581
0.370392 0.519440 0.334595
0.529694 0.543457 0.330536
0.725739 0.582825 0.299805
0.860962 0.570923 0.253998
0.980774 0.556763 0.231598
0.209991 0.648956 0.389984
0.222504 0.651733 0.385590
0.298798 0.649353 0.392792
0.394928 0.649353 0.413025
0.512970 0.672363 0.401398
0.666046 0.700317 0.394562
0.834045 0.742584 0.379883
0.943970 0.736633 0.338165
0.307404 0.782806 0.473755
0.335999 0.781677 0.480835
0.385712 0.779755 0.489838
0.467682 0.779266 0.513214
0.552307 0.787476 0.520050
0.658081 0.805328 0.518158
0.772949 0.817078 0.512329
0.912598 0.851868 0.526123
0.510193 0.877686 0.631134
0.519806 0.882721 0.634521
0.551056 0.881226 0.644775
0.599762 0.885773 0.657928
0.651001 0.883636 0.676788
0.713470 0.890961 0.678314
0.785706 0.900818 0.675140
0.869080 0.912598 0.677795
0.000000 0.025940 0.317383
0.003418 0.021240 0.323700
0.181030 0.032898 0.339386
0.377716 0.018707 0.362915
0.511597 0.001892 0.335083
0.676788 0.002411 0.335968
0.847443 0.001526 0.340027
0.980530 0.073273 0.344727
0.000000 0.101562 0.331543
0.005310 0.108917 0.342438
0.201630 0.124084 0.350281
0.389496 0.131561 0.367859
0.523346 0.120667 0.351166
0.693878 0.107117 0.350128
0.857208 0.109161 0.347992
0.980255 0.210663 0.368256
0.001007 0.229095 0.337494
0.000000 0.235931 0.346741
0.212006 0.243774 0.364044
0.409729 0.265381 0.386078
0.552338 0.260956 0.376190
0.716003 0.257538 0.368744
0.866547 0.289703 0.377228
0.971405 0.384430 0.417297
0.004822 0.374695 0.370758
0.051331 0.382141 0.363556
0.265778 0.396820 0.391876
0.456146 0.416931 0.420868
0.606079 0.420868 0.407959
0.744476 0.427185 0.406311
0.869446 0.443512 0.411499
0.969910 0.473877 0.411499
0.194092 0.525238 0.413025
0.257202 0.530182 0.426178
0.376709 0.537140 0.440979
0.461212 0.543457 0.453766
0.578735 0.564606 0.452881
0.742828 0.584717 0.426300
0.866913 0.567505 0.392395
0.967499 0.580658 0.399597
0.363068 0.668579 0.498047
0.397217 0.671478 0.506134
0.424774 0.672882 0.502472
0.477539 0.675415 0.505127
0.566345 0.686157 0.517151
0.693359 0.712097 0.513977
0.843262 0.742065 0.495514
0.945221 0.727905 0.445160
0.445648 0.787109 0.573547
0.455017 0.786987 0.576721
0.471100 0.789001 0.572418
0.524963 0.791016 0.581390
0.595459 0.790649 0.601410
0.681976 0.807739 0.606323
0.784943 0.823914 0.607971
0.906891 0.852631 0.610382
0.560638 0.882477 0.683105
0.567352 0.886658 0.686279
0.583923 0.884766 0.685394
0.623535 0.887177 0.699554
0.670959 0.884521 0.714111
0.725372 0.893982 0.720673
0.793549 0.902344 0.719299
0.873505 0.912354 0.719666
0.000000 0.062866 0.451233
0.000000 0.074127 0.456299
0.163788 0.078552 0.474792
0.390381 0.094238 0.500702
0.572815 0.096283 0.516144
0.680206 0.090454 0.482635
0.816193 0.114868 0.479828
0.953308 0.166473 0.493774
0.003418 0.133331 0.460114
0.004944 0.133453 0.465027
0.186066 0.149658 0.480713
0.408081 0.171661 0.509186
0.585205 0.178131 0.525024
0.690094 0.170776 0.497925
0.819855 0.186615 0.492493
0.958252 0.225952 0.504639
0.000000 0.260986 0.467957
0.007324 0.248169 0.483002
0.214905 0.253113 0.491577
0.422760 0.283997 0.521301
0.601410 0.302216 0.537659
0.708679 0.294861 0.518555
0.836456 0.301208 0.509949
0.962555 0.332703 0.509338
0.001526 0.374695 0.476166
0.004028 0.383911 0.476135
0.235931 0.385590 0.491486
0.434021 0.406586 0.532196
0.619995 0.442871 0.571289
0.727783 0.437561 0.544983
0.855774 0.440979 0.535736
0.965607 0.468048 0.542053
0.108032 0.529816 0.512085
0.193420 0.529694 0.522217
0.323700 0.546387 0.537659
0.470978 0.564972 0.554718
0.631500 0.592560 0.592560
0.746887 0.602417 0.592194
0.862885 0.606232 0.585724
0.954071 0.621521 0.580658
0.308685 0.680847 0.574982
0.348389 0.683105 0.581299
0.434143 0.690582 0.592438
0.551666 0.694000 0.615082
0.630249 0.705780 0.632263
0.721832 0.725891 0.632782
0.842499 0.741577 0.614197
0.948761 0.717407 0.567139
0.477936 0.794556 0.655304
0.498291 0.797852 0.656677
0.547363 0.798370 0.670105
0.599243 0.803284 0.678711
0.641266 0.803284 0.681732
0.710052 0.812012 0.695770
0.804169 0.824799 0.701355
0.912842 0.853271 0.686279
0.622009 0.884766 0.745605
0.629486 0.886658 0.749542
0.636322 0.888062 0.749908
0.657806 0.890076 0.749664
0.693115 0.892609 0.750793
0.747131 0.891327 0.765594
0.806335 0.906281 0.768005
0.881592 0.915497 0.779022
0.000000 0.112335 0.593048
0.000000 0.116760 0.597473
0.157623 0.129425 0.615204
0.390503 0.144867 0.640625
0.601044 0.177734 0.672119
0.749908 0.200897 0.691101
0.831757 0.203308 0.657196
0.936493 0.250366 0.649475
0.002014 0.166870 0.598999
0.002411 0.171661 0.607361
0.183533 0.183563 0.619354
0.399719 0.200623 0.639984
0.605194 0.235565 0.675262
0.757263 0.256317 0.695160
0.836578 0.254150 0.662018
0.938538 0.291962 0.658081
0.000000 0.265411 0.607208
0.001526 0.261993 0.613159
0.214905 0.275635 0.620361
0.419983 0.295746 0.648956
0.614441 0.330688 0.685028
0.760529 0.361023 0.702850
0.837067 0.356232 0.670471
0.935974 0.377747 0.658722
0.003418 0.386566 0.597870
0.010864 0.394287 0.608215
0.260956 0.405670 0.634186
0.425262 0.410095 0.657928
0.616608 0.451355 0.696411
0.756622 0.491058 0.716125
0.838226 0.483734 0.693481
0.929535 0.493469 0.677673
0.002014 0.517395 0.623932
0.089691 0.517395 0.624420
0.257568 0.521332 0.630890
0.414276 0.536499 0.649323
0.603546 0.571808 0.695404
0.760040 0.628235 0.735626
0.834930 0.614563 0.709686
0.934479 0.618988 0.706665
0.212921 0.672882 0.668945
0.266418 0.678314 0.672363
0.363434 0.683258 0.680847
0.488159 0.697418 0.695129
0.626434 0.714630 0.724731
0.759399 0.748779 0.757751
0.845306 0.747375 0.746002
0.925751 0.747772 0.739288
0.416077 0.803802 0.719421
0.439331 0.805206 0.711456
0.496765 0.804810 0.729675
0.587341 0.808746 0.739655
0.685883 0.814697 0.762054
0.744476 0.823792 0.774078
0.824799 0.838226 0.782684
0.913086 0.847809 0.757629
0.588593 0.893372 0.780884
0.601501 0.890961 0.782684
0.635803 0.893738 0.787109
0.684753 0.890442 0.800903
0.734222 0.894867 0.807587
0.769379 0.898804 0.816437
0.819366 0.905640 0.827850
0.887909 0.916260 0.824280
0.003052 0.181671 0.759399
0.001007 0.185577 0.758270
0.209351 0.194427 0.763062
0.421509 0.212158 0.781403
0.606354 0.241638 0.798492
0.767487 0.309692 0.821747
0.873627 0.336761 0.825684
0.938263 0.337769 0.791656
0.001404 0.225311 0.756378
0.004303 0.224152 0.762817
0.229706 0.237579 0.770905
0.428711 0.249329 0.781403
0.612671 0.283630 0.802032
0.771423 0.349030 0.819122
0.880981 0.379150 0.831268
0.936493 0.374573 0.795959
0.002777 0.296387 0.762451
0.000885 0.300446 0.764221
0.241486 0.312836 0.769897
0.441467 0.331299 0.784698
0.616089 0.363068 0.802277
0.771149 0.426819 0.823029
0.871857 0.460358 0.825684
0.930298 0.452484 0.803436
0.001526 0.419983 0.751801
0.124207 0.419220 0.752045
0.235138 0.406067 0.772552
0.435028 0.423279 0.775330
0.611542 0.463501 0.803162
0.765472 0.530670 0.823395
0.862488 0.568115 0.828735
0.922333 0.556854 0.808594
0.004059 0.518921 0.734985
0.000519 0.517914 0.730408
0.205658 0.524994 0.744476
0.417694 0.542450 0.780273
0.587494 0.562958 0.797211
0.750275 0.631134 0.825165
0.851105 0.676941 0.833527
0.913849 0.662140 0.818970
0.000000 0.658966 0.766357
0.091339 0.662628 0.765228
0.245270 0.659576 0.765961
0.390259 0.664795 0.766754
0.538788 0.671478 0.779755
0.723083 0.721313 0.816437
0.848694 0.770905 0.846436
0.912964 0.755737 0.830383
0.309296 0.795593 0.793823
0.345490 0.800385 0.790375
0.416077 0.798370 0.798492
0.522827 0.804321 0.805817
0.627716 0.809875 0.819733
0.742706 0.825684 0.830109
0.853149 0.851379 0.860107
0.919922 0.844910 0.852264
0.533844 0.899933 0.829346
0.546478 0.900330 0.831757
0.585205 0.899811 0.837952
0.642120 0.899933 0.839478
0.712982 0.903229 0.850342
0.789520 0.908173 0.860596
0.840851 0.909058 0.869324
0.910950 0.924347 0.879333
0.193573 0.292603 0.889069
0.256683 0.300079 0.893097
0.374329 0.307526 0.897156
0.516388 0.324738 0.904755
0.654419 0.356995 0.907532
0.786224 0.418488 0.910187
0.891968 0.502228 0.919312
0.964325 0.531067 0.920807
0.207733 0.320557 0.891602
0.269196 0.328156 0.894379
0.381653 0.333710 0.896790
0.522705 0.353577 0.901978
0.655304 0.385345 0.905640
0.784821 0.441498 0.914734
0.890961 0.530060 0.919434
0.962555 0.558624 0.919159
0.212677 0.378357 0.890839
0.269440 0.377991 0.888550
0.382538 0.392273 0.897156
0.520691 0.407471 0.895508
0.656311 0.445679 0.903748
0.781036 0.501068 0.909821
0.886292 0.582916 0.911591
0.952179 0.604034 0.916901
0.214050 0.467682 0.888916
0.250824 0.460571 0.890076
0.360138 0.468048 0.889038
0.508148 0.487274 0.896515
0.647827 0.521057 0.900452
0.773193 0.579895 0.904114
0.881348 0.649078 0.917511
0.941925 0.670074 0.915253
0.149506 0.573944 0.871338
0.219330 0.579010 0.876160
0.352020 0.581146 0.880829
0.467682 0.573700 0.895020
0.615051 0.603424 0.895386
0.760651 0.656067 0.910828
0.866425 0.714111 0.917542
0.934082 0.736267 0.922455
0.000763 0.682495 0.879059
0.004944 0.676788 0.876526
0.152435 0.675018 0.868561
0.362152 0.674896 0.869812
0.566864 0.693634 0.883606
0.725769 0.722473 0.902222
0.855804 0.776337 0.921692
0.933716 0.804321 0.925873
0.233917 0.803925 0.881104
0.270721 0.801392 0.883362
0.343201 0.801514 0.878815
0.444275 0.800018 0.886414
0.541443 0.799896 0.883118
0.653137 0.795959 0.884766
0.822144 0.824921 0.903748
0.925751 0.869324 0.928650
0.460846 0.897278 0.900818
0.477051 0.907410 0.903992
0.515625 0.903748 0.896912
0.572784 0.897675 0.899170
0.651489 0.902863 0.908661
0.739929 0.903748 0.910583
0.831757 0.915253 0.918671
0.932953 0.936493 0.944336
