static/luts/KodakPortra400.cube
#Created by: Adobe Photoshop Export Color Lookup Plugin
#Copyright: (C) Copyright 2022 Tim Martin and Presetpro.com
TITLE "Presetpro - Portra 400.jpg"
#LUT size
LUT_3D_SIZE 32
#data domain
DOMAIN_MIN 0.0 0.0 0.0
DOMAIN_MAX 1.0 1.0 1.0
#LUT data points
0.000000 0.000000 0.000000
0.003784 0.003784 0.003784
0.004181 0.003937 0.000000
0.019623 0.003937 0.000000
0.036316 0.003937 0.000000
0.053497 0.007843 0.000000
0.085388 0.006195 0.000763
0.115479 0.023529 0.003937
0.142303 0.024536 0.000000
0.179871 0.031372 0.000000
0.227173 0.028717 0.000000
0.271088 0.032776 0.000000
0.322815 0.024414 0.003937
0.368988 0.017975 0.000000
0.414520 0.006073 0.000000
0.470062 0.002014 0.000000
0.508179 0.003937 0.005829
0.560181 0.002167 0.000000
0.599640 0.001648 0.000000
0.655182 0.000000 0.000000
0.688568 0.000000 0.000000
0.733612 0.000000 0.000000
0.769135 0.000000 0.000000
0.808746 0.001007 0.000000
0.843536 0.003937 0.000000
0.882477 0.003174 0.003174
0.915131 0.000641 0.003296
0.944092 0.000000 0.000000
0.985962 0.056183 0.003540
0.999756 0.104614 0.000000
1.000000 0.140411 0.000000
1.000000 0.176483 0.000000
0.003784 0.004059 0.003937
0.003784 0.004059 0.003784
0.008209 0.007965 0.000000
0.016449 0.011383 0.003540
0.039978 0.008728 0.000000
0.060455 0.015564 0.000122
0.082611 0.021362 0.000641
0.119659 0.028595 0.003296
0.148376 0.033630 0.000000
0.183289 0.043396 0.001007
0.231110 0.040741 0.000244
0.274994 0.045776 0.000000
0.319153 0.038849 0.000000
0.376068 0.032257 0.002289
0.424011 0.020386 0.003784
0.471954 0.004303 0.005676
0.514130 0.000000 0.003784
0.565735 0.000122 0.000000
0.605316 0.001648 0.005432
0.645813 0.000000 0.000000
0.692474 0.002533 0.003937
0.734863 0.000000 0.000000
0.777252 0.000122 0.002655
0.808868 0.000122 0.001129
0.848328 0.000885 0.000000
0.883362 0.000763 0.006958
0.915009 0.000366 0.004425
0.956757 0.022125 0.003540
0.979370 0.076660 0.000000
0.999878 0.116638 0.000366
0.996063 0.152313 0.000000
1.000000 0.188232 0.000244
0.000000 0.008087 0.000000
0.000122 0.007965 0.000000
0.007843 0.008362 0.000000
0.015930 0.016327 0.007324
0.039978 0.020355 0.000000
0.065002 0.021362 0.000000
0.084625 0.033386 0.000519
0.117645 0.042755 0.003296
0.146973 0.049072 0.000000
0.182648 0.052887 0.000000
0.232605 0.053009 0.003784
0.283997 0.056793 0.005066
0.326996 0.053253 0.000244
0.378723 0.046173 0.000000
0.424133 0.042114 0.002167
0.470184 0.026306 0.000244
0.519928 0.008362 0.000000
0.563965 0.000000 0.000000
0.606079 0.000244 0.000000
0.657562 0.000000 0.002411
0.692993 0.002289 0.003052
0.736755 0.000000 0.000244
0.775604 0.000244 0.000244
0.811127 0.002655 0.003662
0.845673 0.000000 0.000244
0.879333 0.000000 0.000000
0.912323 0.015045 0.000519
0.954590 0.056549 0.013672
0.978119 0.097290 0.000000
0.999756 0.132568 0.000244
0.999481 0.164459 0.000000
1.000000 0.192657 0.001007
0.000000 0.020355 0.003540
0.000000 0.020355 0.003540
0.003937 0.024292 0.000366
0.011780 0.020752 0.000763
0.029358 0.033508 0.000763
0.057312 0.047699 0.000641
0.088928 0.056427 0.003174
0.123596 0.059967 0.000000
0.154816 0.065521 0.002899
0.190765 0.074890 0.000000
0.234894 0.075256 0.002655
0.288300 0.075256 0.002533
0.329529 0.075256 0.003174
0.384033 0.068817 0.001251
0.428436 0.066040 0.002533
0.480072 0.054138 0.000366
0.521606 0.039093 0.001892
0.569794 0.023254 0.001770
0.605591 0.009491 0.001648
0.657562 0.001526 0.003540
0.694641 0.000366 0.000366
0.737152 0.000000 0.000000
0.776733 0.000366 0.002411
0.809113 0.001404 0.000000
0.848328 0.002655 0.000000
0.886414 0.027069 0.002777
0.915131 0.058197 0.003540
0.951416 0.089813 0.003418
0.978882 0.121185 0.003540
1.000000 0.152313 0.000641
0.996216 0.180634 0.000000
1.000000 0.201904 0.000000
0.000519 0.040741 0.004944
0.000366 0.040863 0.003937
0.000244 0.041504 0.004181
0.011627 0.041626 0.008209
0.021118 0.052490 0.007324
0.056427 0.060974 0.003418
0.084869 0.073120 0.000000
0.123718 0.081726 0.001007
0.163422 0.088287 0.007843
0.202271 0.088928 0.000000
0.246552 0.092987 0.000519
0.291565 0.096527 0.003418
0.339020 0.095642 0.000000
0.390228 0.091705 0.000000
0.432373 0.087036 0.002655
0.479919 0.082489 0.000519
0.524872 0.072601 0.000519
0.571564 0.063110 0.000519
0.611389 0.056152 0.006195
0.656677 0.045654 0.001526
0.701324 0.032867 0.000519
0.738800 0.031494 0.002167
0.777496 0.033142 0.001129
0.815063 0.038330 0.002411
0.854279 0.056671 0.003052
0.887421 0.074524 0.002655
0.919159 0.098175 0.000000
0.946106 0.119171 0.004425
0.975464 0.149017 0.000519
0.995575 0.173553 0.000000
0.998871 0.196594 0.000000
1.000000 0.225555 0.000000
0.010498 0.067932 0.015045
0.000000 0.065277 0.011780
0.000000 0.065277 0.011780
0.000000 0.069183 0.005829
0.019867 0.070343 0.012146
0.043762 0.080963 0.011139
0.073120 0.092987 0.003937
0.112701 0.106262 0.003662
0.169006 0.112335 0.002899
0.204163 0.116882 0.000000
0.257294 0.119537 0.006592
0.301575 0.119537 0.002533
0.348480 0.121704 0.000885
0.397064 0.119934 0.003296
0.440857 0.115112 0.000641
0.489166 0.109802 0.001892
0.526520 0.109039 0.000000
0.577881 0.097504 0.001251
0.617584 0.096008 0.004944
0.660614 0.089417 0.001526
0.707397 0.085510 0.003937
0.742065 0.084869 0.001251
0.778625 0.088928 0.000000
0.817841 0.092346 0.000000
0.851379 0.106384 0.004791
0.889191 0.122589 0.002014
0.917786 0.135223 0.000000
0.950287 0.151306 0.002777
0.975952 0.177216 0.007080
0.992279 0.197479 0.000641
0.996704 0.221130 0.009613
1.000000 0.241730 0.000000
0.003174 0.097137 0.016449
0.003784 0.097778 0.017090
0.000000 0.097137 0.013275
0.000366 0.100677 0.016815
0.003662 0.104980 0.019623
0.030121 0.109680 0.018219
0.061096 0.116760 0.007843
0.102570 0.128143 0.002533
0.156097 0.142303 0.002258
0.204926 0.149261 0.000000
0.257050 0.155457 0.004181
0.305603 0.152679 0.000000
0.351013 0.152802 0.000000
0.404297 0.147247 0.002289
0.443481 0.144196 0.005188
0.495361 0.139526 0.008362
0.537537 0.142944 0.008972
0.584076 0.131805 0.002533
0.620117 0.133209 0.000000
0.665283 0.132446 0.000000
0.706787 0.126129 0.003540
0.745880 0.131287 0.001251
0.778107 0.133972 0.004303
0.815308 0.140045 0.002167
0.857574 0.144836 0.004547
0.894257 0.152802 0.002411
0.923462 0.171143 0.001251
0.944092 0.190521 0.000000
0.975708 0.205048 0.000763
0.996582 0.221619 0.001251
0.999237 0.242004 0.000763
1.000000 0.266541 0.003174
0.000885 0.129913 0.023132
0.000885 0.132935 0.026184
0.000885 0.132935 0.026184
0.001251 0.129517 0.032257
0.000885 0.130280 0.029724
0.007599 0.140533 0.023285
0.044006 0.144714 0.016693
0.089813 0.149506 0.016571
0.138763 0.165466 0.002136
0.197449 0.180878 0.000000
0.254639 0.185181 0.000885
0.303345 0.188721 0.000000
0.361786 0.185699 0.000641
0.408966 0.180878 0.000000
0.447662 0.176971 0.000885
0.500427 0.177094 0.003937
0.545227 0.177094 0.003052
0.590271 0.170013 0.000000
0.629364 0.168243 0.003418
0.673889 0.166718 0.005432
0.709045 0.167725 0.003052
0.748383 0.169495 0.000000
0.783691 0.171143 0.000000
0.822540 0.175079 0.004059
0.851379 0.183044 0.000885
0.891846 0.194183 0.003052
0.925385 0.205566 0.000000
0.950653 0.216187 0.000000
0.979645 0.231110 0.003052
0.997223 0.249207 0.000000
0.993164 0.272736 0.002899
0.999115 0.289825 0.000000
0.000000 0.165833 0.036316
0.003937 0.169769 0.040222
0.002899 0.168732 0.039215
0.003296 0.169128 0.039581
0.004944 0.168243 0.039734
0.000366 0.174316 0.041229
0.007446 0.182281 0.033630
0.062103 0.184418 0.022522
0.114868 0.201141 0.017700
0.174683 0.204407 0.006714
0.243134 0.223267 0.001007
0.298920 0.231873 0.000000
0.351776 0.230988 0.002014
0.406311 0.226044 0.002289
0.458435 0.219971 0.000763
0.506378 0.210999 0.000000
0.551453 0.206055 0.000000
0.594177 0.202911 0.000000
0.634308 0.205048 0.002899
0.679840 0.204041 0.001526
0.709167 0.204041 0.000000
0.749542 0.206696 0.000000
0.791534 0.208984 0.002899
0.825439 0.212891 0.000000
0.859222 0.220734 0.000885
0.892090 0.229980 0.000000
0.920319 0.239716 0.000000
0.955353 0.251099 0.000000
0.983185 0.268555 0.005066
0.996826 0.277283 0.000000
1.000000 0.297638 0.002014
0.998993 0.317780 0.001007
0.000000 0.205688 0.052124
0.000000 0.206818 0.053253
0.000000 0.205933 0.052368
0.000366 0.202911 0.055511
0.000519 0.206177 0.064392
0.004425 0.207458 0.057159
0.001129 0.218597 0.050079
0.033905 0.222260 0.040710
0.094727 0.236938 0.040985
0.157501 0.237061 0.025787
0.214905 0.246399 0.007202
0.296509 0.265015 0.003662
0.353302 0.272339 0.000366
0.405914 0.272339 0.001648
0.457672 0.265137 0.002899
0.506622 0.261719 0.000000
0.555481 0.248047 0.000000
0.598267 0.240356 0.000000
0.642273 0.242126 0.002289
0.682495 0.235931 0.000000
0.717407 0.242371 0.002533
0.754730 0.243774 0.000000
0.789246 0.246552 0.000000
0.832397 0.249969 0.001129
0.859314 0.254639 0.000885
0.895386 0.263733 0.000000
0.927399 0.274506 0.001129
0.954834 0.284760 0.000000
0.984314 0.293091 0.001892
0.998596 0.310181 0.000000
0.997742 0.328644 0.002655
1.000000 0.344574 0.000000
0.000000 0.241608 0.066681
0.000000 0.245514 0.070831
0.000000 0.245514 0.073120
0.000000 0.245514 0.074005
0.007599 0.242371 0.080444
0.000000 0.251465 0.077667
0.011383 0.250214 0.080963
0.007477 0.257812 0.072083
0.077148 0.265900 0.072601
0.139008 0.269196 0.056549
0.202393 0.280823 0.039093
0.264893 0.291321 0.026062
0.339905 0.310944 0.005035
0.402374 0.315735 0.000000
0.455658 0.312195 0.000000
0.508270 0.306244 0.000000
0.552094 0.299805 0.000000
0.603821 0.293854 0.001251
0.642761 0.283966 0.000000
0.688049 0.276886 0.000000
0.718536 0.279572 0.001404
0.755859 0.279572 0.000000
0.796967 0.282349 0.000000
0.835419 0.286407 0.001251
0.858704 0.295258 0.003540
0.898285 0.297760 0.002014
0.928772 0.310303 0.005310
0.954468 0.321167 0.001251
0.981903 0.330170 0.000000
1.000000 0.339661 0.000000
0.999878 0.356354 0.000000
1.000000 0.369751 0.005310
0.002533 0.285370 0.086517
0.005066 0.289307 0.090454
0.000000 0.286774 0.093475
0.000000 0.285370 0.095764
0.001770 0.287018 0.102203
0.005066 0.286774 0.102203
0.000000 0.289307 0.098907
0.000000 0.296631 0.096649
0.054016 0.300690 0.091461
0.122559 0.308655 0.080566
0.182770 0.314087 0.072357
0.244781 0.322052 0.066925
0.313324 0.328644 0.053253
0.384552 0.346985 0.026184
0.446899 0.359894 0.002777
0.503082 0.357361 0.001892
0.552460 0.348877 0.003174
0.599152 0.343445 0.000763
0.646210 0.338257 0.000000
0.683777 0.328888 0.000000
0.723846 0.320923 0.000000
0.762329 0.315491 0.000000
0.799377 0.319275 0.001129
0.838959 0.325104 0.002777
0.866791 0.328766 0.000000
0.898926 0.336365 0.000000
0.926270 0.346222 0.003296
0.949402 0.354584 0.003052
0.981018 0.365204 0.002167
0.999756 0.376465 0.002777
0.999878 0.387207 0.001404
0.998596 0.400238 0.000000
0.000000 0.327637 0.114349
0.001526 0.321289 0.111938
0.001526 0.321289 0.111938
0.001526 0.321289 0.112701
0.002411 0.326233 0.122192
0.000000 0.325226 0.122192
0.000000 0.325989 0.122955
0.000000 0.331543 0.118256
0.033112 0.338898 0.115875
0.113464 0.342926 0.112457
0.175964 0.351288 0.101685
0.235535 0.355072 0.093719
0.297760 0.364441 0.086884
0.359131 0.372406 0.072235
0.430969 0.388458 0.042999
0.497131 0.402130 0.016174
0.547913 0.397339 0.002533
0.596375 0.396698 0.007202
0.641266 0.390228 0.000000
0.684418 0.384674 0.000000
0.729279 0.375183 0.000000
0.762329 0.365051 0.000000
0.800903 0.362030 0.002777
0.839111 0.360504 0.001007
0.865540 0.366852 0.001526
0.896667 0.373932 0.000000
0.929047 0.380127 0.004547
0.958130 0.391388 0.003815
0.983185 0.397461 0.003937
0.999756 0.407318 0.003662
0.999878 0.422272 0.002289
0.992767 0.435028 0.000000
0.000000 0.363434 0.130402
0.000244 0.363556 0.130554
0.001648 0.361786 0.133698
0.005188 0.360779 0.134949
0.002289 0.361664 0.142822
0.002289 0.364441 0.146362
0.003296 0.364441 0.151672
0.000885 0.362030 0.145203
0.025146 0.368347 0.141541
0.109406 0.381409 0.141052
0.171265 0.386963 0.134979
0.232758 0.388977 0.121185
0.279694 0.398071 0.120544
0.339905 0.404297 0.105255
0.401489 0.404419 0.094879
0.472076 0.426666 0.077667
0.543091 0.443756 0.055756
0.590637 0.441345 0.015411
0.635925 0.443878 0.000000
0.678558 0.434906 0.000763
0.726135 0.430450 0.001648
0.761932 0.423248 0.000000
0.799377 0.418182 0.006073
0.830627 0.409576 0.003937
0.870453 0.405914 0.000885
0.900452 0.409088 0.001648
0.929169 0.417694 0.003296
0.957642 0.425171 0.002289
0.981262 0.430084 0.000366
0.997467 0.441620 0.000000
0.999878 0.453247 0.003784
0.995453 0.463745 0.003296
0.000000 0.399231 0.154327
0.000000 0.399231 0.154327
0.000000 0.401001 0.154327
0.001770 0.401001 0.156097
0.000000 0.402252 0.163422
0.004547 0.401611 0.167969
0.003174 0.401001 0.173920
0.000000 0.400604 0.168243
0.018951 0.408081 0.164185
0.101959 0.413666 0.167999
0.166473 0.417450 0.164307
0.224274 0.420593 0.152191
0.276001 0.433624 0.154816
0.333557 0.437927 0.144836
0.389221 0.442352 0.132568
0.445007 0.451965 0.122559
0.517059 0.468842 0.099426
0.585846 0.489044 0.085724
0.631531 0.486755 0.045990
0.679352 0.483978 0.015656
0.718536 0.481964 0.000000
0.758392 0.480316 0.000000
0.794312 0.473480 0.002777
0.829498 0.465515 0.003174
0.867432 0.456390 0.000000
0.900452 0.454742 0.001770
0.927521 0.455261 0.001770
0.959381 0.461456 0.001648
0.982788 0.469055 0.000000
0.997986 0.473480 0.000000
0.994446 0.487396 0.003784
0.998230 0.495117 0.001770
0.001892 0.435028 0.174438
0.001892 0.435028 0.178223
0.000000 0.438934 0.180267
0.001892 0.435028 0.178223
0.000000 0.438446 0.185425
0.004547 0.437683 0.184692
0.003784 0.434143 0.189484
0.000000 0.435028 0.193909
0.028687 0.438934 0.192139
0.112946 0.446777 0.194427
0.170258 0.451965 0.187469
0.224396 0.458557 0.181641
0.276123 0.463867 0.177704
0.327118 0.466278 0.169006
0.379242 0.472229 0.158997
0.432983 0.480072 0.150635
0.490723 0.486267 0.142670
0.556915 0.504639 0.127106
0.620392 0.529388 0.105713
0.668457 0.532928 0.078400
0.714874 0.532288 0.043213
0.756378 0.528259 0.013245
0.792419 0.527374 0.000000
0.826324 0.523193 0.000000
0.856171 0.519135 0.000000
0.892487 0.510162 0.000000
0.927032 0.502686 0.001892
0.954987 0.497650 0.002014
0.983185 0.503204 0.001892
0.995819 0.509277 0.000000
0.998108 0.517242 0.005829
1.000000 0.525208 0.002014
0.000000 0.476685 0.196198
0.001892 0.472870 0.194305
0.000000 0.474792 0.200500
0.000000 0.476807 0.206085
0.000000 0.472870 0.202911
0.004059 0.474792 0.211121
0.003937 0.470978 0.219879
0.004944 0.471985 0.220886
0.051483 0.471863 0.213928
0.125732 0.478943 0.213928
0.175079 0.483887 0.211395
0.229340 0.493866 0.212769
0.271332 0.495514 0.201141
0.325226 0.504242 0.202026
0.377197 0.508179 0.194305
0.425415 0.515900 0.188507
0.472870 0.523865 0.174713
0.532715 0.533997 0.162689
0.594818 0.544495 0.147003
0.663269 0.570038 0.145630
0.705261 0.576233 0.109558
0.746490 0.576874 0.085266
0.784821 0.574860 0.039490
0.821503 0.576874 0.015198
0.854401 0.570160 0.000000
0.888306 0.565857 0.000000
0.917633 0.560547 0.001892
0.944580 0.555359 0.000000
0.978485 0.550323 0.000000
0.995056 0.545502 0.000000
1.000000 0.551178 0.000122
1.000000 0.555237 0.005676
0.000000 0.508820 0.218231
0.000122 0.508942 0.218353
0.001770 0.514893 0.222137
0.000000 0.514496 0.223541
0.002167 0.506653 0.222534
0.003937 0.510590 0.231262
0.000000 0.508820 0.233917
0.010498 0.505768 0.237823
0.075012 0.509949 0.236542
0.137360 0.511719 0.241760
0.185333 0.519684 0.241760
0.235779 0.524506 0.232513
0.279053 0.527771 0.232880
0.325226 0.537903 0.224426
0.373535 0.541962 0.226471
0.419220 0.548157 0.207245
0.464905 0.559937 0.201172
0.520569 0.563721 0.198608
0.574707 0.576111 0.188629
0.627441 0.584076 0.177887
0.696411 0.614685 0.166870
0.742706 0.622040 0.145111
0.778625 0.622528 0.114136
0.813416 0.624695 0.089966
0.845306 0.618622 0.062012
0.879333 0.616852 0.019501
0.911957 0.610260 0.002167
0.944336 0.608887 0.000000
0.965729 0.603302 0.002167
0.988861 0.595978 0.000000
0.999878 0.591553 0.007599
0.996063 0.589783 0.001770
0.000000 0.544739 0.242126
0.002411 0.544861 0.242249
0.004547 0.547028 0.244415
0.004944 0.549927 0.245667
0.006836 0.545380 0.247711
0.001648 0.546387 0.243774
0.001526 0.548645 0.250732
0.026306 0.548889 0.256805
0.104492 0.545380 0.265015
0.157623 0.547516 0.264008
0.197601 0.552582 0.263397
0.241241 0.559021 0.259857
0.282837 0.565094 0.249115
0.328766 0.572174 0.252258
0.370789 0.579529 0.248962
0.416046 0.583801 0.241272
0.467316 0.586243 0.233276
0.518158 0.603180 0.227844
0.562714 0.609772 0.220886
0.611267 0.619232 0.216827
0.664642 0.627594 0.205200
0.723602 0.650116 0.198242
0.775330 0.664032 0.175079
0.813293 0.666290 0.150665
0.839844 0.666290 0.132324
0.871490 0.663788 0.108948
0.904633 0.659729 0.080231
0.929047 0.656830 0.057098
0.957367 0.650604 0.024445
0.986084 0.648712 0.000000
0.999756 0.642761 0.001526
1.000000 0.638855 0.004547
0.003021 0.582184 0.266052
0.001648 0.580780 0.264648
0.002411 0.586090 0.268463
0.002411 0.586090 0.269958
0.002411 0.588013 0.268066
0.003021 0.589386 0.274780
0.004547 0.585480 0.271484
0.066162 0.585480 0.280212
0.120178 0.587616 0.281860
0.176727 0.587219 0.284760
0.213531 0.591278 0.280212
0.258820 0.595093 0.287048
0.292328 0.603302 0.278442
0.333710 0.609741 0.277802
0.374420 0.615326 0.273010
0.414917 0.623291 0.271362
0.464539 0.625305 0.264648
0.512482 0.632904 0.259979
0.558777 0.640991 0.254517
0.602661 0.647339 0.242523
0.647064 0.655304 0.239868
0.696411 0.663757 0.230743
0.752563 0.688812 0.225189
0.798096 0.707672 0.210144
0.830872 0.707031 0.191803
0.865143 0.702240 0.171448
0.895508 0.699829 0.154480
0.922089 0.700836 0.138428
0.948273 0.697937 0.123230
0.975952 0.692871 0.096802
0.993408 0.690460 0.065063
1.000000 0.684143 0.040924
0.001404 0.624420 0.284882
0.003937 0.626953 0.287415
0.002289 0.625305 0.286285
0.002899 0.627960 0.292480
0.007324 0.625305 0.295898
0.001251 0.625824 0.295258
0.022644 0.625183 0.295654
0.093353 0.627838 0.298920
0.151062 0.627350 0.311096
0.196442 0.623047 0.308411
0.232269 0.627075 0.305756
0.269440 0.630890 0.302856
0.304871 0.636688 0.305389
0.346344 0.641510 0.305786
0.383789 0.646576 0.299957
0.421875 0.655792 0.291870
0.463013 0.661743 0.291107
0.506287 0.671112 0.289581
0.548645 0.675171 0.282104
0.597748 0.685669 0.282104
0.637573 0.688568 0.272888
0.684021 0.698944 0.267426
0.728149 0.703369 0.255798
0.778503 0.718170 0.256165
0.825684 0.738647 0.246063
0.861115 0.743469 0.238098
0.889069 0.739532 0.219757
0.917511 0.739532 0.206482
0.944977 0.735626 0.193939
0.966736 0.728027 0.176239
0.991638 0.730316 0.164093
0.997467 0.730316 0.150818
0.002655 0.664276 0.313995
0.003784 0.665649 0.315247
0.001251 0.668182 0.317780
0.003937 0.665527 0.317780
0.000000 0.667816 0.319946
0.014282 0.668823 0.315765
0.086151 0.664276 0.319672
0.136627 0.667816 0.319427
0.182678 0.665283 0.330811
0.219482 0.666046 0.327148
0.254913 0.665405 0.333344
0.286774 0.668182 0.338806
0.324219 0.670868 0.330933
0.355347 0.680573 0.333466
0.392273 0.684753 0.329559
0.429077 0.694885 0.327148
0.470215 0.693756 0.323730
0.514008 0.700836 0.319031
0.548645 0.708282 0.316650
0.589752 0.709930 0.313995
0.629608 0.720306 0.312592
0.673370 0.724365 0.303345
0.713623 0.731079 0.294128
0.750427 0.737640 0.293732
0.800140 0.754211 0.293488
0.852386 0.769775 0.293518
0.884369 0.773956 0.278076
0.912720 0.771423 0.266174
0.933838 0.772675 0.254272
0.962311 0.768005 0.239990
0.989380 0.766357 0.228119
1.000000 0.766113 0.218628
0.002777 0.706909 0.344482
0.001129 0.705261 0.342834
0.003052 0.701599 0.341949
0.009491 0.706909 0.342072
0.052155 0.707550 0.341064
0.107788 0.702484 0.348511
0.146118 0.705261 0.352692
0.180023 0.702087 0.347382
0.211121 0.708038 0.358002
0.244263 0.702484 0.357361
0.280945 0.704987 0.360657
0.308014 0.705261 0.362427
0.339661 0.709320 0.363708
0.371796 0.714233 0.359650
0.404907 0.718781 0.357361
0.441742 0.723724 0.362946
0.478333 0.728912 0.357361
0.514496 0.736633 0.352570
0.548645 0.737762 0.347900
0.584198 0.746490 0.346893
0.625580 0.748138 0.344482
0.665405 0.756104 0.340820
0.708038 0.759033 0.341064
0.743958 0.762573 0.327789
0.778259 0.768250 0.330444
0.823517 0.781677 0.328400
0.873749 0.797729 0.331696
0.900452 0.800507 0.325256
0.922333 0.800507 0.311951
0.954193 0.800507 0.299316
0.978363 0.802155 0.291351
0.997223 0.799377 0.287811
0.062164 0.743958 0.366608
0.078094 0.740936 0.368500
0.099579 0.740051 0.363831
0.125885 0.739655 0.371429
0.147766 0.737122 0.371033
0.176483 0.739166 0.378998
0.193054 0.743225 0.378113
0.227844 0.737122 0.376221
0.257812 0.740936 0.384186
0.284515 0.737122 0.383423
0.306000 0.739807 0.392395
0.335846 0.741180 0.397095
0.367615 0.739655 0.402161
0.398590 0.744965 0.392944
0.425415 0.747894 0.389740
0.459595 0.754730 0.393921
0.484375 0.756744 0.392914
0.520569 0.762817 0.391022
0.559418 0.766235 0.390656
0.593445 0.774323 0.386597
0.628357 0.778137 0.388641
0.666168 0.780029 0.375580
0.700195 0.785065 0.376221
0.731323 0.788116 0.381165
0.768005 0.791290 0.374329
0.802155 0.799133 0.364838
0.844025 0.809479 0.371796
0.887299 0.821503 0.374847
0.917908 0.825043 0.372955
0.949005 0.825439 0.360809
0.972046 0.827332 0.352692
0.993164 0.832275 0.353699
0.175873 0.775085 0.402527
0.182434 0.773834 0.404297
0.192566 0.771027 0.403687
0.206329 0.771149 0.407715
0.218353 0.773834 0.406586
0.238220 0.775970 0.405182
0.251740 0.774323 0.404938
0.281860 0.771667 0.416077
0.294739 0.774841 0.414307
0.323334 0.775970 0.420258
0.350159 0.771667 0.433044
0.370636 0.772949 0.436432
0.399261 0.772949 0.436066
0.427185 0.778503 0.430115
0.449707 0.779907 0.427460
0.478424 0.782532 0.427582
0.503357 0.785583 0.429749
0.536255 0.787750 0.430878
0.570557 0.794830 0.433807
0.597870 0.792542 0.429993
0.636200 0.799011 0.429108
0.665924 0.807465 0.429626
0.697662 0.805206 0.422394
0.732971 0.813049 0.421265
0.759003 0.815186 0.418213
0.793182 0.820129 0.414948
0.829742 0.822021 0.413422
0.863373 0.834290 0.415192
0.901825 0.849335 0.427856
0.938263 0.852509 0.427856
0.965851 0.853882 0.416595
0.985199 0.858337 0.410370
0.258331 0.798492 0.435425
0.263885 0.801788 0.439484
0.271851 0.805328 0.443268
0.278687 0.804810 0.446442
0.291992 0.800903 0.439362
0.304382 0.801514 0.443909
0.315521 0.804810 0.450348
0.333832 0.803925 0.455048
0.348907 0.804810 0.456818
0.366364 0.803680 0.466034
0.391388 0.797852 0.467316
0.413147 0.804047 0.468201
0.437714 0.800140 0.474640
0.457550 0.807220 0.480103
0.478943 0.806335 0.471466
0.505005 0.810242 0.474396
0.530182 0.812286 0.475403
0.558777 0.814545 0.474274
0.579407 0.818726 0.472260
0.609619 0.821259 0.468323
0.636444 0.826965 0.471344
0.667053 0.828339 0.467316
0.697784 0.828339 0.470337
0.733215 0.839600 0.473633
0.760284 0.839233 0.465027
0.785217 0.840118 0.458954
0.821136 0.844147 0.466034
0.853394 0.851624 0.464539
0.881592 0.859711 0.464905
0.921570 0.873260 0.477051
0.950775 0.876923 0.480347
0.974060 0.880829 0.473877
0.331573 0.830109 0.478577
0.334991 0.833527 0.483246
0.342712 0.832764 0.486420
0.344360 0.832397 0.487030
0.356354 0.829468 0.481079
0.363586 0.830109 0.483765
0.369507 0.833527 0.489075
0.391022 0.834930 0.494873
0.405823 0.830109 0.492615
0.422394 0.829468 0.502106
0.443909 0.831512 0.509949
0.460480 0.828094 0.516632
0.475525 0.829102 0.519562
0.499176 0.827209 0.527649
0.518280 0.830109 0.524475
0.541809 0.832001 0.521576
0.555115 0.837311 0.523590
0.581024 0.837952 0.523224
0.606232 0.843536 0.528900
0.631012 0.843658 0.525879
0.652008 0.849854 0.519043
0.678558 0.851746 0.518402
0.705750 0.855286 0.521698
0.734467 0.859833 0.524994
0.761169 0.863647 0.520447
0.788361 0.864655 0.513214
0.810516 0.864777 0.517151
0.838959 0.872620 0.513367
0.870087 0.869324 0.512329
0.898682 0.876923 0.513214
0.934204 0.889313 0.532593
0.968628 0.900696 0.544586
0.407227 0.853394 0.537628
0.410645 0.856812 0.540802
0.411652 0.857300 0.534729
0.415070 0.853394 0.535736
0.420502 0.856812 0.544464
0.427338 0.856812 0.537384
0.435425 0.858063 0.543335
0.449219 0.856812 0.553192
0.467041 0.852875 0.549408
0.472748 0.857300 0.554474
0.489685 0.857300 0.558014
0.505615 0.857300 0.564087
0.523987 0.851990 0.568634
0.539642 0.857178 0.576721
0.550537 0.858948 0.576752
