static/luts/KodakGold200.cube
#Created by: Adobe Photoshop Export Color Lookup Plugin
#Copyright: (C) Copyright 2022 Tim Martin and Presetpro.com
TITLE "Presetpro - Gold 200.jpg"
#LUT size
LUT_3D_SIZE 32
#data domain
DOMAIN_MIN 0.0 0.0 0.0
DOMAIN_MAX 1.0 1.0 1.0
#LUT data points
0.000000 0.000000 0.000000
0.004303 0.000000 0.000000
0.023773 0.000244 0.000244
0.035309 0.003937 0.003937
0.036316 0.000519 0.001007
0.043152 0.010498 0.011139
0.052490 0.005432 0.013275
0.067566 0.010895 0.011780
0.094238 0.003937 0.010742
0.137360 0.002777 0.014557
0.189240 0.001251 0.014282
0.255402 0.002533 0.019348
0.320404 0.001526 0.023529
0.379486 0.002289 0.020233
0.453369 0.000000 0.019989
0.521027 0.001892 0.017578
0.580933 0.000000 0.013672
0.636841 0.000000 0.015686
0.688202 0.000000 0.015686
0.742340 0.001526 0.011780
0.796967 0.002533 0.011780
0.839478 0.000000 0.017090
0.877808 0.000000 0.024658
0.908661 0.002899 0.025421
0.944611 0.003052 0.037445
0.985199 0.000763 0.056549
0.996063 0.000000 0.072601
1.000000 0.000000 0.093109
0.996460 0.000366 0.113739
0.999237 0.062866 0.147003
0.984833 0.171173 0.164703
1.000000 0.231384 0.207855
0.003937 0.003937 0.003937
0.012024 0.007721 0.000000
0.024048 0.000366 0.000122
0.035431 0.004059 0.003540
0.043274 0.004059 0.000122
0.044006 0.004669 0.000641
0.057037 0.008484 0.008362
0.083252 0.011139 0.011902
0.100555 0.010010 0.009094
0.150665 0.002899 0.020477
0.201385 0.000000 0.014557
0.268433 0.001251 0.017212
0.324951 0.000000 0.018463
0.391235 0.001648 0.015686
0.455750 0.002167 0.017700
0.522797 0.000000 0.017456
0.582825 0.003784 0.009857
0.642273 0.001770 0.017212
0.688446 0.002167 0.009857
0.742584 0.001526 0.011780
0.797119 0.002411 0.008850
0.839600 0.000000 0.011780
0.877930 0.003784 0.008972
0.910828 0.002777 0.017334
0.948395 0.002899 0.029358
0.984436 0.003174 0.041626
0.996063 0.000641 0.061493
1.000000 0.000519 0.085266
0.999634 0.000122 0.119415
0.999237 0.081726 0.139801
1.000000 0.179138 0.171539
1.000000 0.243378 0.192017
0.004425 0.011780 0.000763
0.012146 0.011627 0.004547
0.024048 0.008362 0.000763
0.031616 0.011902 0.000763
0.032898 0.011780 0.000244
0.044647 0.012787 0.000641
0.061096 0.015686 0.008087
0.080963 0.018738 0.007324
0.111450 0.015686 0.002777
0.153290 0.003052 0.017975
0.205292 0.002899 0.005432
0.274384 0.001129 0.011261
0.333954 0.005066 0.017853
0.400482 0.000000 0.013397
0.465759 0.000244 0.012024
0.526978 0.002289 0.015045
0.589020 0.000000 0.009735
0.646820 0.000000 0.005554
0.698578 0.002289 0.006195
0.750671 0.003021 0.005676
0.794952 0.003937 0.000000
0.839478 0.002655 0.003662
0.881744 0.000244 0.008484
0.917786 0.000244 0.004669
0.946228 0.000244 0.016327
0.984955 0.000244 0.032501
0.996063 0.000885 0.059723
0.999481 0.003418 0.077911
0.996216 0.000763 0.101715
0.999756 0.102356 0.139648
0.992920 0.183929 0.159760
1.000000 0.247070 0.203430
0.007843 0.016449 0.012512
0.015686 0.016449 0.015808
0.023529 0.019989 0.012146
0.023895 0.019989 0.011383
0.031494 0.020477 0.000885
0.044006 0.024658 0.000000
0.065002 0.021515 0.000366
0.095764 0.026947 0.000000
0.123840 0.019745 0.001404
0.171906 0.013031 0.009491
0.226044 0.002655 0.011383
0.283966 0.000366 0.004944
0.345062 0.002777 0.011383
0.410858 0.000000 0.008728
0.475128 0.001770 0.006714
0.534454 0.007080 0.007080
0.594727 0.000000 0.002014
0.652527 0.000366 0.000000
0.701965 0.002014 0.000000
0.754486 0.003540 0.004822
0.802673 0.003540 0.001404
0.844299 0.001648 0.000000
0.884521 0.001892 0.003174
0.921448 0.003937 0.001007
0.954224 0.000000 0.005310
0.984070 0.000000 0.016968
0.999237 0.000366 0.035919
0.996063 0.000519 0.070862
0.989380 0.014557 0.089447
1.000000 0.122711 0.138519
0.999634 0.196198 0.145355
1.000000 0.255646 0.191406
0.010742 0.028961 0.024048
0.011261 0.029480 0.023529
0.012268 0.032379 0.016693
0.022522 0.032898 0.019104
0.026947 0.040741 0.012787
0.043884 0.044525 0.011505
0.062347 0.044647 0.001007
0.098419 0.041748 0.003418
0.140411 0.039734 0.000000
0.192657 0.026184 0.000641
0.243744 0.011658 0.000519
0.303955 0.000885 0.000000
0.366058 0.000000 0.002014
0.423126 0.000000 0.000000
0.489166 0.001251 0.004669
0.545715 0.003418 0.000000
0.605835 0.003784 0.002533
0.660492 0.000519 0.003937
0.712219 0.002136 0.002136
0.761932 0.000000 0.003815
0.803284 0.001892 0.005432
0.848694 0.000519 0.000000
0.887787 0.000000 0.002777
0.923981 0.002411 0.001007
0.960297 0.000519 0.000519
0.992554 0.000000 0.000519
1.000000 0.001129 0.020630
0.996063 0.002899 0.045532
0.996582 0.041992 0.078949
0.996826 0.147766 0.119049
0.999481 0.211761 0.140411
1.000000 0.266663 0.169128
0.000000 0.049591 0.031372
0.003296 0.055664 0.027832
0.007202 0.053497 0.027466
0.006958 0.053253 0.019989
0.007721 0.057556 0.016327
0.023529 0.063995 0.018982
0.056549 0.065521 0.011627
0.098541 0.073730 0.006714
0.149261 0.063995 0.000763
0.206940 0.055267 0.000000
0.264374 0.041229 0.000641
0.316864 0.012787 0.000763
0.382019 0.000885 0.000885
0.440826 0.001648 0.000000
0.500549 0.001129 0.001129
0.554932 0.001251 0.000000
0.618744 0.002533 0.000641
0.671234 0.000000 0.001526
0.721832 0.001648 0.000641
0.771301 0.000000 0.000000
0.810120 0.002533 0.001404
0.853760 0.002533 0.000000
0.894135 0.000641 0.000000
0.928650 0.003296 0.002289
0.964447 0.000641 0.003052
0.993805 0.000000 0.000763
0.996063 0.000000 0.000000
0.999481 0.003418 0.012787
1.000000 0.084625 0.055023
0.993408 0.174835 0.095276
0.992798 0.234802 0.135864
0.998749 0.276398 0.156860
0.000000 0.082977 0.043152
0.000122 0.082855 0.036804
0.000519 0.081970 0.035034
0.000000 0.081451 0.031372
0.001007 0.082458 0.031128
0.006317 0.093872 0.022766
0.028961 0.101074 0.011017
0.088409 0.107391 0.006195
0.151154 0.110413 0.000244
0.209076 0.095490 0.000000
0.276764 0.085144 0.004425
0.339905 0.066681 0.002533
0.406677 0.029724 0.000763
0.456909 0.006073 0.000885
0.516846 0.001007 0.002167
0.578735 0.000763 0.001129
0.627991 0.001892 0.000000
0.683502 0.000000 0.004547
0.735260 0.000000 0.006317
0.779144 0.000000 0.000000
0.818726 0.001404 0.001770
0.861115 0.002014 0.002014
0.897034 0.002014 0.000000
0.933960 0.000000 0.000763
0.966858 0.000000 0.004791
0.994568 0.000763 0.006317
0.995941 0.000641 0.000641
0.998993 0.032623 0.005310
0.997223 0.130554 0.017456
0.999756 0.201019 0.066559
0.996216 0.255402 0.107544
0.993683 0.296387 0.142822
0.003052 0.122070 0.047943
0.003052 0.122070 0.046173
0.003052 0.122070 0.040100
0.003052 0.122955 0.039215
0.003540 0.123444 0.040100
0.007843 0.129669 0.031006
0.000000 0.140656 0.017975
0.059326 0.142548 0.007843
0.138367 0.150391 0.000000
0.213898 0.146484 0.000000
0.276764 0.141815 0.002655
0.344940 0.124207 0.000000
0.410583 0.105988 0.000641
0.474609 0.074371 0.000763
0.538757 0.030090 0.003937
0.592499 0.002655 0.003052
0.639374 0.003052 0.000885
0.693115 0.000000 0.000885
0.740295 0.002533 0.002533
0.787872 0.001526 0.002411
0.824554 0.000000 0.001770
0.869598 0.000000 0.000885
0.906036 0.000885 0.005829
0.939026 0.000000 0.002899
0.965973 0.000885 0.003052
0.995453 0.001648 0.006958
0.996948 0.031219 0.001251
1.000000 0.113983 0.000000
0.999115 0.171143 0.000000
1.000000 0.227692 0.022797
0.993042 0.272614 0.084015
0.996063 0.319427 0.114624
0.001007 0.169769 0.061859
0.001007 0.170776 0.056915
0.000000 0.170013 0.055420
0.000000 0.167847 0.045166
0.003418 0.167847 0.052368
0.000000 0.173676 0.037567
0.000244 0.182037 0.023773
0.016937 0.183533 0.007721
0.109039 0.194305 0.000000
0.202759 0.198212 0.000000
0.272461 0.194305 0.000000
0.351532 0.185699 0.005432
0.416046 0.168243 0.000000
0.488007 0.149261 0.000000
0.551636 0.125610 0.003540
0.604523 0.092712 0.000000
0.656311 0.057007 0.000000
0.706146 0.023621 0.002289
0.754608 0.007080 0.001007
0.787598 0.001404 0.001404
0.828857 0.002899 0.004181
0.871857 0.002533 0.001648
0.902344 0.001007 0.002136
0.939148 0.004028 0.007721
0.969910 0.019196 0.002014
0.992676 0.063232 0.003662
0.999359 0.122955 0.000000
1.000000 0.169250 0.004822
0.996460 0.213409 0.000000
0.990509 0.261841 0.002014
1.000000 0.302216 0.027985
0.993164 0.341309 0.096924
0.000000 0.218597 0.082977
0.000000 0.218719 0.074890
0.000000 0.216064 0.069183
0.000000 0.218597 0.062622
0.001129 0.217438 0.061096
0.004059 0.216919 0.054260
0.006714 0.222137 0.041992
0.000000 0.231232 0.022278
0.076385 0.237946 0.002014
0.171021 0.246033 0.000000
0.272980 0.247040 0.009369
0.357605 0.244385 0.005066
0.425903 0.229980 0.000000
0.490540 0.221619 0.005707
0.554688 0.199860 0.006592
0.614380 0.181763 0.000000
0.667053 0.154694 0.005676
0.716034 0.135437 0.002258
0.761566 0.123932 0.000000
0.803955 0.105225 0.001282
0.840363 0.092957 0.002808
0.877289 0.087646 0.009094
0.913116 0.093201 0.005585
0.951172 0.104095 0.004425
0.974823 0.131927 0.000000
0.997742 0.158234 0.001129
0.995575 0.193024 0.000000
0.998352 0.217072 0.008484
0.999634 0.259216 0.004822
0.998596 0.290070 0.005585
1.000000 0.324097 0.000000
1.000000 0.363068 0.040741
0.002655 0.267670 0.099182
0.000000 0.270325 0.096649
0.000000 0.270569 0.091064
0.000000 0.268921 0.084747
0.000763 0.269806 0.084381
0.000000 0.270325 0.073120
0.000000 0.270325 0.059204
0.000885 0.277771 0.041229
0.017059 0.283081 0.021637
0.142792 0.292450 0.000244
0.248047 0.301697 0.001251
0.338257 0.301819 0.001251
0.428436 0.299683 0.004822
0.488892 0.285248 0.001251
0.556580 0.271454 0.000000
0.617035 0.255280 0.003937
0.671112 0.237915 0.001251
0.720947 0.224365 0.000000
0.769531 0.206421 0.000000
0.814545 0.197205 0.000000
0.851868 0.186432 0.000000
0.883881 0.189087 0.002533
0.912964 0.189087 0.001251
0.949921 0.195923 0.002899
0.975464 0.208710 0.000000
0.996704 0.221100 0.002533
0.997467 0.244263 0.000000
0.999481 0.267029 0.007202
0.994812 0.297272 0.002289
0.998749 0.324707 0.000519
0.996216 0.354828 0.002533
1.000000 0.382782 0.001251
0.000000 0.320923 0.124603
0.002533 0.323334 0.126862
0.000000 0.322052 0.119293
0.000000 0.319519 0.108917
0.000885 0.321564 0.108154
0.003174 0.321289 0.100067
0.003174 0.316986 0.091705
0.003418 0.320923 0.079193
0.005035 0.332672 0.051361
0.122437 0.331024 0.018341
0.218079 0.342804 0.000000
0.327362 0.349518 0.003937
0.410980 0.353424 0.001404
0.491821 0.354553 0.003937
0.557861 0.335480 0.000000
0.621094 0.321564 0.001404
0.670227 0.311920 0.002533
0.726013 0.302307 0.001404
0.773834 0.284973 0.005310
0.813934 0.273865 0.000000
0.856049 0.263489 0.001404
0.885132 0.262085 0.000000
0.917267 0.260956 0.000000
0.949646 0.266022 0.001404
0.979767 0.271576 0.002258
0.994568 0.282715 0.000000
0.997223 0.298645 0.003174
1.000000 0.311829 0.004181
0.995453 0.334839 0.000000
0.991760 0.358002 0.000000
0.999756 0.385437 0.000000
1.000000 0.412018 0.008972
0.000000 0.373810 0.158997
0.000000 0.373810 0.155090
0.002411 0.368988 0.152161
0.002411 0.371399 0.144836
0.001007 0.372284 0.132446
0.002655 0.373169 0.128510
0.004822 0.374542 0.130035
0.001526 0.370758 0.111938
0.006073 0.376587 0.104980
0.098114 0.379608 0.065277
0.209717 0.386078 0.022888
0.298645 0.389343 0.000244
0.383789 0.399719 0.006317
0.473724 0.409088 0.002289
0.554047 0.404022 0.001526
0.620331 0.390228 0.000000
0.675293 0.381104 0.004303
0.722076 0.370117 0.005035
0.771423 0.358093 0.001526
0.815338 0.350006 0.001526
0.854645 0.342041 0.002899
0.894379 0.335205 0.000000
0.926392 0.328247 0.001526
0.953949 0.325470 0.001526
0.976868 0.332184 0.002411
0.999237 0.338623 0.000000
0.995209 0.349640 0.003937
1.000000 0.362549 0.000000
0.997589 0.376587 0.000763
0.998474 0.395050 0.000000
0.997711 0.415039 0.000122
0.997589 0.439850 0.001526
0.000000 0.423889 0.186951
0.001648 0.423889 0.182159
0.001648 0.423889 0.179108
0.003937 0.421600 0.171265
0.000000 0.423889 0.169617
0.000000 0.423248 0.163177
0.002533 0.420868 0.157349
0.002289 0.416809 0.136597
0.002014 0.419983 0.133575
0.093323 0.428436 0.112457
0.200104 0.433380 0.087158
0.290192 0.437042 0.034637
0.372528 0.442749 0.004669
0.450714 0.449066 0.003296
0.538483 0.450958 0.002533
0.615662 0.456268 0.000519
0.669342 0.448669 0.001892
0.722229 0.438416 0.001770
0.766632 0.428192 0.001282
0.806458 0.419342 0.001526
0.849976 0.411499 0.001648
0.887817 0.404266 0.001648
0.920959 0.399078 0.000000
0.953461 0.390625 0.006714
0.982422 0.388458 0.005066
0.997742 0.389374 0.002289
0.998352 0.397461 0.000000
1.000000 0.405426 0.003418
0.999237 0.415405 0.001648
1.000000 0.434387 0.000000
0.999878 0.451843 0.000000
0.998352 0.470947 0.004547
0.001770 0.473724 0.220978
0.001770 0.471588 0.215302
0.003937 0.469696 0.210480
0.003937 0.471191 0.203156
0.001251 0.475006 0.196198
0.003418 0.471588 0.194183
0.004944 0.467285 0.191650
0.001770 0.469421 0.175690
0.009094 0.467407 0.175476
0.116333 0.463745 0.151031
0.204895 0.471710 0.137634
0.289154 0.482971 0.102325
0.364807 0.488525 0.053223
0.439941 0.494995 0.000641
0.516479 0.494720 0.000000
0.588989 0.504578 0.000000
0.663666 0.506622 0.000000
0.718414 0.503937 0.000000
0.764343 0.492065 0.002167
0.804840 0.480560 0.000000
0.846802 0.479675 0.000763
0.881226 0.471191 0.002533
0.919434 0.464111 0.001770
0.946991 0.457275 0.001129
0.979889 0.452484 0.001282
0.998230 0.447021 0.000000
0.998230 0.448547 0.000000
0.998352 0.453247 0.000000
0.999634 0.460205 0.003540
0.997986 0.472992 0.001892
0.997711 0.487518 0.001770
1.000000 0.502960 0.000000
0.002014 0.519287 0.252747
0.002014 0.521179 0.248962
0.000000 0.519135 0.242859
0.003784 0.517242 0.233002
0.003296 0.520782 0.233246
0.001892 0.517242 0.222626
0.001892 0.517242 0.219330
0.002777 0.519287 0.211487
0.030060 0.517242 0.203918
0.140747 0.516479 0.192657
0.216400 0.519775 0.178741
0.283356 0.522186 0.146484
0.364685 0.525604 0.124847
0.426788 0.534698 0.070435
0.500427 0.536713 0.008606
0.572144 0.546722 0.002014
0.647736 0.546997 0.001892
0.707031 0.562286 0.000000
0.756500 0.553802 0.002289
0.797882 0.548096 0.000000
0.839600 0.540649 0.001892
0.876801 0.530914 0.000000
0.911194 0.524445 0.002014
0.944977 0.519135 0.003021
0.972687 0.515076 0.000885
0.997742 0.507385 0.000000
1.000000 0.507385 0.001404
0.996582 0.502075 0.000519
1.000000 0.505493 0.003937
0.997986 0.511444 0.000000
0.999878 0.521179 0.003784
0.997986 0.534973 0.002014
0.000000 0.563080 0.280579
0.000000 0.564972 0.272736
0.000000 0.563080 0.270844
0.005951 0.561188 0.263000
0.006836 0.565491 0.261108
0.002533 0.562439 0.257324
0.005188 0.556000 0.250488
0.010498 0.562073 0.245300
0.091095 0.558289 0.230774
0.178101 0.557251 0.230133
0.232635 0.561066 0.213287
0.301453 0.562561 0.193054
0.357880 0.569031 0.163727
0.432739 0.572937 0.146637
0.494476 0.576599 0.100128
0.556458 0.584839 0.028931
0.616089 0.592560 0.000000
0.682129 0.604584 0.000000
0.747375 0.606598 0.002411
0.789246 0.604309 0.001892
0.830994 0.599884 0.000000
0.870087 0.590027 0.001251
0.906006 0.585999 0.001892
0.934082 0.579895 0.000000
0.970154 0.572937 0.002014
0.991913 0.569031 0.001129
0.998108 0.565887 0.000641
1.000000 0.555237 0.002014
0.997589 0.550934 0.000000
0.994171 0.556641 0.000244
0.999878 0.562958 0.002014
1.000000 0.574982 0.000000
0.000000 0.609009 0.312744
0.000000 0.609009 0.310577
0.003540 0.609009 0.306549
0.003540 0.609009 0.302734
0.001770 0.605072 0.286652
0.003296 0.607239 0.288971
0.006073 0.606842 0.282104
0.072144 0.606842 0.281738
0.155731 0.601929 0.271362
0.212921 0.602020 0.260345
0.269836 0.601288 0.257599
0.315613 0.599243 0.232147
0.374420 0.606201 0.216705
0.434906 0.614685 0.199768
0.494354 0.621765 0.164490
0.545227 0.624573 0.128082
0.600647 0.632416 0.060608
0.666046 0.642151 0.000000
0.728912 0.644043 0.000000
0.783173 0.653656 0.001770
0.823669 0.652130 0.000366
0.860474 0.647705 0.000000
0.895264 0.641510 0.005188
0.924988 0.635437 0.000000
0.957367 0.628998 0.003052
0.981415 0.623688 0.000000
0.995453 0.620026 0.003296
0.999481 0.615570 0.000000
0.994690 0.609009 0.004059
0.995697 0.603821 0.002167
0.998108 0.598877 0.000000
1.000000 0.606476 0.002167
0.000000 0.652252 0.344086
0.000000 0.652252 0.344086
0.000000 0.651245 0.338531
0.000000 0.652893 0.335236
0.000519 0.651245 0.331177
0.021027 0.649597 0.318939
0.084290 0.652893 0.315002
0.159149 0.651245 0.308807
0.202026 0.650879 0.303497
0.250732 0.649963 0.294891
0.294739 0.649353 0.288696
0.346619 0.641144 0.274384
0.386078 0.644287 0.262390
0.439575 0.653900 0.243408
0.490814 0.654541 0.220642
0.546967 0.660339 0.189026
0.602051 0.670227 0.156372
0.653656 0.678070 0.094238
0.705505 0.678070 0.014679
0.763824 0.693756 0.000122
0.813812 0.697662 0.000000
0.847321 0.697662 0.000000
0.890076 0.693237 0.002289
0.918274 0.685272 0.001648
0.947998 0.677948 0.001648
0.983551 0.676422 0.002289
0.997742 0.669830 0.002899
0.997711 0.670349 0.003418
1.000000 0.662628 0.000000
1.000000 0.653412 0.004547
1.000000 0.649750 0.001526
0.996063 0.646698 0.000000
0.077362 0.695892 0.384583
0.075470 0.694397 0.378113
0.063843 0.694641 0.372803
0.057770 0.694397 0.363464
0.086456 0.695282 0.360657
0.136414 0.694641 0.366241
0.175232 0.692871 0.359680
0.222168 0.690460 0.345367
0.255157 0.688568 0.340546
0.293640 0.689178 0.334625
0.335754 0.688049 0.326385
0.374451 0.685150 0.319305
0.407562 0.685913 0.301605
0.453125 0.688171 0.291870
0.501678 0.694641 0.270355
0.546204 0.701721 0.250732
0.595734 0.705261 0.218750
0.647980 0.714996 0.192932
0.697662 0.713867 0.138397
0.743835 0.727264 0.070496
0.798492 0.727386 0.000244
0.836182 0.735107 0.003021
0.875397 0.734344 0.001129
0.908295 0.733093 0.000000
0.940033 0.725769 0.000000
0.965607 0.721832 0.000000
0.995697 0.719452 0.002411
1.000000 0.710083 0.000000
0.995331 0.705383 0.000763
0.997589 0.703369 0.000000
1.000000 0.695404 0.003784
1.000000 0.694397 0.000000
0.201813 0.735626 0.425812
0.194855 0.735626 0.414062
0.188660 0.734222 0.412659
0.187256 0.738159 0.404816
0.190918 0.734222 0.395203
0.216339 0.735626 0.399109
0.242889 0.731689 0.392303
0.273895 0.732574 0.386108
0.300201 0.731689 0.380280
0.334625 0.726379 0.372070
0.361664 0.725128 0.368286
0.397217 0.726379 0.351074
0.429474 0.721313 0.346161
0.467438 0.726379 0.331848
0.508789 0.729553 0.329681
0.549255 0.738159 0.299194
0.599762 0.736755 0.276917
0.640625 0.744843 0.248322
0.687286 0.753326 0.220367
0.731323 0.757629 0.183563
0.776215 0.761688 0.121094
0.820129 0.768494 0.012665
0.865173 0.773438 0.002777
0.907166 0.772308 0.007599
0.928009 0.769012 0.003937
0.961304 0.765472 0.003937
0.981903 0.764984 0.000000
1.000000 0.757751 0.002533
0.998993 0.751678 0.001007
1.000000 0.746246 0.005066
1.000000 0.738159 0.002655
0.997467 0.735626 0.001404
0.273651 0.768768 0.452515
0.276184 0.771301 0.455048
0.267059 0.770172 0.450989
0.265808 0.772675 0.447327
0.265167 0.772675 0.438843
0.288422 0.768768 0.437317
0.298553 0.768250 0.436066
0.328033 0.766235 0.424164
0.348663 0.768250 0.427612
0.369385 0.767883 0.407104
0.394684 0.766113 0.404053
0.427704 0.764740 0.394714
0.453247 0.762329 0.393677
0.483734 0.762329 0.377380
0.519531 0.761414 0.361053
0.559875 0.768890 0.346130
0.599640 0.772827 0.330322
0.641632 0.777496 0.305908
0.682861 0.780518 0.289948
0.718292 0.786865 0.256042
0.765472 0.794708 0.222900
0.810638 0.800262 0.171539
0.849487 0.802917 0.079987
0.883606 0.808350 0.000519
0.926392 0.806702 0.000000
0.950409 0.800629 0.000000
0.979126 0.799500 0.001251
0.993683 0.797607 0.000000
0.996460 0.790131 0.000000
1.000000 0.782166 0.000000
0.996216 0.781921 0.001129
1.000000 0.767487 0.000000
0.343842 0.807220 0.500214
0.343842 0.807220 0.497406
0.339935 0.808868 0.495148
0.339935 0.808868 0.494385
0.333740 0.803284 0.477325
0.345123 0.802795 0.475647
0.360687 0.802399 0.477570
0.376099 0.802277 0.472382
0.398254 0.801147 0.455170
0.413940 0.802155 0.468719
0.435547 0.801788 0.454285
0.455933 0.800781 0.441895
0.479553 0.796722 0.431030
0.513458 0.796600 0.429626
0.539154 0.794312 0.411530
0.566986 0.799622 0.399139
0.603943 0.802551 0.384064
0.642151 0.809387 0.372040
0.681976 0.813416 0.341431
0.715118 0.816193 0.319305
0.759796 0.821503 0.296417
0.797211 0.825562 0.256683
0.841370 0.829620 0.216187
0.872742 0.829346 0.152588
0.908295 0.835175 0.050385
0.940430 0.838593 0.000000
0.972290 0.835297 0.002777
0.997345 0.828583 0.000000
1.000000 0.824432 0.001526
1.000000 0.819733 0.009735
1.000000 0.813934 0.000000
0.997223 0.811127 0.000000
0.408630 0.833282 0.546875
0.407593 0.835175 0.540039
0.399750 0.835419 0.537781
0.399750 0.838074 0.535126
0.403168 0.841492 0.536499
0.399750 0.836578 0.523346
0.423035 0.833008 0.521210
0.423279 0.837067 0.515503
0.441132 0.836060 0.511597
0.455536 0.834808 0.507294
0.470459 0.832916 0.505402
0.498169 0.828339 0.490204
0.514221 0.830750 0.485016
0.535858 0.829620 0.476288
0.560150 0.825165 0.462769
0.589874 0.831268 0.447968
0.614197 0.834290 0.439087
0.647827 0.835175 0.415924
0.686554 0.838074 0.406708
0.722839 0.843536 0.387115
0.755981 0.846558 0.361420
0.788116 0.851624 0.335480
0.824036 0.852875 0.299438
0.861725 0.852875 0.268341
0.893494 0.858826 0.212677
0.935486 0.860718 0.137390
0.966095 0.860352 0.046204
0.987213 0.859711 0.000519
1.000000 0.855804 0.000000
0.997101 0.851379 0.000000
0.993286 0.847076 0.004059
0.998993 0.844025 0.002899
0.468323 0.860107 0.595581
0.465271 0.863129 0.587738
0.463257 0.864258 0.587738
0.457428 0.864014 0.582947
0.461243 0.861481 0.575958
0.462891 0.863373 0.572937
0.466034 0.861725 0.571930
0.474518 0.866180 0.568115
0.490845 0.858063 0.564453
0.504883 0.860107 0.553467
0.520050 0.859222 0.549805
0.533356 0.860474 0.541809
0.547638 0.857056 0.534363
0.566742 0.860107 0.526917
0.586456 0.859222 0.511353
0.605072 0.859070 0.499817
0.628876 0.858185 0.490570
0.660858 0.862244 0.481842
0.695282 0.861481 0.469849
0.722229 0.864014 0.452393
0.756622 0.868439 0.431366
0.787994 0.871490 0.407593
0.815948 0.876404 0.375214
0.845795 0.881592 0.351807
0.883636 0.880585 0.312347
0.921692 0.883636 0.263519
0.955231 0.884521 0.204834
0.976349 0.881989 0.131195
0.998749 0.880463 0.039490
1.000000 0.878815 0.000641
0.999237 0.871979 0.003052
1.000000 0.870087 0.000885
0.520935 0.884766 0.636932
0.523224 0.887054 0.639221
0.516785 0.886902 0.639099
0.512329 0.887909 0.628357
0.509186 0.887909 0.632141
0.513733 0.887787 0.618866
0.524109 0.887909 0.622162
0.530426 0.888794 0.623047
0.538269 0.885529 0.616058
0.549896 0.886261 0.612396
0.556854 0.887817 0.602539
0.569122 0.887909 0.597595
0.588989 0.882477 0.589264
0.601776 0.884766 0.578888
0.613678 0.881592 0.572327
0.631378 0.879700 0.563446
0.645813 0.882874 0.550049
0.671600 0.882996 0.538666
0.701599 0.888702 0.524109
0.725006 0.886261 0.514008
0.758392 0.891205 0.487152
0.787598 0.892609 0.470459
0.815826 0.895386 0.458191
0.850861 0.894745 0.423920
0.875793 0.899567 0.401398
0.910706 0.906769 0.357758
0.940155 0.901062 0.306396
0.968628 0.907532 0.269836
0.996063 0.903595 0.206604
0.996826 0.903351 0.133240
0.999237 0.896515 0.006317
0.996063 0.898163 0.000000
0.572693 0.907898 0.682495
0.572052 0.908539 0.682495
0.572052 0.908539 0.682495
0.571045 0.908783 0.681488
0.564331 0.911957 0.674774
0.568115 0.907898 0.668060
0.570282 0.908539 0.668182
0.579895 0.907898 0.663757
0.578613 0.909180 0.661499
0.592804 0.912842 0.658203
0.601257 0.907288 0.648468
0.607971 0.909180 0.653137
0.623047 0.909424 0.636566
0.629486 0.908539 0.635437
0.639954 0.906128 0.621887
0.658813 0.904633 0.615204
0.670227 0.905884 0.605957
0.687561 0.905243 0.596710
0.720306 0.906891 0.592682
0.739288 0.908539 0.581299
0.766479 0.912598 0.560516
0.788361 0.911835 0.540680
0.812164 0.914612 0.527130
0.841003 0.919678 0.507141
0.869202 0.916626 0.474396
0.903351 0.919434 0.444275
0.932068 0.916382 0.416595
0.960266 0.926880 0.364960
0.987488 0.927765 0.322327
0.996460 0.923462 0.252777
0.999481 0.919556 0.199371
1.000000 0.916382 0.101990
0.615570 0.927887 0.734222
0.616058 0.931824 0.731323
0.616577 0.931305 0.730042
0.616577 0.924988 0.726135
0.616058 0.925476 0.719055
0.607086 0.931305 0.709442
0.617340 0.934479 0.707794
0.619354 0.928406 0.707031
0.627716 0.928894 0.706787
0.631744 0.928406 0.700592
0.645294 0.926239 0.688934
0.641113 0.931305 0.694885
0.656311 0.928802 0.689972
0.666290 0.923218 0.685394
0.677795 0.924469 0.684509
