static/luts/KodakEktar100.cube
#Copyright Tim Martin Presetpro.com StockPresets.com
TITLE "26 - KDK - E64"
#LUT size
LUT_3D_SIZE 8
#LUT data points
0.000000 0.000000 0.000000
0.086275 0.007843 0.003922
0.192157 0.015686 0.003922
0.309804 0.015686 0.003922
0.478431 0.003922 0.000000
0.650980 0.003922 0.000000
0.827451 0.000000 0.003922
0.980392 0.003922 0.003922
0.000000 0.113725 0.043137
0.086275 0.105882 0.011765
0.219608 0.101961 0.000000
0.345098 0.105882 0.000000
0.505882 0.090196 0.003922
0.674510 0.078431 0.003922
0.839216 0.086275 0.003922
0.992157 0.137255 0.000000
0.000000 0.250980 0.094118
0.000000 0.250980 0.086275
0.192157 0.247059 0.047059
0.368627 0.254902 0.000000
0.564706 0.254902 0.000000
0.717647 0.266667 0.003922
0.866667 0.286275 0.003922
0.996078 0.301961 0.000000
0.000000 0.458824 0.141176
0.000000 0.450980 0.125490
0.015686 0.443137 0.125490
0.337255 0.439216 0.043137
0.552941 0.447059 0.000000
0.733333 0.454902 0.000000
0.898039 0.458824 0.000000
1.000000 0.470588 0.007843
0.000000 0.643137 0.203922
0.000000 0.635294 0.184314
0.003922 0.627451 0.192157
0.270588 0.623529 0.168627
0.505882 0.615686 0.043137
0.709804 0.615686 0.000000
0.878431 0.619608 0.000000
1.000000 0.615686 0.000000
0.000000 0.772549 0.329412
0.003922 0.772549 0.321569
0.003922 0.764706 0.313725
0.254902 0.756863 0.305882
0.498039 0.756863 0.262745
0.674510 0.749020 0.156863
0.858824 0.745098 0.000000
0.996078 0.745098 0.000000
0.003922 0.870588 0.490196
0.000000 0.874510 0.486275
0.180392 0.870588 0.482353
0.384314 0.874510 0.474510
0.549020 0.862745 0.474510
0.686275 0.858824 0.423529
0.827451 0.858824 0.329412
0.980392 0.866667 0.152941
0.486275 0.988235 0.678431
0.486275 0.984314 0.674510
0.541176 0.988235 0.682353
0.596078 0.992157 0.686275
0.678431 0.984314 0.686275
0.764706 0.996078 0.682353
0.839216 0.992157 0.643137
0.941176 1.000000 0.588235
0.031373 0.000000 0.109804
0.094118 0.000000 0.086275
0.207843 0.007843 0.066667
0.333333 0.039216 0.066667
0.501961 0.011765 0.027451
0.658824 0.003922 0.003922
0.831373 0.003922 0.000000
0.984314 0.047059 0.000000
0.000000 0.109804 0.133333
0.105882 0.109804 0.129412
0.223529 0.113725 0.109804
0.349020 0.109804 0.090196
0.517647 0.105882 0.031373
0.686275 0.109804 0.000000
0.843137 0.137255 0.000000
0.988235 0.164706 0.003922
0.000000 0.254902 0.176471
0.023529 0.254902 0.168627
0.211765 0.254902 0.137255
0.388235 0.254902 0.109804
0.572549 0.250980 0.054902
0.721569 0.262745 0.000000
0.870588 0.290196 0.000000
0.992157 0.317647 0.000000
0.000000 0.462745 0.227451
0.000000 0.462745 0.203922
0.066667 0.454902 0.200000
0.360784 0.450980 0.145098
0.564706 0.450980 0.054902
0.749020 0.454902 0.000000
0.898039 0.458824 0.000000
1.000000 0.466667 0.000000
0.000000 0.643137 0.294118
0.003922 0.643137 0.262745
0.000000 0.631373 0.247059
0.290196 0.627451 0.231373
0.521569 0.619608 0.160784
0.717647 0.615686 0.000000
0.890196 0.615686 0.000000
1.000000 0.615686 0.003922
0.000000 0.768627 0.388235
0.000000 0.768627 0.376471
0.007843 0.768627 0.360784
0.286275 0.760784 0.349020
0.501961 0.752941 0.313725
0.682353 0.745098 0.227451
0.858824 0.741176 0.011765
0.996078 0.749020 0.000000
0.000000 0.874510 0.525490
0.003922 0.874510 0.509804
0.223529 0.870588 0.509804
0.400000 0.866667 0.498039
0.564706 0.866667 0.498039
0.690196 0.858824 0.447059
0.835294 0.854902 0.360784
0.980392 0.866667 0.215686
0.505882 0.992157 0.694118
0.509804 0.988235 0.694118
0.533333 0.992157 0.686275
0.603922 0.988235 0.686275
0.686275 0.984314 0.694118
0.764706 0.992157 0.694118
0.847059 0.996078 0.662745
0.945098 1.000000 0.607843
0.043137 0.000000 0.239216
0.117647 0.003922 0.231373
0.219608 0.015686 0.207843
0.356863 0.019608 0.211765
0.505882 0.003922 0.164706
0.674510 0.003922 0.141176
0.843137 0.003922 0.082353
1.000000 0.098039 0.003922
0.003922 0.101961 0.250980
0.125490 0.105882 0.262745
0.239216 0.117647 0.239216
0.364706 0.113725 0.215686
0.529412 0.105882 0.196078
0.690196 0.105882 0.152941
0.850980 0.125490 0.078431
0.992157 0.176471 0.003922
0.000000 0.250980 0.290196
0.031373 0.254902 0.290196
0.250980 0.266667 0.278431
0.403922 0.266667 0.258824
0.576471 0.262745 0.227451
0.725490 0.270588 0.180392
0.866667 0.282353 0.094118
1.000000 0.305882 0.000000
0.003922 0.470588 0.352941
0.003922 0.470588 0.345098
0.137255 0.474510 0.321569
0.396078 0.470588 0.290196
0.600000 0.462745 0.247059
0.772549 0.458824 0.211765
0.901961 0.450980 0.125490
0.996078 0.454902 0.000000
0.000000 0.643137 0.403922
0.000000 0.643137 0.396078
0.007843 0.643137 0.376471
0.341176 0.639216 0.356863
0.552941 0.627451 0.309804
0.737255 0.619608 0.235294
0.898039 0.615686 0.184314
1.000000 0.607843 0.031373
0.000000 0.768627 0.478431
0.000000 0.768627 0.478431
0.007843 0.768627 0.458824
0.345098 0.764706 0.450980
0.529412 0.756863 0.419608
0.698039 0.745098 0.352941
0.866667 0.749020 0.239216
1.000000 0.745098 0.192157
0.219608 0.870588 0.580392
0.290196 0.866667 0.592157
0.317647 0.866667 0.556863
0.443137 0.870588 0.552941
0.584314 0.862745 0.556863
0.709804 0.858824 0.525490
0.835294 0.854902 0.450980
0.988235 0.874510 0.325490
0.552941 0.984314 0.729412
0.560784 0.988235 0.733333
0.560784 0.992157 0.713725
0.615686 0.988235 0.713725
0.694118 0.988235 0.717647
0.776471 0.992157 0.725490
0.850980 0.996078 0.682353
0.949020 1.000000 0.639216
0.039216 0.000000 0.396078
0.137255 0.000000 0.400000
0.266667 0.003922 0.384314
0.396078 0.000000 0.360784
0.552941 0.003922 0.360784
0.705882 0.000000 0.309804
0.850980 0.003922 0.258824
0.988235 0.000000 0.207843
0.011765 0.101961 0.415686
0.125490 0.098039 0.411765
0.274510 0.101961 0.411765
0.411765 0.109804 0.384314
0.572549 0.098039 0.376471
0.713725 0.015686 0.321569
0.850980 0.101961 0.282353
0.988235 0.129412 0.215686
0.000000 0.235294 0.447059
0.003922 0.235294 0.450980
0.270588 0.258824 0.443137
0.447059 0.270588 0.423529
0.596078 0.278431 0.407843
0.725490 0.266667 0.349020
0.862745 0.282353 0.305882
0.996078 0.278431 0.223529
0.000000 0.458824 0.486275
0.000000 0.458824 0.486275
0.176471 0.470588 0.490196
0.454902 0.498039 0.482353
0.607843 0.478431 0.443137
0.756863 0.470588 0.411765
0.886275 0.458824 0.341176
1.000000 0.447059 0.266667
0.000000 0.643137 0.529412
0.003922 0.647059 0.533333
0.117647 0.654902 0.525490
0.419608 0.654902 0.513725
0.600000 0.639216 0.494118
0.764706 0.639216 0.454902
0.913725 0.627451 0.427451
1.000000 0.607843 0.333333
0.000000 0.772549 0.572549
0.000000 0.772549 0.572549
0.223529 0.768627 0.576471
0.431373 0.772549 0.568627
0.580392 0.764706 0.560784
0.717647 0.752941 0.498039
0.878431 0.749020 0.431373
1.000000 0.741176 0.403922
0.129412 0.870588 0.639216
0.231373 0.870588 0.639216
0.400000 0.866667 0.647059
0.494118 0.866667 0.631373
0.615686 0.866667 0.631373
0.725490 0.858824 0.611765
0.847059 0.858824 0.556863
0.996078 0.874510 0.458824
0.486275 0.988235 0.741176
0.509804 0.996078 0.752941
0.592157 0.988235 0.760784
0.635294 0.992157 0.752941
0.698039 0.988235 0.756863
0.788235 0.988235 0.756863
0.866667 0.992157 0.729412
0.952941 0.996078 0.686275
0.090196 0.000000 0.568627
0.164706 0.000000 0.564706
0.305882 0.003922 0.568627
0.462745 0.000000 0.549020
0.603922 0.003922 0.533333
0.752941 0.003922 0.521569
0.886275 0.003922 0.490196
1.000000 0.000000 0.427451
0.062745 0.082353 0.580392
0.180392 0.074510 0.580392
0.317647 0.058824 0.580392
0.478431 0.062745 0.564706
0.611765 0.066667 0.541176
0.756863 0.121569 0.529412
0.882353 0.109804 0.490196
1.000000 0.054902 0.427451
0.007843 0.227451 0.600000
0.117647 0.231373 0.600000
0.317647 0.243137 0.603922
0.490196 0.258824 0.588235
0.631373 0.290196 0.568627
0.756863 0.321569 0.549020
0.886275 0.305882 0.501961
1.000000 0.262745 0.427451
0.000000 0.419608 0.623529
0.000000 0.423529 0.615686
0.215686 0.435294 0.623529
0.478431 0.470588 0.623529
0.643137 0.501961 0.611765
0.760784 0.505882 0.584314
0.882353 0.462745 0.525490
0.996078 0.458824 0.466667
0.000000 0.631373 0.643137
0.000000 0.627451 0.650980
0.207843 0.635294 0.647059
0.447059 0.650980 0.643137
0.654902 0.662745 0.650980
0.768627 0.647059 0.627451
0.894118 0.627451 0.576471
1.000000 0.600000 0.509804
0.000000 0.772549 0.674510
0.000000 0.768627 0.682353
0.231373 0.772549 0.682353
0.462745 0.776471 0.678431
0.639216 0.772549 0.674510
0.756863 0.756863 0.647059
0.890196 0.756863 0.619608
0.996078 0.745098 0.596078
0.007843 0.870588 0.713725
0.164706 0.870588 0.721569
0.333333 0.874510 0.713725
0.501961 0.874510 0.717647
0.650980 0.866667 0.713725
0.756863 0.858824 0.705882
0.854902 0.866667 0.658824
1.000000 0.866667 0.600000
0.309804 0.996078 0.764706
0.368627 0.996078 0.776471
0.486275 0.996078 0.784314
0.619608 0.996078 0.800000
0.709804 0.992157 0.803922
0.800000 0.992157 0.803922
0.874510 0.992157 0.788235
0.956863 0.996078 0.749020
0.203922 0.000000 0.729412
0.258824 0.000000 0.725490
0.384314 0.000000 0.725490
0.525490 0.000000 0.717647
0.678431 0.000000 0.705882
0.803922 0.000000 0.694118
0.909804 0.070588 0.658824
1.000000 0.203922 0.654902
0.192157 0.035294 0.717647
0.258824 0.019608 0.729412
0.376471 0.000000 0.725490
0.533333 0.000000 0.729412
0.686275 0.019608 0.721569
0.803922 0.070588 0.694118
0.909804 0.207843 0.670588
1.000000 0.274510 0.650980
0.156863 0.223529 0.737255
0.235294 0.223529 0.737255
0.376471 0.223529 0.729412
0.533333 0.235294 0.733333
0.686275 0.286275 0.725490
0.807843 0.313725 0.705882
0.905882 0.368627 0.682353
1.000000 0.392157 0.650980
0.000000 0.396078 0.749020
0.035294 0.403922 0.749020
0.329412 0.435294 0.745098
0.517647 0.450980 0.756863
0.678431 0.486275 0.741176
0.800000 0.513725 0.729412
0.894118 0.537255 0.705882
0.996078 0.517647 0.670588
0.003922 0.592157 0.756863
0.000000 0.596078 0.756863
0.239216 0.607843 0.756863
0.443137 0.607843 0.756863
0.662745 0.643137 0.768627
0.796078 0.662745 0.756863
0.898039 0.658824 0.729412
1.000000 0.623529 0.670588
0.007843 0.745098 0.788235
0.129412 0.749020 0.784314
0.317647 0.749020 0.776471
0.486275 0.756863 0.784314
0.654902 0.768627 0.784314
0.815686 0.780392 0.792157
0.913725 0.764706 0.764706
1.000000 0.745098 0.721569
0.176471 0.874510 0.819608
0.235294 0.870588 0.811765
0.360784 0.866667 0.815686
0.505882 0.874510 0.811765
0.647059 0.870588 0.803922
0.792157 0.874510 0.807843
0.882353 0.862745 0.776471
1.000000 0.866667 0.756863
0.345098 1.000000 0.858824
0.368627 1.000000 0.858824
0.443137 1.000000 0.850980
0.541176 0.996078 0.850980
0.666667 0.996078 0.847059
0.811765 0.996078 0.862745
0.886275 0.992157 0.862745
0.964706 1.000000 0.831373
0.333333 0.000000 0.854902
0.372549 0.000000 0.862745
0.458824 0.000000 0.862745
0.592157 0.000000 0.858824
0.729412 0.003922 0.858824
0.862745 0.003922 0.850980
0.968627 0.035294 0.827451
1.000000 0.274510 0.792157
0.321569 0.003922 0.862745
0.376471 0.000000 0.866667
0.458824 0.000000 0.862745
0.592157 0.000000 0.866667
0.725490 0.000000 0.854902
0.858824 0.141176 0.847059
0.964706 0.196078 0.831373
0.996078 0.333333 0.792157
0.313725 0.215686 0.866667
0.356863 0.211765 0.866667
0.454902 0.207843 0.870588
0.576471 0.215686 0.862745
0.717647 0.262745 0.850980
0.850980 0.345098 0.850980
0.956863 0.372549 0.835294
0.996078 0.447059 0.796078
0.247059 0.407843 0.870588
0.305882 0.411765 0.870588
0.411765 0.415686 0.870588
0.552941 0.423529 0.866667
0.705882 0.466667 0.870588
0.839216 0.517647 0.858824
0.941176 0.533333 0.843137
0.996078 0.572549 0.807843
0.000000 0.576471 0.882353
0.156863 0.576471 0.874510
0.325490 0.584314 0.874510
0.513725 0.603922 0.878431
0.674510 0.615686 0.878431
0.823529 0.647059 0.862745
0.929412 0.662745 0.862745
1.000000 0.686275 0.831373
0.129412 0.729412 0.882353
0.215686 0.729412 0.882353
0.341176 0.729412 0.882353
0.478431 0.737255 0.874510
0.639216 0.737255 0.886275
0.807843 0.752941 0.882353
0.925490 0.776471 0.874510
0.992157 0.776471 0.858824
0.337255 0.850980 0.913725
0.368627 0.843137 0.905882
0.447059 0.850980 0.905882
0.545098 0.850980 0.898039
0.670588 0.858824 0.905882
0.800000 0.866667 0.898039
0.933333 0.890196 0.913725
1.000000 0.870588 0.874510
0.403922 1.000000 0.949020
0.423529 0.996078 0.945098
0.482353 1.000000 0.945098
0.556863 0.996078 0.941176
0.658824 1.000000 0.933333
0.772549 0.996078 0.929412
0.909804 1.000000 0.929412
0.984314 0.996078 0.913725
0.474510 0.000000 0.992157
0.498039 0.000000 1.000000
0.560784 0.000000 1.000000
0.662745 0.000000 0.992157
0.776471 0.000000 0.992157
0.898039 0.160784 0.980392
1.000000 0.286275 0.972549
1.000000 0.325490 0.960784
0.474510 0.000000 1.000000
0.498039 0.000000 1.000000
0.560784 0.000000 1.000000
0.662745 0.000000 0.992157
0.784314 0.070588 0.992157
0.898039 0.254902 0.988235
0.996078 0.345098 0.972549
1.000000 0.376471 0.964706
0.462745 0.239216 0.996078
0.486275 0.239216 1.000000
0.556863 0.239216 0.996078
0.650980 0.239216 0.996078
0.768627 0.298039 0.996078
0.894118 0.388235 0.992157
0.992157 0.454902 0.972549
1.000000 0.474510 0.964706
0.427451 0.435294 1.000000
0.458824 0.439216 0.996078
0.529412 0.439216 0.996078
0.631373 0.447059 0.996078
0.749020 0.466667 0.996078
0.878431 0.521569 0.988235
0.976471 0.576471 0.976471
1.000000 0.580392 0.964706
0.403922 0.607843 0.996078
0.447059 0.619608 1.000000
0.513725 0.615686 0.996078
0.596078 0.603922 1.000000
0.725490 0.619608 1.000000
0.854902 0.639216 0.996078
0.964706 0.682353 0.980392
1.000000 0.686275 0.972549
0.388235 0.737255 0.996078
0.411765 0.737255 0.996078
0.466667 0.737255 1.000000
0.580392 0.737255 1.000000
0.705882 0.741176 1.000000
0.823529 0.745098 0.992157
0.952941 0.768627 0.980392
1.000000 0.776471 0.976471
0.501961 0.850980 1.000000
0.517647 0.850980 1.000000
0.556863 0.850980 1.000000
0.615686 0.847059 0.996078
0.698039 0.854902 0.996078
0.796078 0.850980 1.000000
0.929412 0.870588 1.000000
1.000000 0.886275 0.988235
0.600000 0.968627 1.000000
0.607843 0.972549 1.000000
0.639216 0.968627 1.000000
0.686275 0.972549 0.996078
0.749020 0.980392 0.996078
0.823529 0.984314 0.992157
0.913725 0.996078 1.000000
0.996078 1.000000 1.000000
